!!!COM: L. van Beethoven
!!!OTL: Op. 59 No. 3 Movement 1 - String Quartet No. 9
**kern	**dynam	**kern	**dynam	**kern	**dynam	**kern	**dynam	**mxhm
*part4	*part4	*part3	*part3	*part2	*part2	*part1	*part1	*part1
*staff4	*	*staff3	*	*staff2	*	*staff1	*	*
*I"Cello	*	*I"Viola	*	*I"2nd Violin	*	*I"1st Violin	*	*
*clefF4	*	*clefC3	*	*clefG2	*	*clefG2	*	*
*k[f#]	*	*k[f#]	*	*k[f#]	*	*k[f#]	*	*
*G:	*	*G:	*	*G:	*	*G:	*	*
*M2/2	*	*M2/2	*	*M2/2	*	*M2/2	*	*
*met(c|)	*	*met(c|)	*	*met(c|)	*	*met(c|)	*	*
=1	=1	=1	=1	=1	=1	=1	=1	=1
!	!LO:DY:a	!	!	!	!	!LO:TX:a:B:t=Allegro molto.	!	!
1r	p	[2d	.	1r	.	1r	.	V
.	.	8dL]	.	.	.	.	.	.
.	.	8d	.	.	.	.	.	.
.	.	8e	.	.	.	.	.	.
.	.	8dJ	.	.	.	.	.	.
=2	=2	=2	=2	=2	=2	=2	=2	=2
1r	.	8cL	.	1r	.	1r	.	V43
.	.	8BJ	.	.	.	.	.	.
.	.	4A	.	.	.	.	.	.
.	.	8r	.	.	.	.	.	.
.	.	8cL	.	.	.	.	.	.
.	.	8d	.	.	.	.	.	.
.	.	8cJ	.	.	.	.	.	.
=3	=3	=3	=3	=3	=3	=3	=3	=3
1r	.	8BL	.	1r	.	1r	.	I
.	.	8AJ	.	.	.	.	.	.
.	.	4G	.	.	.	.	.	.
.	.	8r	.	.	.	.	.	.
.	.	8dL	.	.	.	.	.	.
.	.	8e	.	.	.	.	.	.
.	.	8dJ	.	.	.	.	.	.
=4	=4	=4	=4	=4	=4	=4	=4	=4
1r	.	8cL	.	1r	.	1r	.	V43
.	.	8B	.	.	.	.	.	.
.	.	8A	.	.	.	.	.	.
.	.	8BJ	.	.	.	.	.	.
.	.	8cL	.	.	.	.	.	.
.	.	8A	.	.	.	.	.	.
.	.	8d	.	.	.	.	.	.
.	.	8cJ	.	.	.	.	.	.
=5	=5	=5	=5	=5	=5	=5	=5	=5
1r	.	8BL	.	1r	.	1r	.	I
.	.	8A	.	.	.	.	.	.
.	.	8G	.	.	.	.	.	.
.	.	8AJ	.	.	.	.	.	.
.	.	8BL	.	.	.	.	.	.
.	.	8c	.	.	.	.	.	.
.	.	8d	.	.	.	.	.	.
.	.	8BJ	.	.	.	.	.	.
=6	=6	=6	=6	=6	=6	=6	=6	=6
1r	.	8eL	.	1r	.	1r	.	V
.	.	8d	.	.	.	.	.	.
.	.	8c	.	.	.	.	.	.
.	.	8eJ	.	.	.	.	.	.
.	.	8f#L	.	.	.	.	.	.
.	.	8e	.	.	.	.	.	.
.	.	8d	.	.	.	.	.	.
.	.	8f#J	.	.	.	.	.	.
=7	=7	=7	=7	=7	=7	=7	=7	=7
1r	.	8gL	.	1r	.	1r	.	I6
.	.	8a	.	.	.	.	.	.
.	.	8b	.	.	.	.	.	.
.	.	8gJ	.	.	.	.	.	.
.	.	8dL	.	.	.	.	.	.
.	.	8c	.	.	.	.	.	.
.	.	8B	.	.	.	.	.	.
.	.	8dJ	.	.	.	.	.	.
=8	=8	=8	=8	=8	=8	=8	=8	=8
1r	.	8eL	.	1r	.	1r	.	V
.	.	8d	.	.	.	.	.	.
.	.	8c	.	.	.	.	.	.
.	.	8eJ	.	.	.	.	.	.
.	.	8f#L	.	.	.	.	.	.
.	.	8e	.	.	.	.	.	.
.	.	8d	.	.	.	.	.	.
.	.	8f#J	.	.	.	.	.	.
=9	=9	=9	=9	=9	=9	=9	=9	=9
1r	.	8gL	.	1r	.	1r	.	vi
.	.	8g	.	.	.	.	.	.
.	.	8a	.	.	.	.	.	.
.	.	8gJ	.	.	.	.	.	.
.	.	8eL	.	.	.	.	.	.
.	.	8e	.	.	.	.	.	.
.	.	8f#	.	.	.	.	.	.
.	.	8eJ	.	.	.	.	.	.
=10	=10	=10	=10	=10	=10	=10	=10	=10
1r	.	8c#XL	.	1r	.	1r	.	V7/V
.	.	8c#	.	.	.	.	.	.
.	.	8d	.	.	.	.	.	.
.	.	8c#J	.	.	.	.	.	.
.	.	8AL	.	.	.	.	.	.
.	.	8A	.	.	.	.	.	.
.	.	8B	.	.	.	.	.	.
.	.	8AJ	.	.	.	.	.	.
=11	=11	=11	=11	=11	=11	=11	=11	=11
!	!	!	!LO:DY:a	!	!	!	!	!
1r	.	8dL	p	[2a	.	1r	.	V.I
.	.	8A	.	.	.	.	.	.
.	.	8B	.	.	.	.	.	.
.	.	8c#XJ	.	.	.	.	.	.
.	.	8dL	.	8aL]	.	.	.	.
.	.	8c#	.	8a	.	.	.	.
.	.	8d	.	8b	.	.	.	.
.	.	8d#XJ	.	8aJ	.	.	.	.
=12	=12	=12	=12	=12	=12	=12	=12	=12
1r	.	8eL	.	8gL	.	1r	.	V65
.	.	8d	.	8f#J	.	.	.	.
.	.	8c#X	.	4e	.	.	.	.
.	.	8BJ	.	.	.	.	.	.
.	.	8c#L	.	8r	.	.	.	.
.	.	8A	.	8gL	.	.	.	.
.	.	8B	.	8a	.	.	.	.
.	.	8c#J	.	8gJ	.	.	.	.
=13	=13	=13	=13	=13	=13	=13	=13	=13
!	!	!LO:TX:b:i:t=crescendo poco a poco	!	!LO:TX:b:i:t=crescendo poco a poco	!	!	!	!
1r	.	8dL	.	8f#L	.	4r	.	I
.	.	8A	.	8eJ	.	.	.	.
.	.	8B	.	4d	.	4r	.	IV
.	.	8c#XJ	.	.	.	.	.	.
.	.	8dL	.	8r	.	4r	.	I
.	.	8c#	.	8aL	.	.	.	.
.	.	8d	.	8b	.	4r	.	vi
.	.	8d#XJ	.	8aJ	.	.	.	.
=14	=14	=14	=14	=14	=14	=14	=14	=14
1r	.	8eL	.	8gL	.	1r	.	V43
.	.	8d	.	8f#	.	.	.	.
.	.	8c#X	.	8e	.	.	.	.
.	.	8BJ	.	8f#J	.	.	.	.
.	.	8AL	.	8gL	.	.	.	.
.	.	8G	.	8e	.	.	.	.
.	.	8F#	.	8a	.	.	.	.
.	.	8EJ	.	8gJ	.	.	.	.
=15	=15	=15	=15	=15	=15	=15	=15	=15
1r	.	4D'	.	8f#L	.	1r	.	I6
.	.	.	.	8e	.	.	.	.
.	.	4A'	.	8d	.	.	.	.
.	.	.	.	8eJ	.	.	.	.
.	.	4F#'	.	8f#L	.	.	.	.
.	.	.	.	8g	.	.	.	.
.	.	4D'	.	8a	.	.	.	.
.	.	.	.	8f#J	.	.	.	.
=16	=16	=16	=16	=16	=16	=16	=16	=16
1r	.	4G'	.	8bL	.	4r	.	IV
.	.	.	.	8a	.	.	.	.
.	.	4E'	.	8g	.	4r	.	ii
.	.	.	.	8bJ	.	.	.	.
.	.	4A'	.	8cc#XL	.	4r	.	V
.	.	.	.	8b	.	.	.	.
.	.	4F#'	.	8a	.	4r	.	iii
.	.	.	.	8cc#J	.	.	.	.
=17	=17	=17	=17	=17	=17	=17	=17	=17
1r	.	4F#'	.	8ddL	.	1r	.	I.V6
.	.	.	.	8ee	.	.	.	.
.	.	4A'	.	8ff#	.	.	.	.
.	.	.	.	8ddJ	.	.	.	.
.	.	4F#'	.	8aL	.	.	.	.
.	.	.	.	8g	.	.	.	.
.	.	4D'	.	8f#	.	.	.	.
.	.	.	.	8aJ	.	.	.	.
=18	=18	=18	=18	=18	=18	=18	=18	=18
1r	.	4G'	.	8bL	.	1r	.	V(6#4)
.	.	.	.	8a	.	.	.	.
.	.	4D'	.	8g	.	.	.	.
.	.	.	.	8bJ	.	.	.	.
.	.	4G#X'	.	8bL	.	.	.	.
.	.	.	.	8a	.	.	.	.
.	.	4D'	.	8g#X	.	.	.	.
.	.	.	.	8bJ	.	.	.	.
=19	=19	=19	=19	=19	=19	=19	=19	=19
1r	.	4A'	.	8ccL	.	1r	.	V7
.	.	.	.	8cc	.	.	.	.
.	.	4D'	.	8dd	.	.	.	.
.	.	.	.	8ccJ	.	.	.	.
.	.	4c'	.	8aL	.	.	.	.
.	.	.	.	8a	.	.	.	.
.	.	4D'	.	8b	.	.	.	.
.	.	.	.	8aJ	.	.	.	.
=20	=20	=20	=20	=20	=20	=20	=20	=20
1r	.	4d'	.	8f#L	.	1r	.	V
.	.	.	.	8f#	.	.	.	.
.	.	4D'	.	8g	.	.	.	.
.	.	.	.	8f#J	.	.	.	.
.	.	4c'	.	8dL	.	.	.	.
.	.	.	.	8d	.	.	.	.
.	.	4D'	.	8e	.	.	.	.
.	.	.	.	8dJ	.	.	.	.
=21	=21	=21	=21	=21	=21	=21	=21	=21
[2D	.	8BL	.	8gL	.	1r	.	V2/ii
.	.	8A	.	8f#	.	.	.	.
.	.	8B	.	8g	.	.	.	.
.	.	8cJ	.	8aJ	.	.	.	.
!LO:TX:b:i:t=crescendo poco a poco	!	!	!	!	!	!	!	!
8DL]	.	8dL	.	8bL	.	.	.	.
8D	.	8G#X	.	8e	.	.	.	.
8E	.	8A	.	8f#	.	.	.	.
8DJ	.	8BJ	.	8g#XJ	.	.	.	.
=22	=22	=22	=22	=22	=22	=22	=22	=22
!	!	!LO:TX:b:i:t=sempre piu crescendo	!	!LO:TX:b:i:t=sempre piu crescendo	!	!	!	!
8CL	.	8cL	.	8aL	.	1r	.	V2
8BBJ	.	8d	.	8b	.	.	.	.
4AA	.	8e	.	8cc	.	.	.	.
.	.	8cJ	.	8aJ	.	.	.	.
8r	.	8AL	.	8f#L	.	.	.	.
8CL	.	8F#	.	8d	.	.	.	.
8D	.	8G	.	8e	.	.	.	.
8CJ	.	8AJ	.	8f#J	.	.	.	.
=23	=23	=23	=23	=23	=23	=23	=23	=23
8BBL	.	8BL	.	8gL	.	1r	.	V2/ii
8AAJ	.	8c	.	8a	.	.	.	.
4GG	.	8d	.	8b	.	.	.	.
.	.	8dJ	.	8bJ	.	.	.	.
8r	.	8dL	.	8bL	.	.	.	.
8DL	.	8E	.	8g#X	.	.	.	.
8E	.	8F#	.	8a	.	.	.	.
8DJ	.	8G#XJ	.	8bJ	.	.	.	.
=24	=24	=24	=24	=24	=24	=24	=24	=24
8CL	.	8AL	.	8ccL	.	1r	.	V2
8BB	.	8B	.	8dd	.	.	.	.
8AA	.	8c	.	8ee	.	.	.	.
8BBJ	.	8BJ	.	8ddJ	.	.	.	.
8CL	.	8AL	.	8ccL	.	.	.	.
8AA	.	8D	.	8f#	.	.	.	.
8D	.	8E	.	8g	.	.	.	.
8CJ	.	8F#J	.	8aJ	.	.	.	.
=25	=25	=25	=25	=25	=25	=25	=25	=25
8BBL	.	4G'	.	4b'	.	1r	.	V65/IV
8AA	.	.	.	.	.	.	.	.
8GG	.	4B'	.	4dd'	.	.	.	.
8AAJ	.	.	.	.	.	.	.	.
8BBL	.	4d'	.	4g'	.	.	.	.
8C	.	.	.	.	.	.	.	.
8D	.	4G'	.	4ffX'	.	.	.	.
8BBJ	.	.	.	.	.	.	.	.
=26	=26	=26	=26	=26	=26	=26	=26	=26
8EL	.	4G'	.	4g'	.	1r	.	V7
8D	.	.	.	.	.	.	.	.
8C	.	4c'	.	4ee'	.	.	.	.
8EJ	.	.	.	.	.	.	.	.
8F#L	.	4c'	.	4a'	.	.	.	.
8E	.	.	.	.	.	.	.	.
8D	.	4c'	.	4dd'	.	.	.	.
8F#J	.	.	.	.	.	.	.	.
=27	=27	=27	=27	=27	=27	=27	=27	=27
8GL	.	4B'	.	4g'	.	1r	.	V65/IV
8A	.	.	.	.	.	.	.	.
8B	.	4B'	.	4dd'	.	.	.	.
8GJ	.	.	.	.	.	.	.	.
8DL	.	4fX'	.	4g'	.	.	.	.
8C	.	.	.	.	.	.	.	.
8BB	.	4f'	.	4dd'	.	.	.	.
8DJ	.	.	.	.	.	.	.	.
=28	=28	=28	=28	=28	=28	=28	=28	=28
8EL	.	4e'	.	4g'	.	1r	.	V7
8D	.	.	.	.	.	.	.	.
8C	.	4g'	.	4cc'	.	.	.	.
8EJ	.	.	.	.	.	.	.	.
8F#L	.	4d'	.	4a'	.	.	.	.
8E	.	.	.	.	.	.	.	.
8D	.	4a'	.	4cc'	.	.	.	.
8F#J	.	.	.	.	.	.	.	.
=29	=29	=29	=29	=29	=29	=29	=29	=29
8GL	.	4d'	.	4a'	.	1r	.	vi
8G	.	.	.	.	.	.	.	.
8F#	.	4a'	.	4b'	.	.	.	.
8GJ	.	.	.	.	.	.	.	.
8EL	.	4e'	.	4g'	.	.	.	.
8E	.	.	.	.	.	.	.	.
8D#X	.	4g'	.	4b'	.	.	.	.
8EJ	.	.	.	.	.	.	.	.
=30	=30	=30	=30	=30	=30	=30	=30	=30
8CL	.	4g'	.	4a'	.	1r	.	V\\
8C	.	.	.	.	.	.	.	.
8BB	.	4G'	.	4A'	.	.	.	.
8CJ	.	.	.	.	.	.	.	.
8DL	.	4F#'	.	4A'	.	.	.	.
8D	.	.	.	.	.	.	.	.
8C#X	.	4f#'	.	4a'	.	.	.	.
8DJ	.	.	.	.	.	.	.	.
=31	=31	=31	=31	=31	=31	=31	=31	=31
!	!	!	!LO:DY:a	!	!	!	!	!
8BBL	f	8BL	f f	4g	.	[4dd	f	I6
8DD	.	8D	.	.	.	.	.	.
8EE	.	8E	.	[4d	.	4dd_	.	vi7
8FF#J	.	8F#J	.	.	.	.	.	.
8GGL	.	8GL	.	8dL]	.	8ddL]	.	I
8FF#	.	8F#	.	8d	.	8dd	.	V6
8GG	.	8G	.	8e	.	8ee	.	vi6
8GG#XJ	.	8G#XJ	.	8dJ	.	8ddJ	.	V65/ii
=32	=32	=32	=32	=32	=32	=32	=32	=32
8AAL	.	8AL	.	8cL	.	8ccL	.	ii
8BB	.	8B	.	8BJ	.	8bJ	.	.
8C	.	8c	.	4A	.	4a	.	ii6
8AAJ	.	8AJ	.	.	.	.	.	.
8FF#L	.	8F#L	.	8r	.	8r	.	V65
8AA	.	8A	.	8cL	.	8ccL	.	.
8DD	.	8D	.	8d	.	8dd	.	V7
8FF#J	.	8F#J	.	8cJ	.	8ccJ	.	.
=33	=33	=33	=33	=33	=33	=33	=33	=33
8GGL	.	8GL	.	8BL	.	8bL	.	I\\
8FF#	.	8F#	.	8AJ	.	8aJ	.	.
8GG	.	8G	.	4G	.	4g	.	.
8AAJ	.	8AJ	.	.	.	.	.	.
8BBL	.	8BL	.	8r	.	8r	.	I6
8AA	.	8A	.	8dL	.	8ddL	.	.
8GG	.	8G	.	8e	.	8ee	.	vi6
8GG#XJ	.	8G#XJ	.	8dJ	.	8ddJ	.	V65/ii
=34	=34	=34	=34	=34	=34	=34	=34	=34
8AAL	.	8AL	.	8cL	.	8ccL	.	ii
8EE	.	8E	.	8B	.	8b	.	V
8FF#	.	8F#	.	8A	.	8a	.	.
8GG#XJ	.	8G#XJ	.	8BJ	.	8bJ	.	V6
8AAL	.	8AL	.	8cL	.	8ccL	.	ii
8GG	.	8G	.	8A	.	8a	.	.
8FF#	.	8F#	.	8d	.	8dd	.	V6
8DDJ	.	8DJ	.	8cJ	.	8ccJ	.	V7
=35	=35	=35	=35	=35	=35	=35	=35	=35
4GG'	.	4G'	.	8BL	.	8bL	.	I\\
.	.	.	.	8A	.	8a	.	.
4DD'	.	4D'	.	8G	.	8g	.	I64
.	.	.	.	8AJ	.	8aJ	.	.
4GGG'	.	4GG'	.	8BL	.	8bL	.	I
.	.	.	.	8c	.	8cc	.	.
4FFX'	.	4FX'	.	8d	.	8dd	.	V2/IV
.	.	.	.	8BJ	.	8bJ	.	.
=36	=36	=36	=36	=36	=36	=36	=36	=36
4CC	.	4C	.	8eL	.	8eeL	.	IV
.	.	.	.	8d	.	8dd	.	.
4EE	.	4E	.	8c	.	8cc	.	IV6
.	.	.	.	8eJ	.	8eeJ	.	.
4AAA	.	4AA	.	8f#L	.	8ff#L	.	V64
.	.	.	.	8e	.	8ee	.	.
4DD	.	4D	.	8d	.	8dd	.	V
.	.	.	.	8f#J	.	8ff#J	.	.
=37	=37	=37	=37	=37	=37	=37	=37	=37
4BBB	.	4BB	.	8gL	.	8ggL	.	I6
.	.	.	.	8a	.	8aa	.	.
4DD	.	4D	.	8b	.	8bb	.	I64
.	.	.	.	8gJ	.	8ggJ	.	.
4GGG	.	4GG	.	8dL	.	8ddL	.	I
.	.	.	.	8c	.	8cc	.	.
4FFX	.	4FX	.	8B	.	8b	.	V2/V
.	.	.	.	8dJ	.	8ddJ	.	.
=38	=38	=38	=38	=38	=38	=38	=38	=38
4CC	.	4C	.	8eL	.	8eeL	.	IV
.	.	.	.	8e	.	8ee	.	.
4EE	.	4E	.	8d	.	8dd	.	IV6
.	.	.	.	8eJ	.	8eeJ	.	.
4AAA	.	4AA	.	8f#L	.	8ff#L	.	V64
.	.	.	.	8f#	.	8ff#	.	.
4DD	.	4D	.	8e	.	8ee	.	V
.	.	.	.	8f#J	.	8ff#J	.	.
=39	=39	=39	=39	=39	=39	=39	=39	=39
2EE'	.	2E'	.	8gL	.	8ggL	.	vi
.	.	.	.	8g	.	8gg	.	.
.	.	.	.	8f#	.	8ff#	.	.
.	.	.	.	8gJ	.	8ggJ	.	.
2FF#'	.	2F#'	.	8aL	.	8aaL	.	@none
.	.	.	.	8a	.	8aa	.	.
.	.	.	.	8g	.	8gg	.	.
.	.	.	.	8aJ	.	8aaJ	.	.
=40	=40	=40	=40	=40	=40	=40	=40	=40
2GG'	.	2G'	.	8bL	.	8bbL	.	I
.	.	.	.	8b	.	8bb	.	.
.	.	.	.	8a	.	8aa	.	.
.	.	.	.	8bJ	.	8bbJ	.	.
2AA'	.	2A'	.	8ccL	.	8cccL	.	viio6
.	.	.	.	8cc	.	8ccc	.	.
.	.	.	.	8b	.	8bb	.	.
.	.	.	.	8ccJ	.	8cccJ	.	.
=41	=41	=41	=41	=41	=41	=41	=41	=41
2BB'	.	2B'	.	8ddL	.	8dddL	.	I6
.	.	.	.	8dd	.	8ddd	.	.
.	.	.	.	8ee	.	8eee	.	.
.	.	.	.	8ddJ	.	8dddJ	.	.
2C'	.	2c'	.	8ccL	.	8cccL	.	IV
.	.	.	.	8cc	.	8ccc	.	.
.	.	.	.	8dd	.	8ddd	.	.
.	.	.	.	8ccJ	.	8cccJ	.	.
=42	=42	=42	=42	=42	=42	=42	=42	=42
2D'	.	2d'	.	8bL	.	8bbL	.	V(64)
.	.	.	.	8b	.	8bb	.	.
.	.	.	.	8cc	.	8ccc	.	.
.	.	.	.	8bJ	.	8bbJ	.	.
2D#X'	.	2d#X'	.	8aL	.	8aaL	.	V65/vi
.	.	.	.	8a	.	8aa	.	.
.	.	.	.	8b	.	8bb	.	.
.	.	.	.	8aJ	.	8aaJ	.	.
=43	=43	=43	=43	=43	=43	=43	=43	=43
2E'	.	2e'	.	4g	.	8ggL	.	vi
.	.	.	.	.	.	8gg	.	.
.	.	.	.	4g	.	8ff#	.	.
.	.	.	.	.	.	8ggJ	.	.
2F#'	.	2A'	.	4r	.	8aaL	.	V6
.	.	.	.	.	.	8aa	.	.
.	.	.	.	4d 4a	.	8gg	.	.
.	.	.	.	.	.	8aaJ	.	.
=44	=44	=44	=44	=44	=44	=44	=44	=44
!LO:TX:b:i:t=piu	!	!LO:TX:b:i:t=piu	!	!LO:TX:b:i:t=piu	!	!LO:TX:b:i:t=piu	!	!
2G'	f	2d'	f	4r	.	8bbL	f	I
.	.	.	.	.	.	8bb	.	.
.	.	.	.	4g 4b	f	8aa	.	.
.	.	.	.	.	.	8bbJ	.	.
2A'	.	2c'	.	4r	.	8cccL	.	viio6
.	.	.	.	.	.	8ccc	.	.
.	.	.	.	4f# 4cc	.	8bb	.	.
.	.	.	.	.	.	8cccJ	.	.
=45	=45	=45	=45	=45	=45	=45	=45	=45
2B'	.	4G	.	4r	.	8dddL	.	I6
.	.	.	.	.	.	8ddd	.	.
.	.	4g	.	4dd	.	8eee	.	.
.	.	.	.	.	.	8dddJ	.	.
2C'	.	4r	.	4r	.	8cccL	.	ii6
.	.	.	.	.	.	8ccc	.	.
.	.	4e	.	4a 4cc	.	8ddd	.	.
.	.	.	.	.	.	8cccJ	.	.
=46	=46	=46	=46	=46	=46	=46	=46	=46
2D'	.	4r	.	4r	.	8bbL	.	V(64)
.	.	.	.	.	.	8bb	.	.
.	.	4d	.	4g 4b	.	8ccc	.	.
.	.	.	.	.	.	8bbJ	.	.
2DD	.	4r	.	4r	.	8aaL	.	V7
.	.	.	.	.	.	8aa	.	.
.	.	4F#	.	4D 4c	.	8bb	.	.
.	.	.	.	.	.	8aaJ	.	.
=47	=47	=47	=47	=47	=47	=47	=47	=47
!	!LO:DY:a	!	!LO:DY:a	!	!	!	!	!
4GGG 4GG	ff ff	4G	ff	4D 4B	.	8ggL	ff	I\\
.	.	.	.	.	.	8dd	.	.
4r	.	4r	.	4r	.	8gg	.	.
.	.	.	.	.	.	8ggJ	.	.
4GGG 4GG	.	4B	.	4D 4d	.	8ggL	.	I[I
.	.	.	.	.	.	8dd	.	.
4r	.	4r	.	4r	.	8gg	.	.
.	.	.	.	.	.	8ggJ	.	.
=48	=48	=48	=48	=48	=48	=48	=48	=48
4GGG 4GG	.	4B	.	4D 4d	.	8ggL	.	.
.	.	.	.	.	.	8dd	.	.
4r	.	4r	.	4r	.	8gg'	.	.
.	.	.	.	.	.	8gg'J	.	.
4GGG 4GG	.	4B	.	4D 4d	.	8ggL	.	.
.	.	.	.	.	.	8dd	.	.
4r	.	4r	.	4r	.	8gg'	.	.
.	.	.	.	.	.	8gg'J	.	.
=49	=49	=49	=49	=49	=49	=49	=49	=49
[1GGG [1GG	sf	8cL	sf	8e-XL	sf	[1a [1ff#	sf	viio43
.	.	8A	.	8c	.	.	.	.
.	.	8c'	.	8e-'	.	.	.	.
.	.	8c'J	.	8e-'J	.	.	.	.
.	.	8cL	.	8e-L	.	.	.	.
.	.	8A	.	8c	.	.	.	.
.	.	8c'	.	8e-'	.	.	.	.
.	.	8c'J	.	8e-'J	.	.	.	.
=50	=50	=50	=50	=50	=50	=50	=50	=50
1GGG] 1GG]	.	8cL	.	8e-XL	.	1a] 1ff#]	.	.
.	.	8A	.	8c	.	.	.	.
.	.	8c'	.	8e-'	.	.	.	.
.	.	8c'J	.	8e-'J	.	.	.	.
.	.	8cL	.	8dL	.	.	.	.
.	.	8A	.	8c	.	.	.	.
.	.	8c'	.	8d'	.	.	.	.
.	.	8c'J	.	8d'J	.	.	.	.
=51	=51	=51	=51	=51	=51	=51	=51	=51
4GGG 4GG	.	4B	.	4D 4d	.	8ggL	.	I
.	.	.	.	.	.	8dd	.	.
4r	.	4r	.	4r	.	8gg'	.	.
.	.	.	.	.	.	8gg'J	.	.
4GGG 4GG	.	4B	.	4D 4d	.	8ggL	.	.
.	.	.	.	.	.	8dd	.	.
4r	.	4r	.	4r	.	8gg'	.	.
.	.	.	.	.	.	8gg'J	.	.
=52	=52	=52	=52	=52	=52	=52	=52	=52
4GGG 4GG	.	4B	.	4D 4d	.	8ggL	.	.
.	.	.	.	.	.	8dd	.	.
4r	.	4r	.	4r	.	8gg'	.	.
.	.	.	.	.	.	8gg'J	.	.
4GGG 4GG	.	4B	.	4D 4d	.	8ggL	.	I]
.	.	.	.	.	.	8dd	.	.
4r	.	4r	.	4r	.	8gg'	.	.
.	.	.	.	.	.	8gg'J	.	.
=53	=53	=53	=53	=53	=53	=53	=53	=53
!	!LO:DY:a	!	!	!	!	!	!	!
[1GG#X	sf sf	8BL	.	8dL	sf	[1fX [1ffX	sf	#viio7/ii
.	.	8G#X	.	8B	.	.	.	.
.	.	8B'	.	8d'	.	.	.	.
.	.	8B'J	.	8d'J	.	.	.	.
.	.	8BL	.	8dL	.	.	.	.
.	.	8G#	.	8B	.	.	.	.
.	.	8B'	.	8d'	.	.	.	.
.	.	8B'J	.	8d'J	.	.	.	.
=54	=54	=54	=54	=54	=54	=54	=54	=54
1GG#]	.	8BL	.	8dL	.	1f] 1ff]	.	.
.	.	8G#X	.	8B	.	.	.	.
.	.	8B'	.	8d'	.	.	.	.
.	.	8B'J	.	8d'J	.	.	.	.
.	.	8BL	.	8dL	.	.	.	.
.	.	8G#	.	8B	.	.	.	.
.	.	8B'	.	8d'	.	.	.	.
.	.	8B'J	.	8d'J	.	.	.	.
=55	=55	=55	=55	=55	=55	=55	=55	=55
4GG#X	.	4B	.	4d	.	8eeL	.	V65/ii
.	.	.	.	.	.	8b	.	.
4r	.	4r	.	4r	.	8ee'	.	.
.	.	.	.	.	.	8ee'J	.	.
4AA	.	8AL	.	8cL	.	2r	.	ii
.	.	8E	.	8A	.	.	.	.
4r	.	8A'	.	8c'	.	.	.	.
.	.	8A'J	.	8c'J	.	.	.	.
=56	=56	=56	=56	=56	=56	=56	=56	=56
4FF#	.	4A	.	4c	.	8ddL	.	V6
.	.	.	.	.	.	8a	.	.
4r	.	4r	.	4r	.	8dd'	.	.
.	.	.	.	.	.	8dd'J	.	.
4GG	.	8GL	.	8BL	.	2r	.	I
.	.	8D	.	8G	.	.	.	.
4r	.	8G'	.	8B'	.	.	.	.
.	.	8G'J	.	8B'J	.	.	.	.
=57	=57	=57	=57	=57	=57	=57	=57	=57
4GG	.	4r	.	4r	.	8eeL	.	V.ii6
.	.	.	.	.	.	8b	.	.
4r	.	4G	.	4B	.	8ee'	.	.
.	.	.	.	.	.	8ee'J	.	.
4GG	.	4r	.	4r	.	8ee#XL	.	.Ger6/vi
.	.	.	.	.	.	8b	.	.
4r	.	4B	.	4d	.	8ee#'	.	.
.	.	.	.	.	.	8ee#'J	.	.
=58	=58	=58	=58	=58	=58	=58	=58	=58
4FF#	.	4r	.	4r	.	8ff#L	.	vi64
.	.	.	.	.	.	8b	.	.
4r	.	4B	.	4d	.	8ff#'	.	.
.	.	.	.	.	.	8ff#'J	.	.
4EE	.	4r	.	4r	.	8ggL	.	ii
.	.	.	.	.	.	8b	.	.
4r	.	4B	.	4e	.	8gg'	.	.
.	.	.	.	.	.	8gg'J	.	.
=59	=59	=59	=59	=59	=59	=59	=59	=59
4DD	.	4r	.	4r	.	8ggL	.	ii%2
.	.	.	.	.	.	8b-X	.	.
4r	.	4B-X	.	4e	.	8gg'	.	.
.	.	.	.	.	.	8gg'J	.	.
4CC#X	.	4r	.	4r	.	8ggL	.	V65/V
.	.	.	.	.	.	8a	.	.
4r	.	4A	.	4e	.	8gg'	.	.
.	.	.	.	.	.	8gg'J	.	.
=60	=60	=60	=60	=60	=60	=60	=60	=60
!	!LO:DY:a	!	!	!	!	!	!	!
4CC#X	f f	4A	.	4e	f	8ggL	f	.
.	.	.	.	.	.	8ee	.	.
4r	.	4r	.	4r	.	8ff#	.	.
.	.	.	.	.	.	8ggJ	.	.
2r	.	2r	.	2r	.	8cc#XL	.	.
.	.	.	.	.	.	8dd	.	.
.	.	.	.	.	.	8ee	.	.
.	.	.	.	.	.	8gJ	.	.
=61	=61	=61	=61	=61	=61	=61	=61	=61
!	!	!	!	!	!	!LO:TX:b:i:t=dim.	!	!
1r	.	1r	.	1r	.	8aL	.	V
.	.	.	.	.	.	8b	.	.
.	.	.	.	.	.	8e	.	.
.	.	.	.	.	.	8f#J	.	.
.	.	.	.	.	.	8gL	.	.
.	.	.	.	.	.	8c#X	.	.
.	.	.	.	.	.	8d	.	.
.	.	.	.	.	.	8eJ	.	.
=62	=62	=62	=62	=62	=62	=62	=62	=62
1r	.	1r	.	1r	.	8AL	.	.
.	.	.	.	.	.	8B	.	.
.	.	.	.	.	.	8c#X	.	.
.	.	.	.	.	.	8EJ	.	.
.	.	.	.	.	.	8F#L	.	.
.	.	.	.	.	.	8G#X	.	.
.	.	.	.	.	.	8A	.	.
.	.	.	.	.	.	8BJ	.	.
=63	=63	=63	=63	=63	=63	=63	=63	=63
1r	.	1r	.	1r	.	8c#XL	.	.
.	.	.	.	.	.	8G#X	.	.
.	.	.	.	.	.	8A	.	.
.	.	.	.	.	.	8BJ	.	.
.	.	.	.	.	.	8c#L	.	.
.	.	.	.	.	.	8d	.	.
.	.	.	.	.	.	8e	.	.
.	.	.	.	.	.	8d#XJ	.	.
=64	=64	=64	=64	=64	=64	=64	=64	=64
!	!	!	!LO:DY:a	!	!LO:DY:a	!	!	!
1r	.	2r	p	[1A	p	8eL	.	.
.	.	.	.	.	.	8f#	.	.
.	.	.	.	.	.	8g	.	.
.	.	.	.	.	.	8g#XJ	.	.
.	.	8GL	p	.	.	4a	.	V2
.	.	8F#	.	.	.	.	.	.
.	.	8E	.	.	.	4a	.	V65
.	.	8C#XJ	.	.	.	.	.	.
=65	=65	=65	=65	=65	=65	=65	=65	=65
2r	.	1r	.	1A_	.	8eeL	.	V
.	.	.	.	.	.	8ff#	.	.
.	.	.	.	.	.	8gg	.	.
.	.	.	.	.	.	8gg#XJ	.	.
8GGL	p	.	.	.	.	4aa	.	V2
8FF#	.	.	.	.	.	.	.	.
8EE	.	.	.	.	.	4aa	.	V65
8CC#XJ	.	.	.	.	.	.	.	.
=66	=66	=66	=66	=66	=66	=66	=66	=66
8AAAL	.	1r	.	1A_	.	2r	.	V
8BBB	.	.	.	.	.	.	.	.
8CC	.	.	.	.	.	.	.	.
8CC#XJ	.	.	.	.	.	.	.	.
4DD	.	.	.	.	.	8aaL	.	I
.	.	.	.	.	.	8gg	.	.
4DD	.	.	.	.	.	8ff#	.	.
.	.	.	.	.	.	8ddJ	.	.
=67	=67	=67	=67	=67	=67	=67	=67	=67
1r	.	8AAL	.	1A]	.	2r	.	V
.	.	8BB	.	.	.	.	.	.
.	.	8C	.	.	.	.	.	.
.	.	8C#XJ	.	.	.	.	.	.
.	.	4D	.	.	.	8aL	.	I
.	.	.	.	.	.	8g	.	.
.	.	4D	.	.	.	8f#	.	.
.	.	.	.	.	.	8dJ	.	.
=68	=68	=68	=68	=68	=68	=68	=68	=68
1r	.	2r	.	[1A [1a	.	8eL	.	V
.	.	.	.	.	.	8f#	.	.
.	.	.	.	.	.	8g	.	.
.	.	.	.	.	.	8g#XJ	.	.
.	.	8GL	.	.	.	4a	.	V2
.	.	8F#	.	.	.	.	.	.
.	.	8E	.	.	.	4a	.	V65
.	.	8C#XJ	.	.	.	.	.	.
=69	=69	=69	=69	=69	=69	=69	=69	=69
2r	.	1r	.	1A_ 1a_	.	8eeL	.	V
.	.	.	.	.	.	8ff#	.	.
.	.	.	.	.	.	8gg	.	.
.	.	.	.	.	.	8gg#XJ	.	.
8GGL	.	.	.	.	.	4aa	.	V2
8FF#	.	.	.	.	.	.	.	.
8EE	.	.	.	.	.	4aa	.	V65
8CC#XJ	.	.	.	.	.	.	.	.
=70	=70	=70	=70	=70	=70	=70	=70	=70
8AAAL	.	1r	.	1A_ 1a_	.	2r	.	V
8BBB	.	.	.	.	.	.	.	.
8CC	.	.	.	.	.	.	.	.
8CC#XJ	.	.	.	.	.	.	.	.
4DD	.	.	.	.	.	8aaL	.	I
.	.	.	.	.	.	8gg	.	.
4DD	.	.	.	.	.	8ff#	.	.
.	.	.	.	.	.	8ddJ	.	.
=71	=71	=71	=71	=71	=71	=71	=71	=71
1r	.	8AAL	.	4.A] 4.a]	.	2r	.	V
.	.	8BB	.	.	.	.	.	.
.	.	8C	.	.	.	.	.	.
.	.	8C#XJ	.	8g	.	.	.	.
.	.	4D	.	8f#L	.	8aL	.	I
.	.	.	.	8e	.	8g	.	.
.	.	4D	.	8d	.	8f#	.	.
.	.	.	.	8cJ	.	8dJ	.	.
=72	=72	=72	=72	=72	=72	=72	=72	=72
[1GG	.	8BBL	.	8BL	.	[2b	.	IV
.	.	8C#X	.	8c#X	.	.	.	.
.	.	8D	.	8d	.	.	.	.
.	.	8D#XJ	.	8d#XJ	.	.	.	.
.	.	[2E	.	[2e	.	8bL]	.	V2
.	.	.	.	.	.	8cc#X	.	.
.	.	.	.	.	.	8dd	.	.
.	.	.	.	.	.	8eeJ	.	.
=73	=73	=73	=73	=73	=73	=73	=73	=73
4GG]	.	4E]	.	4e]	.	8ddL	.	V2
.	.	.	.	.	.	8cc#X	.	.
4G	.	4c#X	.	4e	.	8b	.	.
.	.	.	.	.	.	8aJ	.	.
4F#	.	4A	.	4d	.	8ddL	.	I6
.	.	.	.	.	.	8a	.	.
4F#	.	4A	.	4d	.	8f#	.	.
.	.	.	.	.	.	8dJ	.	.
=74	=74	=74	=74	=74	=74	=74	=74	=74
!LO:TX:a:i:t=cresc.	!	!LO:TX:b:i:t=cresc.	!	!LO:TX:b:i:t=cresc.	!	!LO:TX:b:i:t=cresc.	!	!
4G	.	8BBL	.	8BL	.	[2b	.	IV
.	.	8C#X	.	8c#X	.	.	.	.
[2.GG	.	8D	.	8d	.	.	.	.
.	.	8D#XJ	.	8d#XJ	.	.	.	.
.	.	[2E	.	[2e	.	8bL]	.	ii6
.	.	.	.	.	.	8cc#X	.	.
.	.	.	.	.	.	8dd	.	.
.	.	.	.	.	.	8eeJ	.	.
=75	=75	=75	=75	=75	=75	=75	=75	=75
4GG]	.	8EL]	.	8eL]	.	[4cc#X	.	V64
.	.	8C#X	.	8c#X	.	.	.	.
[2.AA	.	8D	.	8d	.	4cc#_	.	I64
.	.	8EJ	.	8eJ	.	.	.	.
.	.	[2F#	.	[2f#	.	8cc#L]	.	.
.	.	.	.	.	.	8dd	.	.
.	.	.	.	.	.	8ee	.	.
.	.	.	.	.	.	8ff#J	.	.
=76	=76	=76	=76	=76	=76	=76	=76	=76
4AA]	.	8F#L]	.	8f#L]	.	[2dd	.	.
.	.	8D	.	8d	.	.	.	.
[2.BB	.	8E	.	8e	.	.	.	.
.	.	8F#J	.	8f#J	.	.	.	.
.	.	[2G	.	[2g	.	8ddL]	.	IV6
.	.	.	.	.	.	8ee	.	.
.	.	.	.	.	.	8ff#	.	.
.	.	.	.	.	.	8ggJ	.	.
=77	=77	=77	=77	=77	=77	=77	=77	=77
4BB]	.	8GL]	.	8gL]	.	[2ee	.	V65
.	.	8E	.	8e	.	.	.	.
2.C#X	.	8F#	.	8f#	.	.	.	.
.	.	8GJ	.	8gJ	.	.	.	.
.	.	2A	.	2a	.	8eeL]	.	.
.	.	.	.	.	.	8ff#	.	.
.	.	.	.	.	.	8gg	.	.
.	.	.	.	.	.	8aaJ	.	.
=78	=78	=78	=78	=78	=78	=78	=78	=78
4D	f	4F#	f	4d 4a	f	8aaL	f	I[I6
.	.	.	.	.	.	8gg	.	.
4r	.	4r	.	4r	.	8ff#	.	.
.	.	.	.	.	.	8ddJ	.	.
4D	.	4G	.	4d 4b	.	8bbL	.	IV
.	.	.	.	.	.	8aa	.	.
4r	.	4r	.	4r	.	8gg	.	.
.	.	.	.	.	.	8eeJ	.	.
=79	=79	=79	=79	=79	=79	=79	=79	=79
4D	.	4F#	.	4d 4a	.	8aaL	.	I6
.	.	.	.	.	.	8gg	.	.
4r	.	4r	.	4r	.	8ff#	.	.
.	.	.	.	.	.	8ddJ	.	.
4D	.	8EL	.	8gL	.	8cc#XL	.	V43
.	.	8G	.	8e	.	8a	.	.
4r	.	8G	.	8c#X	.	8aa	.	.
.	.	8GJ	.	8c#J	.	8aaJ	.	.
=80	=80	=80	=80	=80	=80	=80	=80	=80
4D	.	4F#	.	4d 4a	.	8aaL	.	I6
.	.	.	.	.	.	8gg	.	.
4r	.	4r	.	4r	.	8ff#	.	.
.	.	.	.	.	.	8ddJ	.	.
4D	.	4G	.	4d 4b	.	8bbL	.	IV]
.	.	.	.	.	.	8aa	.	.
4r	.	4r	.	4r	.	8gg	.	.
.	.	.	.	.	.	8eeJ	.	.
=81	=81	=81	=81	=81	=81	=81	=81	=81
!	!	!	!LO:DY:a	!	!	!	!	!
1r	.	1r	p	2r	.	8aaL	p	I
.	.	.	.	.	.	8ddd	.	.
.	.	.	.	.	.	8dd	.	.
.	.	.	.	.	.	8ddJ	.	.
.	.	.	.	8aL	.	[2dd	.	I.V
.	.	.	.	8dd	.	.	.	.
.	.	.	.	8d	.	.	.	.
.	.	.	.	8dJ	.	.	.	.
=82	=82	=82	=82	=82	=82	=82	=82	=82
!	!LO:DY:a	!	!	!	!	!	!	!
8CL	p p	8AL	.	8f#L	.	4dd_	.	V2
8C	.	8A	.	8f#	.	.	.	.
8BB	.	8G	.	8g	.	4dd]	.	I6
8BBJ	.	8GJ	.	8gJ	.	.	.	.
8FF#L	.	8AL	.	8ccL	.	[4dd	.	V65
8FF#	.	8A	.	8cc	.	.	.	.
8GG	.	8G	.	8b	.	4dd]	.	I
8GGJ	.	8GJ	.	8bJ	.	.	.	.
=83	=83	=83	=83	=83	=83	=83	=83	=83
8CL	.	8AL	.	8f#L	.	[4dd	.	V2
8C	.	8A	.	8f#	.	.	.	.
8BB	.	8G	.	8g	.	4dd]	.	I6
8BBJ	.	8GJ	.	8gJ	.	.	.	.
8FF#L	.	8AL	.	8ccL	.	[4dd	.	V65
8FF#	.	8A	.	8cc	.	.	.	.
8GG	.	8G	.	8b	.	4dd_	.	I
8GGJ	.	8GJ	.	8bJ	.	.	.	.
=84	=84	=84	=84	=84	=84	=84	=84	=84
!LO:TX:a:i:t=cresc.	!	!LO:TX:b:i:t=cresc.	!	!LO:TX:b:i:t=cresc.	!	!LO:TX:b:i:t=cresc.	!	!
8AAL	.	8F#L	.	8ccL	.	4dd]	.	V43
8AA	.	8A	.	8c	.	.	.	.
!	!LO:DY:a	!	!LO:DY:a	!	!	!	!	!
8FF#	sf sf	8A	sf	8c	.	4ee-X	sf	viio7
8FF#J	.	8AJ	.	8cJ	.	.	.	.
8DDL	.	8AL	.	8cL	.	4dd	.	V7
8DD	.	8A	.	8c	.	.	.	.
8FF#	.	8A	.	8c	.	4dd	.	V65
8FF#J	.	8AJ	.	8cJ	.	.	.	.
=85	=85	=85	=85	=85	=85	=85	=85	=85
4DD	p	4F#	p	4c	p	8aaL	p	V7
.	.	.	.	.	.	8ddd	.	.
4r	.	4r	.	4r	.	8dd	.	.
.	.	.	.	.	.	8ddJ	.	.
2r	.	2r	.	8aL	.	[2dd	.	.
.	.	.	.	8dd	.	.	.	.
.	.	.	.	8d	.	.	.	.
.	.	.	.	8dJ	.	.	.	.
=86	=86	=86	=86	=86	=86	=86	=86	=86
8CL	.	8AL	.	8f#L	.	4dd_	.	V2
8C	.	8A	.	8f#	.	.	.	.
8BB	.	8G	.	8g	.	4dd]	.	I6
8BBJ	.	8GJ	.	8gJ	.	.	.	.
8FF#L	.	8DL 8A	.	8ccL	.	[4dd	.	V65
8FF#	.	8D 8A	.	8cc	.	.	.	.
8GG	.	8G	.	8b	.	4dd]	.	I
8GGJ	.	8GJ	.	8bJ	.	.	.	.
=87	=87	=87	=87	=87	=87	=87	=87	=87
8CL	.	8AL	.	8f#L	.	[4dd	.	V2
8C	.	8A	.	8f#	.	.	.	.
8BB	.	8G	.	8g	.	4dd]	.	I6
8BBJ	.	8GJ	.	8gJ	.	.	.	.
8FF#L	.	8DL 8A	.	8ccL	.	[4dd	.	V65
8FF#	.	8D 8A	.	8cc	.	.	.	.
8GG	.	8G	.	8b	.	4dd_	.	I
8GGJ	.	8GJ	.	8bJ	.	.	.	.
=88	=88	=88	=88	=88	=88	=88	=88	=88
8FFXL	.	8AL	.	8ccL	.	4dd]	.	.bIII.V7
!LO:TX:b:i:t=cresc.	!	!LO:TX:b:i:t=cresc.	!	!LO:TX:b:i:t=cresc.	!	!	!	!
8FF	.	8A	.	8cc	.	.	.	.
!	!	!	!	!	!	!LO:TX:b:i:t=cresc.	!	!
8FF	.	8A	.	8cc	.	4ee-X	.	.
8FFJ	.	8AJ	.	8ccJ	.	.	.	.
8FFL	.	8AL	.	8ccL	.	4ee-'	.	.
8FF	.	8A	.	8cc	.	.	.	.
8FF	.	8A	.	8cc	.	4ee-'	.	.
8FFJ	.	8AJ	.	8ccJ	.	.	.	.
=89	=89	=89	=89	=89	=89	=89	=89	=89
8FFXL	.	8AL	.	8ccL	.	4ee-X	.	.
8FF	.	8A	.	8cc	.	.	.	.
8FF	.	8A	.	8cc	.	4aa	.	.
8FFJ	.	8AJ	.	8ccJ	.	.	.	.
8FFL	.	8AL	.	8ccL	.	4ccc	.	.
8FF	.	8A	.	8cc	.	.	.	.
8FF	.	8A	.	8cc	.	4eee-X	.	.
8FFJ	.	8AJ	.	8ccJ	.	.	.	.
=90	=90	=90	=90	=90	=90	=90	=90	=90
8FFXL	.	8B-XL	.	8ddL	.	4ddd	.	V(64)
8FF	.	8B-	.	8dd	.	.	.	.
8FF	.	8B-	.	8dd	.	4fffX	.	.
8FFJ	.	8B-J	.	8ddJ	.	.	.	.
8DDL	.	8B-L	.	8ddL	.	4fff'	.	I6
8DD	.	8B-	.	8dd	.	.	.	.
8BBB-X	.	8B-	.	8dd	.	4fff'	.	I
8BBB-J	.	8B-J	.	8ddJ	.	.	.	.
=91	=91	=91	=91	=91	=91	=91	=91	=91
4FFX	ff	4A	ff	4cc	ff	2fffX	ff	V
4r	.	4r	.	4r	.	.	.	.
2r	.	2r	.	2r	.	2ffX	.	.
=92	=92	=92	=92	=92	=92	=92	=92	=92
!	!LO:DY:a	!	!	!	!LO:DY:a	!	!	!
1r	p	2r	.	2r	fp	[1FX	.	V65/ii
.	.	8r	.	8r	.	.	.	.
.	.	8BBL	.	8fXL	p	.	.	.
.	.	8AA	.	8g	.	.	.	.
.	.	8BBJ	.	8fJ	.	.	.	.
=93	=93	=93	=93	=93	=93	=93	=93	=93
1r	.	8CL	.	8e-XL	.	1F_	.	V65
.	.	8DJ	.	8dJ	.	.	.	.
.	.	4E-X	.	4c	.	.	.	.
.	.	8r	.	8r	.	.	.	.
.	.	8AAL	.	8e-L	.	.	.	.
.	.	8GG	.	8fX	.	.	.	.
.	.	8AAJ	.	8e-J	.	.	.	.
=94	=94	=94	=94	=94	=94	=94	=94	=94
2r	.	8BB-XL	.	8dL	.	1F_	.	#viio64/ii
.	.	8CJ	.	8cJ	.	.	.	.
.	.	4D	.	4B-X	.	.	.	.
8r	.	8r	.	8r	.	.	.	.
8FFXL	p	8dL	.	8BL	.	.	.	.
8GG	.	8c	.	8A	.	.	.	.
8FFJ	.	8dJ	.	8BJ	.	.	.	.
=95	=95	=95	=95	=95	=95	=95	=95	=95
8EE-XL	.	8e-XL	.	8cL	.	1F_	.	V2
8DDJ	.	8fXJ	.	8dJ	.	.	.	.
4CC	.	4g	.	4e-X	.	.	.	.
8r	.	8r	.	8r	.	.	.	.
8EE-L	.	8cL	.	8AL	.	.	.	.
8FFX	.	8B-X	.	8G	.	.	.	.
8EE-J	.	8cJ	.	8AJ	.	.	.	.
=96	=96	=96	=96	=96	=96	=96	=96	=96
!LO:TX:b:i:t=cresc.	!	!	!	!	!	!	!	!
8DDL	.	4d	.	4B-X	.	4F]	.	I6
8CC	.	.	.	.	.	.	.	.
!	!	!	!	!	!	!LO:TX:b:i:t=cresc.	!	!
8BBB-X	.	4r	.	4r	.	4fX'	.	.
8CCJ	.	.	.	.	.	.	.	.
8DDL	.	2r	.	2r	.	4b-X'	.	.
8EE-X	.	.	.	.	.	.	.	.
8FFX	.	.	.	.	.	4dd'	.	.
8DDJ	.	.	.	.	.	.	.	.
=97	=97	=97	=97	=97	=97	=97	=97	=97
8GGL	.	2r	.	4r	.	2.e-X	.	V65
8FFX	.	.	.	.	.	.	.	.
!	!	!	!	!LO:TX:b:i:t=cresc.	!	!	!	!
8EE-X	.	.	.	4dd'	.	.	.	.
8GGJ	.	.	.	.	.	.	.	.
8AAL	.	4r	.	4cc'	.	.	.	.
8GG	.	.	.	.	.	.	.	.
8FF	.	4c	.	4fX'	.	4ee-X	.	.
8AAJ	.	.	.	.	.	.	.	.
=98	=98	=98	=98	=98	=98	=98	=98	=98
!	!	!LO:TX:b:i:t=cresc.	!	!	!	!	!	!
4BB-X	.	8FXL	.	4B-X 4fX	.	4dd	.	I
.	.	8E-X	.	.	.	.	.	.
4r	.	8D	.	4f'	.	4r	.	.
.	.	8CJ	.	.	.	.	.	.
2r	.	8DL	.	4b-X'	.	2r	.	I6
.	.	8E-	.	.	.	.	.	.
.	.	8F	.	4dd'	.	.	.	.
.	.	8DJ	.	.	.	.	.	.
=99	=99	=99	=99	=99	=99	=99	=99	=99
1r	.	8A-XL	.	2cc	.	4r	.	iv.VI
.	.	8G	.	.	.	.	.	.
.	.	8FX	.	.	.	4aa-X'	.	iv
.	.	8A-J	.	.	.	.	.	.
.	.	8BL	.	4dd	.	4ffX'	.	#viio
.	.	8A	.	.	.	.	.	.
.	.	8G	.	4fX	.	4gg'	.	V7
.	.	8BJ	.	.	.	.	.	.
=100	=100	=100	=100	=100	=100	=100	=100	=100
[2CC	f	2.G 2.c	f	2.e-X	f	[2gg	f	i
8CCL]	.	.	.	.	.	8ggL]	.	.
8CC	.	.	.	.	.	8gg	.	.
8BBB	.	4G 4c	.	4e-	.	8aa-X	.	V65
8CCJ	.	.	.	.	.	8ggJ	.	.
=101	=101	=101	=101	=101	=101	=101	=101	=101
8DDL	.	2.G 2.B	.	2.fX	.	8ffXL	.	V43
8EE-XJ	.	.	.	.	.	8ee-XJ	.	.
4FFX	.	.	.	.	.	4dd	.	V2
8r	.	.	.	.	.	8r	.	V65
8BBBL	.	.	.	.	.	8ffL	.	.
8AAA	.	4G 4d	.	4f	.	8gg	.	.
8BBBJ	.	.	.	.	.	8ffJ	.	.
=102	=102	=102	=102	=102	=102	=102	=102	=102
8CCL	.	2G 2c	.	2e-X	.	8ee-XL	.	i
8DDJ	.	.	.	.	.	8ddJ	.	.
4EE-X	.	.	.	.	.	4cc	.	i6
2r	.	8r	.	8r	.	8r	.	.
.	.	8E-XL	p	8gL	p	8ccL	p	.
.	.	8FX	.	8a-X	.	8b	.	.
.	.	8E-J	.	8gJ	.	8ccJ	.	.
=103	=103	=103	=103	=103	=103	=103	=103	=103
4GG	p	8DL	.	8fXL	.	8ddL	.	V7
.	.	8CJ	.	8e-XJ	.	8ee-XJ	.	.
4r	.	4BB	.	4d	.	4ffX	.	V65
2r	.	8r	.	8r	.	8r	.	V43
.	.	8DL	.	8fL	.	8bL	.	.
.	.	8E-X	.	8g	.	8a	.	.
.	.	8DJ	.	8fJ	.	8bJ	.	.
=104	=104	=104	=104	=104	=104	=104	=104	=104
!LO:TX:b:i:t=cresc.	!	!	!	!	!	!	!	!
8EE-XL	.	4C 4E-X	.	4g	.	4cc	.	i6
8DD	.	.	.	.	.	.	.	.
!	!	!	!	!	!	!LO:TX:b:i:t=cresc.	!	!
8CC	.	4r	.	4r	.	4G	.	.
8DDJ	.	.	.	.	.	.	.	.
8EE-L	.	2r	.	2r	.	4c'	.	.
8FFX	.	.	.	.	.	.	.	.
8GG	.	.	.	.	.	4e-X'	.	.
8EE-J	.	.	.	.	.	.	.	.
=105	=105	=105	=105	=105	=105	=105	=105	=105
8AA-XL	.	2r	.	4r	.	2.FX	.	V65
8GG	.	.	.	.	.	.	.	.
!	!	!	!	!LO:TX:b:i:t=cresc.	!	!	!	!
8FFX	.	.	.	4e-X'	.	.	.	.
8AA-J	.	.	.	.	.	.	.	.
8BBL	.	4r	.	4d'	.	.	.	.
8AA	.	.	.	.	.	.	.	.
!	!	!LO:TX:b:i:t=cresc.	!	!	!	!	!	!
8GG	.	4D	.	4G'	.	4fX	.	.
8BBJ	.	.	.	.	.	.	.	.
=106	=106	=106	=106	=106	=106	=106	=106	=106
4C	.	8CL	.	4G	.	4e-X	.	i
.	.	8BB-X	.	.	.	.	.	.
4r	.	8AA-X	.	4c	.	4r	.	.
.	.	8GGJ	.	.	.	.	.	.
2r	.	8AA-L	.	4e-X	.	2r	.	.bVI
.	.	8BB-	.	.	.	.	.	.
.	.	8C	.	4a-X	.	.	.	.
.	.	8AA-J	.	.	.	.	.	.
=107	=107	=107	=107	=107	=107	=107	=107	=107
1r	.	8FXL	.	2.d-X	.	4r	.	.bII.IV
.	.	8E-X	.	.	.	.	.	.
.	.	8D-X	.	.	.	4ffX	.	.
.	.	8FJ	.	.	.	.	.	.
.	.	8GL	.	.	.	4ee-X	.	V65
.	.	8F	.	.	.	.	.	.
.	.	8E-	.	4dd-X	.	4ee-	.	V7
.	.	8GJ	.	.	.	.	.	.
=108	=108	=108	=108	=108	=108	=108	=108	=108
4AA-X	f	4A-X	f	[2cc	f	[2ee-X	f	I
4r	.	4r	.	.	.	.	.	.
[2c	.	[2e-X	.	8ccL]	.	8ee-L]	.	iii
.	.	.	.	8cc	.	8ee-	.	.
.	.	.	.	8dd-X	.	8ffX	.	.
.	.	.	.	8ccJ	.	8ee-J	.	.
=109	=109	=109	=109	=109	=109	=109	=109	=109
8cL]	.	8e-L]	.	8b-XL	.	8dd-XL	.	I6(4+2)
8c	.	8e-X	.	8a-XJ	.	8ccJ	.	I6
8d-X	.	8fX	.	4g	.	4b-X	.	V2
8cJ	.	8e-J	.	.	.	.	.	.
8B-XL	.	8d-XL	.	8r	.	8r	.	V43
8A-XJ	.	8cJ	.	8b-L	.	8dd-L	.	.
4G	.	4B-X	.	8cc	.	8ee-X	.	V65
.	.	.	.	8b-J	.	8dd-J	.	.
=110	=110	=110	=110	=110	=110	=110	=110	=110
8r	.	8r	.	8a-XL	.	8ccL	.	I6(94)
8B-XL	.	8d-XL	.	8gJ	.	8b-XJ	.	.
8c	.	8e-X	.	4a-	.	4a-X	.	I6
8B-J	.	8d-J	.	.	.	.	.	.
4A-X	.	4c-X	.	8r	.	8r	.	#i.i
.	.	.	.	8bL	p	8dd#XL	p	.
4r	.	4r	.	8cc#X	.	8ee	.	.
.	.	.	.	8bJ	.	8dd#J	.	.
=111	=111	=111	=111	=111	=111	=111	=111	=111
8r	.	8r	.	8a#XL	.	8cc#XL	.	.
8BL	p	8d#XL	p	8g#XJ	.	8bJ	.	i6
8c#X	.	8e	.	4f##X	.	4a#X	.	#viio43
8BJ	.	8d#J	.	.	.	.	.	.
8A#XL	.	8c#XL	.	8r	.	8r	.	#viio65
8G#XJ	.	8BJ	.	8a#L	.	8cc#L	.	.
4F##X	.	4A#X	.	8b	.	8dd#X	.	#viio
.	.	.	.	8a#J	.	8cc#J	.	.
=112	=112	=112	=112	=112	=112	=112	=112	=112
!	!	!	!LO:DY:a	!	!	!	!	!
4G#X	f	4B	f f	8g#XL	.	8bL	f	i
.	.	.	.	8b	.	8gg#X	.	.
4r	.	4r	.	8dd#X	.	8bb	.	.
.	.	.	.	8dd#J	.	8bbJ	.	.
4GG#X	.	4BB	.	8dd#L	.	8bbL	.	.
.	.	.	.	8b	.	8gg#	.	.
4r	.	4r	.	8dd#'	.	8bb'	.	.
.	.	.	.	8dd#'J	.	8bb'J	.	.
=113	=113	=113	=113	=113	=113	=113	=113	=113
4GG#X	.	4BB	.	8dd#XL	.	8bbL	.	.
.	.	.	.	8b	.	8gg#X	.	.
4r	.	4r	.	8dd#'	.	8bb'	.	.
.	.	.	.	8dd#'J	.	8bb'J	.	.
4GG#	.	4BB	.	8dd#L	.	8bbL	.	.
.	.	.	.	8b	.	8gg#	.	.
4r	.	4r	.	8dd#'	.	8bb'	.	.
.	.	.	.	8dd#'J	.	8bb'J	.	.
=114	=114	=114	=114	=114	=114	=114	=114	=114
[1GG#X	sf	8EL	sf	[1a#X [1cc#X	sf	[1ff##X	sf	i[viio43
.	.	8C#X	.	.	.	.	.	.
.	.	8E'	.	.	.	.	.	.
.	.	8E'J	.	.	.	.	.	.
.	.	8EL	.	.	.	.	.	.
.	.	8C#	.	.	.	.	.	.
.	.	8E'	.	.	.	.	.	.
.	.	8E'J	.	.	.	.	.	.
=115	=115	=115	=115	=115	=115	=115	=115	=115
1GG#]	.	8EL	.	1a#] 1cc#]	.	1ff##]	.	.
.	.	8C#X	.	.	.	.	.	.
.	.	8E'	.	.	.	.	.	.
.	.	8E'J	.	.	.	.	.	.
.	.	8D#XL	.	.	.	.	.	.
.	.	8C#	.	.	.	.	.	.
.	.	8D#'	.	.	.	.	.	.
.	.	8D#'J	.	.	.	.	.	.
=116	=116	=116	=116	=116	=116	=116	=116	=116
4GG#X	.	8D#XL	.	4b	.	8gg#XL	.	i]
.	.	8B	.	.	.	8gg#	.	.
4r	.	8d#X'	.	4r	.	8bb'	.	.
.	.	8d#'J	.	.	.	8bb'J	.	.
4GG#	.	8d#L	.	2r	.	8bbL	.	i
.	.	8B	.	.	.	8gg#	.	.
4r	.	8d#'	.	.	.	8bb'	.	.
.	.	8d#'J	.	.	.	8bb'J	.	.
=117	=117	=117	=117	=117	=117	=117	=117	=117
4GG#X	.	8d#XL	.	1r	.	8bbL	.	.
.	.	8B	.	.	.	8gg#X	.	.
4r	.	8d#'	.	.	.	8bb'	.	.
.	.	8d#'J	.	.	.	8bb'J	.	.
4GG#	.	8d#L	.	.	.	8bbL	.	.
.	.	8B	.	.	.	8gg#	.	.
4r	.	8d#'	.	.	.	8bb'	.	.
.	.	8d#'J	.	.	.	8bb'J	.	.
=118	=118	=118	=118	=118	=118	=118	=118	=118
[1GG#X	sf	[1e	sf	8cc#XL	sf	[1ff##X	sf	i[viio2
.	.	.	.	8a#X	.	.	.	.
.	.	.	.	8cc#'	.	.	.	.
.	.	.	.	8cc#'J	.	.	.	.
.	.	.	.	8cc#L	.	.	.	.
.	.	.	.	8a#	.	.	.	.
.	.	.	.	8cc#'	.	.	.	.
.	.	.	.	8cc#'J	.	.	.	.
=119	=119	=119	=119	=119	=119	=119	=119	=119
1GG#]	.	2e]	.	8cc#XL	.	1ff##]	.	.
.	.	.	.	8a#X	.	.	.	.
.	.	.	.	8cc#'	.	.	.	.
.	.	.	.	8cc#'J	.	.	.	.
.	.	2d#X	.	8cc#L	.	.	.	.
.	.	.	.	8a#	.	.	.	.
.	.	.	.	8cc#'	.	.	.	.
.	.	.	.	8cc#'J	.	.	.	.
=120	=120	=120	=120	=120	=120	=120	=120	=120
4GG#X	.	4d#X	.	4b	.	4gg#X	.	i]
4GG#	.	4GG#X	.	4r	.	4r	.	i
4BBB	.	4GG#	.	8r	.	8r	.	i6
.	.	.	.	8d#XL	.	8dd#XL	.	.
4BBB	.	4GG#	.	8e	.	8ee	.	.
.	.	.	.	8d#J	.	8dd#J	.	.
=121	=121	=121	=121	=121	=121	=121	=121	=121
4CC#X	.	4GG#X	.	4e	.	4ee	.	iv
4CC#	.	4GG#	.	4e	.	4ee	.	.
4DD#X	.	4GG#	.	8r	.	8r	.	V
.	.	.	.	8f##XL	.	8ff##XL	.	.
4DD#	.	4GG#	.	8g#X	.	8gg#X	.	.
.	.	.	.	8f##J	.	8ff##J	.	.
=122	=122	=122	=122	=122	=122	=122	=122	=122
4EE	.	4GG#X	.	4g#X	.	4gg#X	.	VI
4EE	.	4GG#	.	4g#	.	4gg#	.	.
4BBB	.	4GG#	.	8r	.	8r	.	i6
.	.	.	.	8d#XL	.	8dd#XL	.	.
4BBB	.	4GG#	.	8e	.	8ee	.	.
.	.	.	.	8d#J	.	8dd#J	.	.
=123	=123	=123	=123	=123	=123	=123	=123	=123
4CC#X	.	4GG#X	.	8eL	.	8eeL	.	iv
.	.	.	.	8d#X	.	8dd#X	.	.
4CC#	.	4GG#	.	8c#X	.	8cc#X	.	.
.	.	.	.	8BJ	.	8bJ	.	.
4DD#X	.	4FF##X	.	4A#X'	.	4a#X'	.	V
4DD#	.	4FF##	.	4d#	.	4dd#	.	.
=124	=124	=124	=124	=124	=124	=124	=124	=124
8GGG#XL	.	8GG#XL	.	4G#X	.	4g#X	.	i\\
8GGG#	.	8GG#	.	.	.	.	.	.
8GGG#	.	8GG#	.	4G#	.	4g#	.	i
8GGG#J	.	8GG#J	.	.	.	.	.	.
8BBBL	.	8GG#L	.	8r	.	8r	.	i6
8BBB	.	8GG#	.	8d#XL	.	8dd#XL	.	.
8BBB	.	8GG#	.	8e	.	8ee	.	.
8BBBJ	.	8GG#J	.	8d#J	.	8dd#J	.	.
=125	=125	=125	=125	=125	=125	=125	=125	=125
8CC#XL	.	8GG#XL	.	4e	.	4ee	.	iv
8CC#	.	8GG#	.	.	.	.	.	.
8CC#	.	8GG#	.	4e	.	4ee	.	.
8CC#J	.	8GG#J	.	.	.	.	.	.
8DD#XL	.	8GG#L	.	8r	.	8r	.	V
8DD#	.	8GG#	.	8f##XL	.	8ff##XL	.	.
8DD#	.	8GG#	.	8g#X	.	8gg#X	.	.
8DD#J	.	8GG#J	.	8f##J	.	8ff##J	.	.
=126	=126	=126	=126	=126	=126	=126	=126	=126
8EEL	.	8GG#XL	.	4g#X	.	4gg#X	.	VI
8EE	.	8GG#	.	.	.	.	.	.
8EE	.	8GG#	.	4g#	.	4gg#	.	.
8EEJ	.	8GG#J	.	.	.	.	.	.
8FF##XL	.	8D#XL	.	8r	.	8r	.	V6
8FF##	.	8D#	.	8a#XL	.	8aa#XL	.	.
8FF##	.	8D#	.	8b	.	8bb	.	.
8FF##J	.	8D#J	.	8a#J	.	8aa#J	.	.
=127	=127	=127	=127	=127	=127	=127	=127	=127
8GG#XL	.	8D#XL	.	4b'	.	4bb'	.	i
8GG#	.	8D#	.	.	.	.	.	.
8GG#	.	8D#	.	4b'	.	4bb'	.	.
8GG#J	.	8D#J	.	.	.	.	.	.
8DD#XL	.	8C#XL	.	4a#X'	.	4ff##X'	.	V7
8DD#	.	8C#	.	.	.	.	.	.
8DD#	.	8C#	.	4a#'	.	4ff##'	.	.
8DD#J	.	8C#J	.	.	.	.	.	.
=128	=128	=128	=128	=128	=128	=128	=128	=128
4GGG#X	.	4D#X	.	4B 4g#X	.	8gg#XL	.	i\\
.	.	.	.	.	.	8dd#X	.	.
4r	.	4r	.	4r	.	8gg#'	.	.
.	.	.	.	.	.	8gg#'J	.	.
4GG#X	.	4G#X	.	4B	.	8gg#L	.	i
.	.	.	.	.	.	8dd#	.	.
4r	.	4r	.	4r	.	8gg#'	.	.
.	.	.	.	.	.	8gg#'J	.	.
=129	=129	=129	=129	=129	=129	=129	=129	=129
4GG#X	.	4G#X	.	4B	.	8gg#XL	.	.
.	.	.	.	.	.	8dd#X	.	.
4r	.	4r	.	4r	.	8gg#'	.	.
.	.	.	.	.	.	8gg#'J	.	.
4GG#	.	4G#	.	4B	.	8gg#L	.	.
.	.	.	.	.	.	8dd#	.	.
4r	.	4r	.	4r	.	8gg#'	.	.
.	.	.	.	.	.	8gg#'J	.	.
=130	=130	=130	=130	=130	=130	=130	=130	=130
[1EE	.	8BL	.	8dL	.	[1gg#X	.	ii.V7
.	.	8G#X	.	8B	.	.	.	.
.	.	8B'	.	8d'	.	.	.	.
.	.	8B'J	.	8d'J	.	.	.	.
.	.	8BL	.	8dL	.	.	.	.
.	.	8G#	.	8B	.	.	.	.
.	.	8B'	.	8d'	.	.	.	.
.	.	8B'J	.	8d'J	.	.	.	.
=131	=131	=131	=131	=131	=131	=131	=131	=131
1EE]	.	8BL	.	8dL	.	1gg#_	.	.
.	.	8G#X	.	8B	.	.	.	.
.	.	8B'	.	8d'	.	.	.	.
.	.	8B'J	.	8d'J	.	.	.	.
.	.	8BL	.	8dL	.	.	.	.
.	.	8G#	.	8B	.	.	.	.
.	.	8B'	.	8d'	.	.	.	.
.	.	8B'J	.	8d'J	.	.	.	.
=132	=132	=132	=132	=132	=132	=132	=132	=132
4EE	.	4B	.	4d	.	8gg#L]	.	.
.	.	.	.	.	.	8gg#X	.	.
4r	.	4r	.	4r	.	8bb'	.	.
.	.	.	.	.	.	8bb'J	.	.
4EE	.	4G#X 4B	.	4E 4d	.	8bbL	.	.
.	.	.	.	.	.	8gg#	.	.
4r	.	4r	.	4r	.	8bb'	.	.
.	.	.	.	.	.	8bb'J	.	.
=133	=133	=133	=133	=133	=133	=133	=133	=133
4EE	.	4E 4B	.	4d 4g#X	.	8bbL	.	.
.	.	.	.	.	.	8gg#X	.	.
4r	.	4r	.	4r	.	8bb'	.	.
.	.	.	.	.	.	8bb'J	.	.
4EE	.	4E 4B	.	4g# 4b	.	8bbL	.	.
.	.	.	.	.	.	8gg#	.	.
4r	.	4r	.	4r	.	8bb'	.	.
.	.	.	.	.	.	8bb'J	.	.
=134	=134	=134	=134	=134	=134	=134	=134	=134
8GGG#XL	.	8BL	.	8ddL	.	[1ddd	.	V65
8EE	.	8E	.	8b	.	.	.	.
8GGG#'	.	8B'	.	8dd'	.	.	.	.
8GGG#'J	.	8B'J	.	8dd'J	.	.	.	.
8GGG#L	.	8BL	.	8ddL	.	.	.	.
8EE	.	8E	.	8b	.	.	.	.
8GGG#'	.	8B'	.	8dd'	.	.	.	.
8GGG#'J	.	8B'J	.	8dd'J	.	.	.	.
=135	=135	=135	=135	=135	=135	=135	=135	=135
8GGG#XL	.	8BL	.	8ddL	.	1ddd]	.	.
8EE	.	8E	.	8b	.	.	.	.
8GGG#'	.	8B'	.	8dd'	.	.	.	.
8GGG#'J	.	8B'J	.	8dd'J	.	.	.	.
8GGG#L	.	8BL	.	8ddL	.	.	.	.
8EE	.	8E	.	8b	.	.	.	.
8GGG#'	.	8B'	.	8dd'	.	.	.	.
8GGG#'J	.	8B'J	.	8dd'J	.	.	.	.
=136	=136	=136	=136	=136	=136	=136	=136	=136
4AAA	.	4A	.	4cc	.	4ccc	.	i
4r	.	4r	.	4r	.	4r	.	.
2r	.	8r	.	2r	.	2aa'	.	i64
.	.	8EL	.	.	.	.	.	.
.	.	8FX	.	.	.	.	.	.
.	.	8EJ	.	.	.	.	.	.
=137	=137	=137	=137	=137	=137	=137	=137	=137
1r	.	4FX	.	1r	.	2ffX'	.	VI
.	.	4F	.	.	.	.	.	.
.	.	8r	.	.	.	2dd'	.	V65
.	.	8G#XL	.	.	.	.	.	.
.	.	8A	.	.	.	.	.	.
.	.	8G#J	.	.	.	.	.	.
=138	=138	=138	=138	=138	=138	=138	=138	=138
2r	.	4A	.	2r	.	[2cc	.	i
.	.	4A	.	.	.	.	.	.
2C	.	2E	.	2A	.	8ccL]	.	i6
.	.	.	.	.	.	8ee	.	.
.	.	.	.	.	.	8ffX	.	.
.	.	.	.	.	.	8eeJ	.	.
=139	=139	=139	=139	=139	=139	=139	=139	=139
2BB	.	2FX	.	2A	.	8ddL	.	ii%7
.	.	.	.	.	.	8ccJ	.	.
.	.	.	.	.	.	4b	.	.
2E	.	2G#X	.	2B	.	8r	.	V7
.	.	.	.	.	.	8ddL	.	.
.	.	.	.	.	.	8ee	.	.
.	.	.	.	.	.	8ddJ	.	.
=140	=140	=140	=140	=140	=140	=140	=140	=140
4AA	.	4A	.	4c	.	8ccL	.	i\\
.	.	.	.	.	.	8bJ	.	.
4r	.	4r	.	4r	.	4a	.	.
8r	.	2r	.	2a'	.	2r	.	i64
8EEL	.	.	.	.	.	.	.	.
8FFX	.	.	.	.	.	.	.	.
8EEJ	.	.	.	.	.	.	.	.
=141	=141	=141	=141	=141	=141	=141	=141	=141
4FFX	.	1r	.	2fX'	.	1r	.	V65
4FF	.	.	.	.	.	.	.	.
8r	.	.	.	2d'	.	.	.	.
8GG#XL	.	.	.	.	.	.	.	.
8AA	.	.	.	.	.	.	.	.
8GG#J	.	.	.	.	.	.	.	.
=142	=142	=142	=142	=142	=142	=142	=142	=142
8AAL	.	2r	.	[2c	.	2r	.	i[i
8AAA	.	.	.	.	.	.	.	.
8AAA	.	.	.	.	.	.	.	.
8AAAJ	.	.	.	.	.	.	.	.
8AAAL	.	2C	.	8cL]	.	2E	.	i6
8AAA	.	.	.	8e	.	.	.	.
8AAA	.	.	.	8fX	.	.	.	.
8AAAJ	.	.	.	8eJ	.	.	.	.
=143	=143	=143	=143	=143	=143	=143	=143	=143
8AAAL	.	2BB	.	8dL	.	2FX	.	iio
8AAA	.	.	.	8cJ	.	.	.	.
8AAA	.	.	.	4B	.	.	.	.
8AAAJ	.	.	.	.	.	.	.	.
8AAAL	.	2E	.	8r	.	2G#X	.	V7
8AAA	.	.	.	8dL	.	.	.	.
8AAA	.	.	.	8e	.	.	.	.
8AAAJ	.	.	.	8dJ	.	.	.	.
=144	=144	=144	=144	=144	=144	=144	=144	=144
!	!	!	!	!	!	!LO:TX:a:i:t=sul una corda.	!	!
4AAA	p	4E	p	4c	p	8AL	p	i
.	.	.	.	.	.	8A	.	.
4r	.	4A	.	4cc	.	8B	.	.
.	.	.	.	.	.	8AJ	.	.
4AA	.	4r	.	4r	.	8EL	.	.
.	.	.	.	.	.	8E	.	.
4r	.	4A	.	4cc	.	8FX	.	.
.	.	.	.	.	.	8EJ	.	.
=145	=145	=145	=145	=145	=145	=145	=145	=145
4AA	.	4r	.	4r	.	8FXL	.	VI6
.	.	.	.	.	.	8F	.	.
4r	.	4A	.	4cc	.	8G	.	.
.	.	.	.	.	.	8FJ	.	.
4AA	.	4r	.	4r	.	8G#XL	.	i
.	.	.	.	.	.	8G#	.	.
4r	.	4A	.	4cc	.	8A	.	.
.	.	.	.	.	.	8G#J	.	.
=146	=146	=146	=146	=146	=146	=146	=146	=146
!	!	!	!	!	!	!LO:TX:b:i:t=cresc.	!	!
4AA	.	4r	.	4r	.	8AL	.	.
.	.	.	.	.	.	8A	.	.
4r	.	4a	.	4cc	.	8B	.	.
.	.	.	.	.	.	8AJ	.	.
4AA	.	4r	.	4r	.	8BL	.	i(2)
.	.	.	.	.	.	8B	.	.
4r	.	4a	.	4cc	.	8c	.	.
.	.	.	.	.	.	8BJ	.	.
=147	=147	=147	=147	=147	=147	=147	=147	=147
4AA	.	4r	.	4r	.	8cL	.	i
.	.	.	.	.	.	8c	.	.
4r	.	4a	.	4cc	.	8d	.	.
.	.	.	.	.	.	8cJ	.	.
4AA	.	4r	.	4r	.	8dL	.	i(4)]
.	.	.	.	.	.	8d	.	.
4r	.	4a	.	4cc	.	8e	.	.
.	.	.	.	.	.	8dJ	.	.
=148	=148	=148	=148	=148	=148	=148	=148	=148
[1GG	f	[1B-X	f	[1e [1ee	f	8eL	f	.bVII.viio6
.	.	.	.	.	.	8e	.	.
.	.	.	.	.	.	8fX	.	.
.	.	.	.	.	.	8eJ	.	.
.	.	.	.	.	.	8dL	.	.
.	.	.	.	.	.	8d	.	.
.	.	.	.	.	.	8e	.	.
.	.	.	.	.	.	8dJ	.	.
=149	=149	=149	=149	=149	=149	=149	=149	=149
1GG_	.	2B-]	.	1e_ 1ee_	.	8cL	.	V43
.	.	.	.	.	.	8c	.	.
.	.	.	.	.	.	8d	.	.
.	.	.	.	.	.	8cJ	.	.
.	.	2g	.	.	.	8BL	.	.
.	.	.	.	.	.	8B	.	.
.	.	.	.	.	.	8c	.	.
.	.	.	.	.	.	8BJ	.	.
=150	=150	=150	=150	=150	=150	=150	=150	=150
4GG]	p	4b-X	p	4e] 4ee]	p	8cL	p	.
.	.	.	.	.	.	8c	.	.
4r	.	4B-X	.	4g 4ee	.	8d	.	.
.	.	.	.	.	.	8cJ	.	.
4CC	.	4r	.	4r	.	8B-XL	.	V7
.	.	.	.	.	.	8B-	.	.
4r	.	4G	.	4g 4ee	.	8c	.	.
.	.	.	.	.	.	8B-J	.	.
=151	=151	=151	=151	=151	=151	=151	=151	=151
4CC	.	4r	.	4r	.	8GL	.	.
.	.	.	.	.	.	8G	.	.
4r	.	4C	.	4g 4ee	.	8A	.	.
.	.	.	.	.	.	8GJ	.	.
4CC	.	4r	.	4r	.	8cL	.	.
.	.	.	.	.	.	8c	.	.
4r	.	4C	.	4g 4ee	.	8d	.	.
.	.	.	.	.	.	8cJ	.	.
=152	=152	=152	=152	=152	=152	=152	=152	=152
4FFX	.	4FX	.	8aL 8ffX	.	4FX	.	I
!	!	!	!	!LO:TX:a:i:t=sul una corda.	!	!	!	!
.	.	.	.	8fX	.	.	.	.
4r	.	4fX	.	8g	.	4a	.	.
.	.	.	.	8fJ	.	.	.	.
4FF	.	4r	.	8cL	.	4r	.	.
.	.	.	.	8c	.	.	.	.
4r	.	4f	.	8d	.	4a	.	.
.	.	.	.	8cJ	.	.	.	.
=153	=153	=153	=153	=153	=153	=153	=153	=153
4FFX	.	4r	.	8dL	.	4r	.	.
.	.	.	.	8d	.	.	.	.
4r	.	4fX	.	8e	.	4a	.	.
.	.	.	.	8dJ	.	.	.	.
4FF	.	4r	.	8eL	.	4r	.	.
.	.	.	.	8e	.	.	.	.
4r	.	4f	.	8fX	.	4a	.	.
.	.	.	.	8eJ	.	.	.	.
=154	=154	=154	=154	=154	=154	=154	=154	=154
!	!	!	!	!LO:TX:b:i:t=cresc.	!	!	!	!
4FFX	.	4r	.	8fXL	.	4r	.	.
.	.	.	.	8f	.	.	.	.
4r	.	4fX	.	8g	.	4a	.	.
.	.	.	.	8fJ	.	.	.	.
4FF	.	4r	.	8gL	.	4r	.	.
.	.	.	.	8g	.	.	.	.
4r	.	4FX	.	8a	.	4a	.	.
.	.	.	.	8gJ	.	.	.	.
=155	=155	=155	=155	=155	=155	=155	=155	=155
4FFX	.	4r	.	8aL	.	4r	.	.
.	.	.	.	8a	.	.	.	.
4r	.	4FX	.	8b-X	.	4a	.	.
.	.	.	.	8aJ	.	.	.	.
4FF	.	4r	.	8b-L	.	4r	.	.
.	.	.	.	8b-	.	.	.	.
4r	.	4F	.	8cc	.	4a	.	.
.	.	.	.	8b-J	.	.	.	.
=156	=156	=156	=156	=156	=156	=156	=156	=156
[1AA-X	f	[1c	f	8ccL	f	[1fX [1ffX	f	iv.iv6
.	.	.	.	8cc	.	.	.	.
.	.	.	.	8dd-X	.	.	.	.
.	.	.	.	8ccJ	.	.	.	.
.	.	.	.	8b-XL	.	.	.	.
.	.	.	.	8b-	.	.	.	.
.	.	.	.	8cc	.	.	.	.
.	.	.	.	8b-J	.	.	.	.
=157	=157	=157	=157	=157	=157	=157	=157	=157
1AA-_	.	1c_	.	8a-XL	.	1f_ 1ff_	.	.
.	.	.	.	8a-	.	.	.	.
.	.	.	.	8b-X	.	.	.	.
.	.	.	.	8a-J	.	.	.	.
.	.	.	.	8gL	.	.	.	.
.	.	.	.	8g	.	.	.	.
.	.	.	.	8a-	.	.	.	.
.	.	.	.	8gJ	.	.	.	.
=158	=158	=158	=158	=158	=158	=158	=158	=158
4AA-]	p	4c]	p	8fXL	p	4f] 4ff]	p	.
.	.	.	.	8f	.	.	.	.
4r	.	4c	.	8g	.	4ffX	.	.
.	.	.	.	8fJ	.	.	.	.
4FFX	.	4r	.	8a-XL	.	4r	.	iv
.	.	.	.	8a-	.	.	.	.
4r	.	4c	.	8b-X	.	4ff	.	.
.	.	.	.	8a-J	.	.	.	.
=159	=159	=159	=159	=159	=159	=159	=159	=159
4GG	.	4r	.	8gL	.	4r	.	V7
.	.	.	.	8g	.	.	.	.
4r	.	4B	.	8a-X	.	4ffX	.	.
.	.	.	.	8gJ	.	.	.	.
4GG	.	4r	.	8dL	.	4r	.	.
.	.	.	.	8d	.	.	.	.
4r	.	4G	.	8e-X	.	4g 4ff	.	.
.	.	.	.	8dJ	.	.	.	.
=160	=160	=160	=160	=160	=160	=160	=160	=160
!	!	!LO:TX:a:i:t=sul una corda.	!	!	!	!	!	!
4CC	.	8BBL	.	4e-X	.	4g 4ee-X	.	i\\
.	.	8BB	.	.	.	.	.	.
4r	.	8C	.	4c	.	4e-X	.	.
.	.	8BBJ	.	.	.	.	.	.
4CC	.	8GGL	.	4r	.	4r	.	i
.	.	8GG	.	.	.	.	.	.
4r	.	8AA	.	4c	.	4e-	.	.
.	.	8GGJ	.	.	.	.	.	.
=161	=161	=161	=161	=161	=161	=161	=161	=161
4CC	.	8AAL	.	4r	.	4r	.	.
.	.	8AA	.	.	.	.	.	.
4r	.	8BB	.	4c	.	4e-X	.	.
.	.	8AAJ	.	.	.	.	.	.
4CC	.	8BBL	.	4r	.	4r	.	.
.	.	8BB	.	.	.	.	.	.
4r	.	8C	.	4c	.	4e-	.	.
.	.	8BBJ	.	.	.	.	.	.
=162	=162	=162	=162	=162	=162	=162	=162	=162
4CC	.	8CL	.	4r	.	4r	.	.
!	!	!LO:TX:b:i:t=cresc.	!	!	!	!	!	!
.	.	8C	.	.	.	.	.	.
4r	.	8D	.	4c	.	4e-X	.	.
.	.	8CJ	.	.	.	.	.	.
4CC	.	8DL	.	4r	.	4r	.	.
.	.	8D	.	.	.	.	.	.
4r	.	8E-X	.	4c	.	4e-	.	.
.	.	8DJ	.	.	.	.	.	.
=163	=163	=163	=163	=163	=163	=163	=163	=163
4CC	.	8E-XL	.	4r	.	4r	.	.
.	.	8E-	.	.	.	.	.	.
4r	.	8FX	.	4c	.	4e-X	.	.
.	.	8E-J	.	.	.	.	.	.
4CC	.	8FL	.	4r	.	4r	.	.
.	.	8F	.	.	.	.	.	.
4r	.	8G	.	4c	.	4e-	.	.
.	.	8FJ	.	.	.	.	.	.
=164	=164	=164	=164	=164	=164	=164	=164	=164
[1EE-X	f	8GL	f	[1c [1g	f	[1cc	f	i.iv6
.	.	8G	.	.	.	.	.	.
.	.	8A-X	.	.	.	.	.	.
.	.	8GJ	.	.	.	.	.	.
.	.	8FXL	.	.	.	.	.	.
.	.	8F	.	.	.	.	.	.
.	.	8G	.	.	.	.	.	.
.	.	8FJ	.	.	.	.	.	.
=165	=165	=165	=165	=165	=165	=165	=165	=165
2EE-]	.	8E-XL	.	2c] 2g]	.	1cc_	.	V65
.	.	8E-	.	.	.	.	.	.
.	.	8FX	.	.	.	.	.	.
.	.	8E-J	.	.	.	.	.	.
[2FF#	.	8DL	.	[2c [2a	.	.	.	.
.	.	8D	.	.	.	.	.	.
.	.	8E-	.	.	.	.	.	.
.	.	8DJ	.	.	.	.	.	.
=166	=166	=166	=166	=166	=166	=166	=166	=166
4FF#]	p	8CL	p	4c] 4a]	p	4cc]	p	.
.	.	8C	.	.	.	.	.	.
4r	.	8D	.	4A	.	4D 4c	.	.
.	.	8CJ	.	.	.	.	.	.
4FF#	.	8E-XL	.	4r	.	4r	.	.
.	.	8E-	.	.	.	.	.	.
4r	.	8FX	.	4A	.	4D 4c	.	.
.	.	8E-J	.	.	.	.	.	.
=167	=167	=167	=167	=167	=167	=167	=167	=167
4FF#	.	8DL	.	4r	.	4r	.	.
.	.	8D	.	.	.	.	.	.
4r	.	8E-X	.	4A	.	4D 4c	.	.
.	.	8DJ	.	.	.	.	.	.
4DD	.	8AAL	.	4r	.	4r	.	V
.	.	8AA	.	.	.	.	.	.
4r	.	8BB-X	.	4D 4d	.	4f#	.	.
.	.	8AAJ	.	.	.	.	.	.
=168	=168	=168	=168	=168	=168	=168	=168	=168
!LO:TX:a:i:t=sul una corda.	!	!	!	!	!	!	!	!
8GGL	.	4BB-X	.	4D 4d	.	4g	.	i\\
8GG	.	.	.	.	.	.	.	.
8AA	.	4G	.	4b-X	.	4dd	.	.
8GGJ	.	.	.	.	.	.	.	.
8DDL	.	4r	.	4r	.	4r	.	i64
8DD	.	.	.	.	.	.	.	.
8EE	.	4G	.	4b-	.	4dd	.	.
8DDJ	.	.	.	.	.	.	.	.
=169	=169	=169	=169	=169	=169	=169	=169	=169
8EEL	.	4r	.	4r	.	4r	.	.
8EE	.	.	.	.	.	.	.	.
8FF#	.	4G	.	4b-X	.	4dd	.	i
8EEJ	.	.	.	.	.	.	.	.
8FF#L	.	4r	.	4r	.	4r	.	.
8FF#	.	.	.	.	.	.	.	.
8GG	.	4G	.	4b-	.	4dd	.	.
8FF#J	.	.	.	.	.	.	.	.
=170	=170	=170	=170	=170	=170	=170	=170	=170
!LO:TX:b:i:t=cresc.	!	!	!	!	!	!	!	!
8GGL	.	4r	.	4r	.	4r	.	.
8GG	.	.	.	.	.	.	.	.
8AA	.	4G	.	4b-X	.	4dd	.	.
8GGJ	.	.	.	.	.	.	.	.
8AAL	.	4r	.	4r	.	4r	.	.
8AA	.	.	.	.	.	.	.	.
8BB-X	.	4G	.	4b-	.	4dd	.	i6
8AAJ	.	.	.	.	.	.	.	.
=171	=171	=171	=171	=171	=171	=171	=171	=171
8BB-XL	.	4r	.	4r	.	4r	.	.
8BB-	.	.	.	.	.	.	.	.
8C	.	4G	.	4b-X	.	4dd	.	.
8BB-J	.	.	.	.	.	.	.	.
8CL	.	4r	.	4r	.	4r	.	.
8C	.	.	.	.	.	.	.	.
8D	.	4G	.	4b-	.	4dd	.	.
8CJ	.	.	.	.	.	.	.	.
=172	=172	=172	=172	=172	=172	=172	=172	=172
8DL	f	[1G	f	[1b-X	f	[1dd	f	i6(4)
8D	.	.	.	.	.	.	.	.
8E-X	.	.	.	.	.	.	.	.
8DJ	.	.	.	.	.	.	.	.
8CL	.	.	.	.	.	.	.	.
8C	.	.	.	.	.	.	.	.
8D	.	.	.	.	.	.	.	.
8CJ	.	.	.	.	.	.	.	.
=173	=173	=173	=173	=173	=173	=173	=173	=173
8BB-XL	.	1G_	.	1b-_	.	1dd_	.	i(2)
8BB-	.	.	.	.	.	.	.	.
8C	.	.	.	.	.	.	.	.
8BB-J	.	.	.	.	.	.	.	.
8AAL	.	.	.	.	.	.	.	.
8AA	.	.	.	.	.	.	.	.
8BB-	.	.	.	.	.	.	.	.
8AAJ	.	.	.	.	.	.	.	.
=174	=174	=174	=174	=174	=174	=174	=174	=174
8GGL	p	4G]	p	4b-]	p	4dd]	p	i
8GG	.	.	.	.	.	.	.	.
8AA	.	4G	.	4b-X	.	4dd	.	.
8GGJ	.	.	.	.	.	.	.	.
8BB-XL	.	4r	.	4r	.	4r	.	i6
8BB-	.	.	.	.	.	.	.	.
8C	.	4d	.	4g	.	4dd	.	.
8BB-J	.	.	.	.	.	.	.	.
=175	=175	=175	=175	=175	=175	=175	=175	=175
8GGL	.	4r	.	4r	.	4r	.	i
8GG	.	.	.	.	.	.	.	.
8AA	.	4d	.	4b-X	.	4dd	.	.
8GGJ	.	.	.	.	.	.	.	.
8BB-XL	.	4r	.	4r	.	4r	.	i6
8BB-	.	.	.	.	.	.	.	.
8C	.	4d	.	4g#X	.	4dd	.	.It6/V
8BB-J	.	.	.	.	.	.	.	.
=176	=176	=176	=176	=176	=176	=176	=176	=176
!	!	!	!	!	!LO:DY:a	!	!	!
1AA	ff	1e	ff	1a	ff ff	[2e [2cc#X	.	V7/V
.	.	.	.	.	.	8e] 8cc#]	.	.
.	.	.	.	.	.	8aaL	.	.
.	.	.	.	.	.	8bb-X	.	.
.	.	.	.	.	.	8aaJ	.	.
=177	=177	=177	=177	=177	=177	=177	=177	=177
!	!	!	!LO:DY:a	!	!	!	!	!
1AAA	sf	1G 1A	sf sf	1E 1c#X	.	8ggL	sf	.
.	.	.	.	.	.	8ffXJ	.	.
.	.	.	.	.	.	4ee	.	.
.	.	.	.	.	.	8r	.	.
.	.	.	.	.	.	8aaL	.	.
.	.	.	.	.	.	8bb-X	.	.
.	.	.	.	.	.	8aaJ	.	.
=178	=178	=178	=178	=178	=178	=178	=178	=178
!	!	!	!LO:DY:a	!	!	!	!	!
1AAA	sf	1G 1A	sf sf	1E 1c#X	.	8ggL	sf	.
.	.	.	.	.	.	8ffXJ	.	.
.	.	.	.	.	.	4ee	.	.
.	.	.	.	.	.	8r	.	.
.	.	.	.	.	.	8aaL	.	.
.	.	.	.	.	.	8bb-X	.	.
.	.	.	.	.	.	8aaJ	.	.
=179	=179	=179	=179	=179	=179	=179	=179	=179
1AAA	sf	1G 1A	sf	1E 1c#X	sf	8ggL	.	.
.	.	.	.	.	.	8ffX	.	.
.	.	.	.	.	.	8ee	.	.
.	.	.	.	.	.	8ffJ	.	.
.	.	.	.	.	.	8ggL	.	.
.	.	.	.	.	.	8ee	.	.
.	.	.	.	.	.	8aa	.	.
.	.	.	.	.	.	8aaJ	.	.
=180	=180	=180	=180	=180	=180	=180	=180	=180
1DD	.	1D	.	[2D [2c	.	1a 1ff#	.	V7
.	.	.	.	8DL] 8c]	.	.	.	.
.	.	.	.	8d	.	.	.	.
.	.	.	.	8e-X	.	.	.	.
.	.	.	.	8dJ	.	.	.	.
=181	=181	=181	=181	=181	=181	=181	=181	=181
1DD	.	1C 1D	.	8cL	.	1a 1ff#	.	.
.	.	.	.	8B-XJ	.	.	.	.
.	.	.	.	4A	.	.	.	.
.	.	.	.	8r	.	.	.	.
.	.	.	.	8dL	.	.	.	.
.	.	.	.	8e-X	.	.	.	.
.	.	.	.	8dJ	.	.	.	.
=182	=182	=182	=182	=182	=182	=182	=182	=182
1DD	.	1C 1D	.	8cL	.	1a 1ff#	.	.
.	.	.	.	8B-XJ	.	.	.	.
.	.	.	.	4A	.	.	.	.
.	.	.	.	8r	.	.	.	.
.	.	.	.	8dL	.	.	.	.
.	.	.	.	8e-X	.	.	.	.
.	.	.	.	8dJ	.	.	.	.
=183	=183	=183	=183	=183	=183	=183	=183	=183
1DD	.	1C 1D	.	8cL	.	1a 1ff#	.	.
.	.	.	.	8B-X	.	.	.	.
.	.	.	.	8A	.	.	.	.
.	.	.	.	8B-J	.	.	.	.
.	.	.	.	8cL	.	.	.	.
.	.	.	.	8A	.	.	.	.
.	.	.	.	8d	.	.	.	.
.	.	.	.	8dJ	.	.	.	.
=184	=184	=184	=184	=184	=184	=184	=184	=184
1GGG 1GG	.	[2BB [2D	.	1D 1B	.	1ffX	.	V7/iv
.	.	8BB] 8D]	.	.	.	.	.	.
.	.	8gL	.	.	.	.	.	.
.	.	8a-X	.	.	.	.	.	.
.	.	8gJ	.	.	.	.	.	.
=185	=185	=185	=185	=185	=185	=185	=185	=185
1GGG 1GG	.	8fXL	.	1FX	.	1D 1B	.	.
.	.	8e-XJ	.	.	.	.	.	.
.	.	4d	.	.	.	.	.	.
.	.	8r	.	.	.	.	.	.
.	.	8gL	.	.	.	.	.	.
.	.	8a-X	.	.	.	.	.	.
.	.	8gJ	.	.	.	.	.	.
=186	=186	=186	=186	=186	=186	=186	=186	=186
1GGG 1GG	.	8fXL	.	1FX	.	1D 1B	.	.
.	.	8e-XJ	.	.	.	.	.	.
.	.	4d	.	.	.	.	.	.
.	.	8r	.	.	.	.	.	.
.	.	8gL	.	.	.	.	.	.
.	.	8a-X	.	.	.	.	.	.
.	.	8gJ	.	.	.	.	.	.
=187	=187	=187	=187	=187	=187	=187	=187	=187
1GGG 1GG	.	8fXL	.	2.FX	.	1D 1B	.	.
.	.	8e-X	.	.	.	.	.	.
.	.	8d	.	.	.	.	.	.
.	.	8e-J	.	.	.	.	.	.
.	.	8fL	.	.	.	.	.	.
.	.	8d	.	.	.	.	.	.
.	.	8g	.	4d	.	.	.	.
.	.	8gJ	.	.	.	.	.	.
=188	=188	=188	=188	=188	=188	=188	=188	=188
!	!	!	!	!	!LO:DY:a	!	!	!
2.CC	sf	8e-XL	sf	2.G	sf sf	2.E-X 2.c	.	iv
.	.	8d	.	.	.	.	.	.
.	.	8c	.	.	.	.	.	.
.	.	8dJ	.	.	.	.	.	.
.	.	8e-L	.	.	.	.	.	.
.	.	8g	.	.	.	.	.	.
4C	.	8a	.	4G 4e-X	.	4g	.	.
.	.	8gJ	.	.	.	.	.	.
=189	=189	=189	=189	=189	=189	=189	=189	=189
!	!	!	!LO:DY:a	!	!	!	!	!
2.BB-X	sf	8dL	sf sf	2.G 2.d	.	2.g	sf	i6
.	.	8c	.	.	.	.	.	.
.	.	8B-X	.	.	.	.	.	.
.	.	8cJ	.	.	.	.	.	.
.	.	8dL	.	.	.	.	.	.
.	.	8g	.	.	.	.	.	.
4BB-	.	8a	.	4G 4d	.	4g	.	.
.	.	8gJ	.	.	.	.	.	.
=190	=190	=190	=190	=190	=190	=190	=190	=190
!	!	!	!LO:DY:a	!	!	!	!	!
2.AA	sf	8cL	sf sf	2.G 2.c	.	2.g	sf	ii%7
.	.	8B-X	.	.	.	.	.	.
.	.	8A	.	.	.	.	.	.
.	.	8B-J	.	.	.	.	.	.
.	.	8cL	.	.	.	.	.	.
.	.	8g	.	.	.	.	.	.
4AA	.	8a	.	4G 4c	.	4g	.	.
.	.	8gJ	.	.	.	.	.	.
=191	=191	=191	=191	=191	=191	=191	=191	=191
!	!LO:DY:a	!	!LO:DY:a	!	!	!	!	!
2.GG	sf sf	8B-XL	sf	2.G 2.B-X	.	[2g	sf	i
.	.	8A	.	.	.	.	.	.
.	.	8G	.	.	.	.	.	.
.	.	8AJ	.	.	.	.	.	.
.	.	4B-	.	.	.	8g]	.	.
.	.	.	.	.	.	8ggL	.	.
!LO:TX:b:i:t=sempre	!	!LO:TX:b:i:t=sempre	!	!LO:TX:b:i:t=sempre	!	!LO:TX:b:i:t=sempre	!	!
4BBB-X	.	4r	.	4G 4B-	.	8aa	.	i6
.	.	.	.	.	.	8ggJ	.	.
=192	=192	=192	=192	=192	=192	=192	=192	=192
2.CC	ff	2.E-X	ff	2.e-X	ff	8ee-XL	ff	iv
.	.	.	.	.	.	8dd	.	.
.	.	.	.	.	.	8cc	.	.
.	.	.	.	.	.	8ddJ	.	.
.	.	.	.	.	.	8ee-L	.	.
.	.	.	.	.	.	8gg	.	.
4CC	.	4E-	.	4e-	.	8aa	.	.
.	.	.	.	.	.	8ggJ	.	.
=193	=193	=193	=193	=193	=193	=193	=193	=193
2.BBB-X	.	2.D	.	2.d	.	8ddL	.	i6
.	.	.	.	.	.	8cc	.	.
.	.	.	.	.	.	8b-X	.	.
.	.	.	.	.	.	8ccJ	.	.
.	.	.	.	.	.	8ddL	.	.
.	.	.	.	.	.	8gg	.	.
4BBB-	.	4D	.	4d	.	8aa	.	.
.	.	.	.	.	.	8ggJ	.	.
=194	=194	=194	=194	=194	=194	=194	=194	=194
2.AAA	.	2.C	.	2.c	.	8ccL	.	ii%7
.	.	.	.	.	.	8b-X	.	.
.	.	.	.	.	.	8a	.	.
.	.	.	.	.	.	8b-J	.	.
.	.	.	.	.	.	8ccL	.	.
.	.	.	.	.	.	8gg	.	.
4AAA	.	4C	.	4c	.	8aa	.	.
.	.	.	.	.	.	8ggJ	.	.
=195	=195	=195	=195	=195	=195	=195	=195	=195
2.GGG	.	[2BB-X	.	2.D 2.B-X	.	8b-XL	.	i
.	.	.	.	.	.	8a	.	.
.	.	.	.	.	.	8g	.	.
.	.	.	.	.	.	8aJ	.	.
.	.	8BB-]	.	.	.	4b-	.	.
.	.	8GL	.	.	.	.	.	.
4GG	.	8A	.	4D 4B-	.	4r	.	.
.	.	8GJ	.	.	.	.	.	.
=196	=196	=196	=196	=196	=196	=196	=196	=196
2.DD	.	8F#L	.	2.D 2.A	.	2r	.	V
.	.	8EJ	.	.	.	.	.	.
.	.	4D	.	.	.	.	.	.
.	.	4r	.	.	.	8r	.	.
.	.	.	.	.	.	8ddL	.	.
4DD	.	4F#	.	4D 4A	.	8ee-X	.	.
.	.	.	.	.	.	8ddJ	.	.
=197	=197	=197	=197	=197	=197	=197	=197	=197
2.GG	.	[2G	.	2.D 2.B-X	.	8b-XL	.	i
.	.	.	.	.	.	8aJ	.	.
.	.	.	.	.	.	4g	.	.
.	.	8G]	.	.	.	2r	.	.
.	.	8GL	.	.	.	.	.	.
4GG	.	8A	.	4D 4B-	.	.	.	.
.	.	8GJ	.	.	.	.	.	.
=198	=198	=198	=198	=198	=198	=198	=198	=198
2.DD	.	8F#L	.	2.D 2.A	.	2r	.	V
.	.	8EJ	.	.	.	.	.	.
.	.	4D	.	.	.	.	.	.
.	.	4r	.	.	.	8r	.	.
.	.	.	.	.	.	8ddL	.	.
4DD	.	4F#	.	4D 4A	.	8ee-X	.	.
.	.	.	.	.	.	8ddJ	.	.
=199	=199	=199	=199	=199	=199	=199	=199	=199
2.GG	.	2.G	.	2.D 2.B-X	.	8b-XL	.	i
.	.	.	.	.	.	8a	.	.
.	.	.	.	.	.	8g	.	.
.	.	.	.	.	.	8aJ	.	.
.	.	.	.	.	.	8b-L	.	.
.	.	.	.	.	.	8a	.	.
8GL	.	8GL	.	8gL	.	8g	.	.
8FXJ	.	8FXJ	.	8fXJ	.	8fXJ	.	.
=200	=200	=200	=200	=200	=200	=200	=200	=200
8E-XL	.	8E-XL	.	8e-XL	.	8e-XL	.	iv6
8D	.	8D	.	8d	.	8d	.	.
8C	.	8C	.	8c	.	8c	.	.
8DJ	.	8DJ	.	8dJ	.	8dJ	.	.
8E-L	.	8E-L	.	8e-L	.	8e-L	.	.
8D	.	8D	.	8d	.	8d	.	.
8C	.	8C	.	8c	.	8c	.	.
8BB-XJ	.	8BB-XJ	.	8B-XJ	.	8B-XJ	.	.
=201	=201	=201	=201	=201	=201	=201	=201	=201
8AAL	.	4AA	.	8AL	.	8AL	.	@none
8BB-X	.	.	.	8B-X	.	8B-X	.	.
8C	.	8cL	.	8c	.	8c	.	.
8BB-J	.	8B-XJ	.	8B-J	.	8B-J	.	.
8AAL	.	8AL	.	8AL	.	8AL	.	.
8BB-	.	8B-	.	8B-	.	8B-	.	.
8AA	.	8A	.	8A	.	8A	.	.
8GGJ	.	8GJ	.	8GJ	.	8GJ	.	.
=202	=202	=202	=202	=202	=202	=202	=202	=202
8FF#L	.	8F#L	.	8F#L	.	8F#L	.	V6
8GG	.	8G	.	8G	.	8G	.	.
8AA	.	8A	.	8A	.	8A	.	.
8GGJ	.	8GJ	.	8GJ	.	8GJ	.	.
8FF#L	.	8F#L	.	8F#L	.	8F#L	.	.
8GG	.	8G	.	8G	.	8G	.	.
8FF#	.	8F#	.	8F#	.	8F#	.	.
8EE-XJ	.	8E-XJ	.	8E-XJ	.	8E-XJ	.	.
=203	=203	=203	=203	=203	=203	=203	=203	=203
8DDL	.	8DL	.	8DL	.	8DL	.	V7
8DD	.	8A	.	8c	.	8f#	.	.
8DD	.	8A	.	8c	.	8a	.	.
8DDJ	.	8AJ	.	8cJ	.	8f#J	.	.
8DDL	.	8AL	.	8cL	.	8cL	.	.
8DD	.	8A	.	8c	.	8f#	.	.
8DD	.	8A	.	8c	.	8c	.	.
8DDJ	.	8AJ	.	8cJ	.	8AJ	.	.
=204	=204	=204	=204	=204	=204	=204	=204	=204
8DDL	.	8AL	.	8cL	.	8DL	.	.
8DD	.	8c	.	8f#	.	8a	.	.
8DD	.	8c	.	8f#	.	8cc	.	.
8DDJ	.	8cJ	.	8f#J	.	8aJ	.	.
8DDL	.	8cL	.	8f#L	.	8f#L	.	.
8DD	.	8c	.	8f#	.	8a	.	.
8DD	.	8c	.	8f#	.	8f#	.	.
8DDJ	.	8cJ	.	8f#J	.	8cJ	.	.
=205	=205	=205	=205	=205	=205	=205	=205	=205
8DDL	.	8cL	.	8f#L	.	8DL	.	.
8DD	.	8f#	.	8a	.	8cc	.	.
8DD	.	8f#	.	8a	.	8ff#	.	.
8DDJ	.	8f#J	.	8aJ	.	8ccJ	.	.
8DDL	.	8f#L	.	8aL	.	8aL	.	.
8DD	.	8A	.	8c	.	8cc	.	.
8EE-X	.	8A	.	8c	.	8a	.	#viio2
8EE-J	.	8AJ	.	8cJ	.	8f#J	.	.
=206	=206	=206	=206	=206	=206	=206	=206	=206
8DDL	.	8AL	.	8cL	.	8aL	.	V7
8DD	.	8F#	.	8A	.	8cc	.	.
8EE-X	.	8F#	.	8A	.	8ff#	.	#viio2
8EE-J	.	8F#J	.	8AJ	.	8ccJ	.	.
8DDL	.	8F#L	.	8AL	.	8ff#L	.	V
8DD	.	8A	.	8f#	.	8aa	.	.
8EE-	.	8A	.	8f#	.	8ccc	.	#viio2
8EE-J	.	8AJ	.	8f#J	.	8aaJ	.	.
=207	=207	=207	=207	=207	=207	=207	=207	=207
1DD;	.	1D; 1A	.	1A; 1f#	.	1ccc;	.	V7
=208	=208	=208	=208	=208	=208	=208	=208	=208
!	!	!	!	!	!LO:DY:a	!	!	!
[1DD	ff	[1d	ff	[1d	ff ff	[1D [1d	.	V\\
=209	=209	=209	=209	=209	=209	=209	=209	=209
1DD]	.	1d]	.	1d]	.	1D] 1d]	.	.
=210	=210	=210	=210	=210	=210	=210	=210	=210
!	!	!	!	!	!LO:DY:a	!	!	!
4GGG	p	[2d	p	4G	p p	2G'	.	I.I
4r	.	.	.	4r	.	.	.	.
2r	.	8dL]	.	2r	.	2G#X'	.	V65/ii
.	.	8d	.	.	.	.	.	.
.	.	8e	.	.	.	.	.	.
.	.	8dJ	.	.	.	.	.	.
=211	=211	=211	=211	=211	=211	=211	=211	=211
1r	.	8cL	.	1r	.	2A'	.	ii
.	.	8BJ	.	.	.	.	.	.
.	.	4A	.	.	.	.	.	.
.	.	8r	.	.	.	2D'	.	V7
.	.	8cL	.	.	.	.	.	.
.	.	8d	.	.	.	.	.	.
.	.	8cJ	.	.	.	.	.	.
=212	=212	=212	=212	=212	=212	=212	=212	=212
1r	.	8BL	.	1r	.	2G'	.	I
.	.	8AJ	.	.	.	.	.	.
.	.	4G	.	.	.	.	.	.
.	.	8r	.	.	.	2G#X'	.	V65/ii
.	.	8dL	.	.	.	.	.	.
.	.	8e	.	.	.	.	.	.
.	.	8dJ	.	.	.	.	.	.
=213	=213	=213	=213	=213	=213	=213	=213	=213
1r	.	8cL	.	1r	.	2A'	.	ii
.	.	8B	.	.	.	.	.	.
.	.	8A	.	.	.	.	.	.
.	.	8BJ	.	.	.	.	.	.
.	.	8cL	.	.	.	2D'	.	V7
.	.	8A	.	.	.	.	.	.
.	.	8d	.	.	.	.	.	.
.	.	8cJ	.	.	.	.	.	.
=214	=214	=214	=214	=214	=214	=214	=214	=214
1r	.	8BL	.	1r	.	2G'	.	I
.	.	8A	.	.	.	.	.	.
.	.	8G	.	.	.	.	.	.
.	.	8AJ	.	.	.	.	.	.
.	.	8BL	.	.	.	2FX'	.	V2/IV
.	.	8c	.	.	.	.	.	.
.	.	8d	.	.	.	.	.	.
.	.	8BJ	.	.	.	.	.	.
=215	=215	=215	=215	=215	=215	=215	=215	=215
1r	.	8eL	.	1r	.	2E'	.	IV6
.	.	8d	.	.	.	.	.	.
.	.	8c	.	.	.	.	.	.
.	.	8eJ	.	.	.	.	.	.
.	.	8f#L	.	.	.	2c'	.	V2
.	.	8e	.	.	.	.	.	.
.	.	8d	.	.	.	.	.	.
.	.	8f#J	.	.	.	.	.	.
=216	=216	=216	=216	=216	=216	=216	=216	=216
1r	.	8gL	.	1r	.	2B'	.	I6
.	.	8a	.	.	.	.	.	.
.	.	8b	.	.	.	.	.	.
.	.	8gJ	.	.	.	.	.	.
.	.	8dL	.	.	.	2fX'	.	V43
.	.	8c	.	.	.	.	.	.
.	.	8B	.	.	.	.	.	.
.	.	8dJ	.	.	.	.	.	.
=217	=217	=217	=217	=217	=217	=217	=217	=217
1r	.	8eL	.	1r	.	2e'	.	IV6
.	.	8d	.	.	.	.	.	.
.	.	8c	.	.	.	.	.	.
.	.	8eJ	.	.	.	.	.	.
.	.	8f#L	.	.	.	2c'	.	V2
.	.	8e	.	.	.	.	.	.
.	.	8d	.	.	.	.	.	.
.	.	8f#J	.	.	.	.	.	.
=218	=218	=218	=218	=218	=218	=218	=218	=218
1r	.	8gL	.	1r	.	2B'	.	I6
.	.	8g	.	.	.	.	.	.
.	.	8a	.	.	.	.	.	.
.	.	8gJ	.	.	.	.	.	.
.	.	8eL	.	.	.	2G'	.	vi
.	.	8e	.	.	.	.	.	.
.	.	8f#	.	.	.	.	.	.
.	.	8eJ	.	.	.	.	.	.
=219	=219	=219	=219	=219	=219	=219	=219	=219
1r	.	8c#XL	.	1r	.	2E'	.	V43/V
.	.	8c#	.	.	.	.	.	.
.	.	8d	.	.	.	.	.	.
.	.	8c#J	.	.	.	.	.	.
.	.	8AL	.	.	.	2G'	.	V2/V
.	.	8A	.	.	.	.	.	.
.	.	8B	.	.	.	.	.	.
.	.	8AJ	.	.	.	.	.	.
=220	=220	=220	=220	=220	=220	=220	=220	=220
2D'	p	4d	p	[2a	p	2F#	.	V.I
.	.	4r	.	.	.	.	.	.
2D#X'	.	2F#'	.	8aL]	.	2r	.	#viio/ii
.	.	.	.	8a	.	.	.	.
.	.	.	.	8b	.	.	.	.
.	.	.	.	8aJ	.	.	.	.
=221	=221	=221	=221	=221	=221	=221	=221	=221
2E'	.	2G'	.	8gL	.	1r	.	V7
.	.	.	.	8f#J	.	.	.	.
.	.	.	.	4e	.	.	.	.
2AA'	.	2C#X'	.	8r	.	.	.	.
.	.	.	.	8gL	.	.	.	.
.	.	.	.	8a	.	.	.	.
.	.	.	.	8gJ	.	.	.	.
=222	=222	=222	=222	=222	=222	=222	=222	=222
2D'	.	2F#	.	8f#L	.	1r	.	#viio/ii
.	.	.	.	8eJ	.	.	.	.
.	.	.	.	4d	.	.	.	.
2D#X	.	2F#	.	8r	.	.	.	.
.	.	.	.	8aL	.	.	.	.
.	.	.	.	8b	.	.	.	.
.	.	.	.	8aJ	.	.	.	.
=223	=223	=223	=223	=223	=223	=223	=223	=223
2E'	.	2G'	.	8gL	.	1r	.	V7
.	.	.	.	8f#J	.	.	.	.
.	.	.	.	4e	.	.	.	.
2AA'	.	2C#X'	.	8r	.	.	.	.
.	.	.	.	8gL	.	.	.	.
.	.	.	.	8a	.	.	.	.
.	.	.	.	8gJ	.	.	.	.
=224	=224	=224	=224	=224	=224	=224	=224	=224
2D'	.	2F#'	.	8f#L	.	1r	.	viio43/IV
.	.	.	.	8e	.	.	.	.
.	.	.	.	8d	.	.	.	.
.	.	.	.	8eJ	.	.	.	.
2C'	.	2E-X'	.	8f#L	.	.	.	.
.	.	.	.	8g	.	.	.	.
.	.	.	.	8a	.	.	.	.
.	.	.	.	8f#J	.	.	.	.
=225	=225	=225	=225	=225	=225	=225	=225	=225
2BB'	.	2D'	.	8bL	.	1r	.	V43
.	.	.	.	8a	.	.	.	.
.	.	.	.	8g	.	.	.	.
.	.	.	.	8bJ	.	.	.	.
2E'	.	2G'	.	8cc#XL	.	.	.	.
.	.	.	.	8b	.	.	.	.
.	.	.	.	8a	.	.	.	.
.	.	.	.	8cc#J	.	.	.	.
=226	=226	=226	=226	=226	=226	=226	=226	=226
2D'	.	2F#'	.	8ddL	.	1r	.	viio43/IV
.	.	.	.	8ee	.	.	.	.
.	.	.	.	8ff#	.	.	.	.
.	.	.	.	8ddJ	.	.	.	.
2c'	.	2e-X'	.	8aL	.	.	.	.
.	.	.	.	8g	.	.	.	.
.	.	.	.	8f#	.	.	.	.
.	.	.	.	8aJ	.	.	.	.
=227	=227	=227	=227	=227	=227	=227	=227	=227
2B'	.	2d'	.	8bL	.	1r	.	I.#viio43/ii
.	.	.	.	8a	.	.	.	.
.	.	.	.	8g	.	.	.	.
.	.	.	.	8bJ	.	.	.	.
2d'	.	2fX'	.	8bL	.	.	.	.
.	.	.	.	8a	.	.	.	.
.	.	.	.	8g#X	.	.	.	.
.	.	.	.	8bJ	.	.	.	.
=228	=228	=228	=228	=228	=228	=228	=228	=228
2c'	.	2e'	.	8ccL	.	1r	.	ii6
.	.	.	.	8cc	.	.	.	.
.	.	.	.	8dd	.	.	.	.
.	.	.	.	8ccJ	.	.	.	.
2C'	.	2E'	.	8aL	.	.	.	.
.	.	.	.	8a	.	.	.	.
.	.	.	.	8b	.	.	.	.
.	.	.	.	8aJ	.	.	.	.
=229	=229	=229	=229	=229	=229	=229	=229	=229
2AA'	.	2C'	.	8f#L	.	2r	.	vii6
.	.	.	.	8f#	.	.	.	.
.	.	.	.	8g	.	.	.	.
.	.	.	.	8f#J	.	.	.	.
2FF#'	.	2C'	.	8dL	.	2a'	.	V65
.	.	.	.	8d	.	.	.	.
.	.	.	.	8e	.	.	.	.
.	.	.	.	8dJ	.	.	.	.
=230	=230	=230	=230	=230	=230	=230	=230	=230
!LO:TX:b:i:t=cresc.	!	!	!	!	!	!LO:TX:a:i:t=cresc.	!	!
[2D	.	4BB	.	2g'	.	2b'	.	I6
.	.	4r	.	.	.	.	.	.
8DL]	.	2r	.	2g#X'	.	2b'	.	#viio64/ii
8D	.	.	.	.	.	.	.	.
8E	.	.	.	.	.	.	.	.
8DJ	.	.	.	.	.	.	.	.
=231	=231	=231	=231	=231	=231	=231	=231	=231
!	!	!	!	!LO:TX:b:i:t=cresc.	!	!	!	!
8CL	.	1r	.	2a'	.	2cc'	.	ii6
8BBJ	.	.	.	.	.	.	.	.
4AA	.	.	.	.	.	.	.	.
8r	.	.	.	2d'	.	2f#'	.	V2
8CL	.	.	.	.	.	.	.	.
8D	.	.	.	.	.	.	.	.
8CJ	.	.	.	.	.	.	.	.
=232	=232	=232	=232	=232	=232	=232	=232	=232
8BBL	.	1r	.	2g'	.	2b'	.	I6
8AAJ	.	.	.	.	.	.	.	.
4GG	.	.	.	.	.	.	.	.
8r	.	.	.	2g#X'	.	2b'	.	#viio64/ii
8DL	.	.	.	.	.	.	.	.
8E	.	.	.	.	.	.	.	.
8DJ	.	.	.	.	.	.	.	.
=233	=233	=233	=233	=233	=233	=233	=233	=233
8CL	.	1r	.	2a'	.	2cc'	.	ii6
8BBJ	.	.	.	.	.	.	.	.
4AA	.	.	.	.	.	.	.	.
8r	.	.	.	2d'	.	2f#'	.	V2
8CL	.	.	.	.	.	.	.	.
8D	.	.	.	.	.	.	.	.
8CJ	.	.	.	.	.	.	.	.
=234	=234	=234	=234	=234	=234	=234	=234	=234
8BBL	.	1r	.	2g'	.	2b'	.	I6
8AA	.	.	.	.	.	.	.	.
8GG	.	.	.	.	.	.	.	.
8AAJ	.	.	.	.	.	.	.	.
8BBL	.	.	.	2fX'	.	2dd'	.	viio/IV
8C	.	.	.	.	.	.	.	.
8D	.	.	.	.	.	.	.	.
8BBJ	.	.	.	.	.	.	.	.
=235	=235	=235	=235	=235	=235	=235	=235	=235
8EL	.	1r	.	2e'	.	2cc'	.	IV6
8D	.	.	.	.	.	.	.	.
8C	.	.	.	.	.	.	.	.
8EJ	.	.	.	.	.	.	.	.
8F#L	.	.	.	2cc'	.	2a'	.	V65
8E	.	.	.	.	.	.	.	.
8D	.	.	.	.	.	.	.	.
8F#J	.	.	.	.	.	.	.	.
=236	=236	=236	=236	=236	=236	=236	=236	=236
8GL	.	1r	.	2b'	.	2g'	.	I
8A	.	.	.	.	.	.	.	.
8B	.	.	.	.	.	.	.	.
8GJ	.	.	.	.	.	.	.	.
8DL	.	.	.	2ffX'	.	2g'	.	V43/IV
8C	.	.	.	.	.	.	.	.
8BB	.	.	.	.	.	.	.	.
8DJ	.	.	.	.	.	.	.	.
=237	=237	=237	=237	=237	=237	=237	=237	=237
8EL	.	1r	.	2ee'	.	2g'	.	IV6
8D	.	.	.	.	.	.	.	.
8C	.	.	.	.	.	.	.	.
8EJ	.	.	.	.	.	.	.	.
8F#L	.	.	.	2cc'	.	2a'	.	V65
8E	.	.	.	.	.	.	.	.
8D	.	.	.	.	.	.	.	.
8F#J	.	.	.	.	.	.	.	.
=238	=238	=238	=238	=238	=238	=238	=238	=238
8GL	.	2r	.	2b'	.	2g'	.	I
8G	.	.	.	.	.	.	.	.
8F#	.	.	.	.	.	.	.	.
8GJ	.	.	.	.	.	.	.	.
!	!	!LO:TX:b:i:t=cresc.	!	!	!	!	!	!
8EL	.	2c'	.	[2a	.	[2g	.	ii43
8E	.	.	.	.	.	.	.	.
8D#X	.	.	.	.	.	.	.	.
8EJ	.	.	.	.	.	.	.	.
=239	=239	=239	=239	=239	=239	=239	=239	=239
8CL	.	2e-X'	.	2a]	.	2g]	.	ii%65
8C	.	.	.	.	.	.	.	.
8BB	.	.	.	.	.	.	.	.
8CJ	.	.	.	.	.	.	.	.
8DL	.	2d'	.	2a'	.	2g'	.	V(4)
8D	.	.	.	.	.	.	.	.
8C#X	.	.	.	.	.	.	.	.
8DJ	.	.	.	.	.	.	.	.
=240	=240	=240	=240	=240	=240	=240	=240	=240
!	!LO:DY:a	!	!	!	!	!	!	!
2GG'	f f	2G'	.	2B' 2g	f	[2dd	f	I\\
2GG#X'	.	2FX'	.	2fX'	.	8ddL]	.	#viio7/ii
.	.	.	.	.	.	8dd	.	.
.	.	.	.	.	.	8ee	.	.
.	.	.	.	.	.	8ddJ	.	.
=241	=241	=241	=241	=241	=241	=241	=241	=241
2AA'	.	2E'	.	2e'	.	8ccL	.	ii
.	.	.	.	.	.	8bJ	.	.
.	.	.	.	.	.	4a	.	.
2DD'	.	2F#'	.	2f#'	.	8r	.	V7
.	.	.	.	.	.	8ccL	.	.
.	.	.	.	.	.	8dd	.	.
.	.	.	.	.	.	8ccJ	.	.
=242	=242	=242	=242	=242	=242	=242	=242	=242
2GG'	.	8GL	.	8gL	.	8bL	.	I\\
.	.	8G	.	8g	.	8aJ	.	.
.	.	8G	.	8g	.	4g	.	.
.	.	8GJ	.	8gJ	.	.	.	.
2GG#X'	.	8FXL	.	8fXL	.	8r	.	#viio7/ii
.	.	8F	.	8f	.	8ddL	.	.
.	.	8F	.	8f	.	8ee	.	.
.	.	8FJ	.	8fJ	.	8ddJ	.	.
=243	=243	=243	=243	=243	=243	=243	=243	=243
2AA'	.	8EL	.	8eL	.	8ccL	.	ii
.	.	8E	.	8e	.	8b	.	.
.	.	8E	.	8e	.	8a	.	.
.	.	8EJ	.	8eJ	.	8bJ	.	.
2DD'	.	8F#L	.	8f#L	.	8ccL	.	V7
.	.	8F#	.	8f#	.	8a	.	.
.	.	8F#	.	8f#	.	8dd	.	.
.	.	8F#J	.	8f#J	.	8ccJ	.	.
=244	=244	=244	=244	=244	=244	=244	=244	=244
2GG'	.	8GL	.	8gL	.	8bL	.	I
.	.	8G	.	8g	.	8a	.	.
.	.	8G	.	8g	.	8g	.	.
.	.	8GJ	.	8gJ	.	8aJ	.	.
2FFX'	.	8GL	.	8gL	.	8bL	.	V2/IV
.	.	8G	.	8g	.	8cc	.	.
.	.	8G	.	8g	.	8dd	.	.
.	.	8GJ	.	8gJ	.	8bJ	.	.
=245	=245	=245	=245	=245	=245	=245	=245	=245
2EE'	.	8GL	.	8gL	.	8eeL	.	IV6
.	.	8G	.	8g	.	8dd	.	.
.	.	8G	.	8g	.	8cc	.	.
.	.	8GJ	.	8gJ	.	8eeJ	.	.
2CC'	.	8DL	.	8dL	.	8ff#L	.	V2
.	.	8D	.	8d	.	8ee	.	.
.	.	8D	.	8d	.	8dd	.	.
.	.	8DJ	.	8dJ	.	8ff#J	.	.
=246	=246	=246	=246	=246	=246	=246	=246	=246
2BBB'	.	8DL	.	8dL	.	8ggL	.	I6
.	.	8G	.	8g	.	8aa	.	.
.	.	8G	.	8g	.	8bb	.	.
.	.	8GJ	.	8gJ	.	8ggJ	.	.
2FFX'	.	8GL	.	8gL	.	8ddL	.	V2/IV
.	.	8G	.	8g	.	8cc	.	.
.	.	8G	.	8g	.	8b	.	.
.	.	8GJ	.	8gJ	.	8ddJ	.	.
=247	=247	=247	=247	=247	=247	=247	=247	=247
2EE'	.	8GL	.	8gL	.	8eeL	.	IV6
.	.	8G	.	8g	.	8dd	.	.
.	.	8G	.	8g	.	8cc	.	.
.	.	8GJ	.	8gJ	.	8eeJ	.	.
2C'	.	8DL	.	8dL	.	8ff#L	.	V2
.	.	8D	.	8d	.	8ee	.	.
.	.	8D	.	8d	.	8dd	.	.
.	.	8DJ	.	8dJ	.	8ff#J	.	.
=248	=248	=248	=248	=248	=248	=248	=248	=248
2BB'	.	8DL	.	8dL	.	8ggL	.	I6
.	.	8d	.	8dd	.	8gg	.	.
.	.	8d	.	8dd	.	8ff#	.	.
.	.	8dJ	.	8ddJ	.	8ggJ	.	.
2FF#'	.	8dL	.	8ddL	.	8aaL	.	V6
.	.	8d	.	8dd	.	8aa	.	.
.	.	8d	.	8dd	.	8gg	.	.
.	.	8dJ	.	8ddJ	.	8aaJ	.	.
=249	=249	=249	=249	=249	=249	=249	=249	=249
2GG'	.	8dL	.	8ddL	.	8bbL	.	I
.	.	8d	.	8dd	.	8bb	.	.
.	.	8d	.	8dd	.	8aa	.	.
.	.	8dJ	.	8ddJ	.	8bbJ	.	.
2AA'	.	8dL	.	8ddL	.	8cccL	.	V43
.	.	8d	.	8dd	.	8ccc	.	.
.	.	8d	.	8dd	.	8bb	.	.
.	.	8dJ	.	8ddJ	.	8cccJ	.	.
=250	=250	=250	=250	=250	=250	=250	=250	=250
2BB'	.	8dL	.	8ddL	.	8dddL	.	I6
.	.	8d	.	8g	.	8ddd	.	.
.	.	8d	.	8g	.	8eee	.	.
.	.	8dJ	.	8gJ	.	8dddJ	.	.
2C'	.	8eL	.	8gL	.	8cccL	.	IV
.	.	8e	.	8g	.	8ccc	.	.
.	.	8e	.	8a	.	8ddd	.	ii6
.	.	8eJ	.	8aJ	.	8cccJ	.	.
=251	=251	=251	=251	=251	=251	=251	=251	=251
2D'	.	8dL	.	8aL	.	8bbL	.	V(64)
.	.	8d	.	8a	.	8bb	.	.
.	.	8d	.	8g	.	8ccc	.	.
.	.	8dJ	.	8gJ	.	8bbJ	.	.
2D#X'	.	8cL	.	8gL	.	8aaL	.	#viio7/vi
.	.	8c	.	8g	.	8aa	.	.
.	.	8c	.	8f#	.	8bb	.	.
.	.	8cJ	.	8f#J	.	8aaJ	.	.
=252	=252	=252	=252	=252	=252	=252	=252	=252
8EL	.	2B'	.	8gL	.	8ggL	.	vi
8E	.	.	.	8g	.	8gg	.	.
8D	.	.	.	8f#	.	8ff#	.	.
8EJ	.	.	.	8gJ	.	8ggJ	.	.
8F#L	.	2d'	.	8aL	.	8aaL	.	V6
8F#	.	.	.	8a	.	8aa	.	.
8E	.	.	.	8g	.	8gg	.	.
8F#J	.	.	.	8aJ	.	8aaJ	.	.
=253	=253	=253	=253	=253	=253	=253	=253	=253
!LO:TX:a:i:t=piu	!	!LO:TX:a:i:t=piu	!	!LO:TX:b:i:t=piu	!	!LO:TX:b:i:t=piu	!	!
8GL	f	2d'	f	8bL	f	8bbL	f	I
8G	.	.	.	8b	.	8bb	.	.
8F#	.	.	.	8a	.	8aa	.	.
8GJ	.	.	.	8bJ	.	8bbJ	.	.
8AL	.	2f#'	.	8ccL	.	8cccL	.	viio6
8A	.	.	.	8cc	.	8ccc	.	.
8G	.	.	.	8b	.	8bb	.	.
8AJ	.	.	.	8ccJ	.	8cccJ	.	.
=254	=254	=254	=254	=254	=254	=254	=254	=254
8BL	.	2g'	.	8ddL	.	8dddL	.	I6
8B	.	.	.	8dd	.	8ddd	.	.
8A	.	.	.	8ee	.	8eee	.	.
8BJ	.	.	.	8ddJ	.	8dddJ	.	.
8cL	.	8dL	.	8ccL	.	8cccL	.	V2
8c	.	8a	.	8cc	.	8ccc	.	.
8B	.	8b	.	8dd	.	8ddd	.	I6
8cJ	.	8aJ	.	8ccJ	.	8cccJ	.	ii6
=255	=255	=255	=255	=255	=255	=255	=255	=255
8dL	.	8gL	.	8bL	.	8bbL	.	V(64)
8D	.	8d	.	8b	.	8bb	.	.
8D	.	8e	.	8cc	.	8ccc	.	.
8DJ	.	8dJ	.	8bJ	.	8bbJ	.	.
8DL	.	8cL	.	8aL	.	8aaL	.	V7
8DD	.	8F#	.	8c	.	8aa	.	.
8DD	.	8E	.	8d	.	8bb	.	.
8DDJ	.	8F#J	.	8cJ	.	8aaJ	.	.
=256	=256	=256	=256	=256	=256	=256	=256	=256
!	!LO:DY:a	!	!LO:DY:a	!	!	!	!	!
4GGG 4GG	ff ff	4G	ff	4B	.	8ggL	ff	I\\
.	.	.	.	.	.	8dd	.	.
4r	.	4r	.	4r	.	8gg'	.	I[I
.	.	.	.	.	.	8gg'J	.	.
4GGG 4GG	.	4D 4B	.	4G 4d	.	8ggL	.	.
.	.	.	.	.	.	8dd	.	.
4r	.	4r	.	4r	.	8gg'	.	.
.	.	.	.	.	.	8gg'J	.	.
=257	=257	=257	=257	=257	=257	=257	=257	=257
4GGG 4GG	.	4D 4B	.	4G 4d	.	8ggL	.	.
.	.	.	.	.	.	8dd	.	.
4r	.	4r	.	4r	.	8gg'	.	.
.	.	.	.	.	.	8gg'J	.	.
4GGG 4GG	.	4D 4B	.	4G 4d	.	8ggL	.	.
.	.	.	.	.	.	8dd	.	.
4r	.	4r	.	4r	.	8gg'	.	.
.	.	.	.	.	.	8gg'J	.	.
=258	=258	=258	=258	=258	=258	=258	=258	=258
!	!LO:DY:a	!	!	!	!	!	!	!
[1GGG [1GG	sf sf	8cL	.	8e-XL	sf	[1a [1ff#	sf	viio65
.	.	8A	.	8c	.	.	.	.
.	.	8c'	.	8e-'	.	.	.	.
.	.	8c'J	.	8e-'J	.	.	.	.
.	.	8cL	.	8e-L	.	.	.	.
.	.	8A	.	8c	.	.	.	.
.	.	8c'	.	8e-'	.	.	.	.
.	.	8c'J	.	8e-'J	.	.	.	.
=259	=259	=259	=259	=259	=259	=259	=259	=259
1GGG] 1GG]	.	8cL	.	8e-XL	.	1a] 1ff#]	.	.
.	.	8A	.	8c	.	.	.	.
.	.	8c'	.	8e-'	.	.	.	.
.	.	8c'J	.	8e-'J	.	.	.	.
.	.	8cL	.	8dL	.	.	.	.
.	.	8A	.	8c	.	.	.	.
.	.	8c'	.	8d'	.	.	.	.
.	.	8c'J	.	8d'J	.	.	.	.
=260	=260	=260	=260	=260	=260	=260	=260	=260
4GGG 4GG	.	4D 4B	.	4G 4d	.	8ggL	.	I
.	.	.	.	.	.	8dd	.	.
4r	.	4r	.	4r	.	8gg'	.	.
.	.	.	.	.	.	8gg'J	.	.
4GGG 4GG	.	4D 4B	.	4G 4d	.	8ggL	.	.
.	.	.	.	.	.	8dd	.	.
4r	.	4r	.	4r	.	8gg'	.	.
.	.	.	.	.	.	8gg'J	.	.
=261	=261	=261	=261	=261	=261	=261	=261	=261
4GGG 4GG	.	4D 4B	.	4G 4d	.	8ggL	.	.
.	.	.	.	.	.	8dd	.	.
4r	.	4r	.	4r	.	8gg'	.	.
.	.	.	.	.	.	8gg'J	.	.
4GGG 4GG	.	4D 4B	.	4G 4d	.	8ggL	.	I]
.	.	.	.	.	.	8dd	.	.
4r	.	4r	.	4r	.	8gg'	.	.
.	.	.	.	.	.	8gg'J	.	.
=262	=262	=262	=262	=262	=262	=262	=262	=262
!	!LO:DY:a	!	!	!	!	!	!	!
[1GG#X	sf sf	8BL	.	8dL	sf	[1fX [1ffX	sf	#viio7/ii
.	.	8G#X	.	8B	.	.	.	.
.	.	8B'	.	8d'	.	.	.	.
.	.	8B'J	.	8d'J	.	.	.	.
.	.	8BL	.	8dL	.	.	.	.
.	.	8G#	.	8B	.	.	.	.
.	.	8B'	.	8d'	.	.	.	.
.	.	8B'J	.	8d'J	.	.	.	.
=263	=263	=263	=263	=263	=263	=263	=263	=263
1GG#]	.	8BL	.	8dL	.	1f] 1ff]	.	.
.	.	8G#X	.	8B	.	.	.	.
.	.	8B'	.	8d'	.	.	.	.
.	.	8B'J	.	8d'J	.	.	.	.
.	.	8BL	.	8dL	.	.	.	.
.	.	8G#	.	8B	.	.	.	.
.	.	8B'	.	8d'	.	.	.	.
.	.	8B'J	.	8d'J	.	.	.	.
=264	=264	=264	=264	=264	=264	=264	=264	=264
4GG#X	.	4B	.	4d	.	8eeL	.	V65/ii
.	.	.	.	.	.	8b	.	.
4r	.	4r	.	4r	.	8ee'	.	.
.	.	.	.	.	.	8ee'J	.	.
4AA	.	8AL	.	8cL	.	2r	.	ii
.	.	8E	.	8A	.	.	.	.
4r	.	8A'	.	8c'	.	.	.	.
.	.	8A'J	.	8c'J	.	.	.	.
=265	=265	=265	=265	=265	=265	=265	=265	=265
4FF#	.	4A	.	4c	.	8ddL	.	V65
.	.	.	.	.	.	8a	.	.
4r	.	4r	.	4r	.	8dd'	.	.
.	.	.	.	.	.	8dd'J	.	.
4GG	.	8GL	.	8BL	.	2r	.	I
.	.	8D	.	8G	.	.	.	.
4r	.	8G'	.	8B'	.	.	.	.
.	.	8G'J	.	8B'J	.	.	.	.
=266	=266	=266	=266	=266	=266	=266	=266	=266
4GG#X	.	8BL	.	8dL	.	8eeL	.	V65/ii
.	.	8B	.	8d	.	8b	.	.
4r	.	8B	.	8d	.	8ee'	.	.
.	.	8BJ	.	8dJ	.	8ee'J	.	.
4AA	.	8AL	.	8cL	.	2r	.	ii
.	.	8E	.	8A	.	.	.	.
4r	.	8A'	.	8c'	.	.	.	.
.	.	8A'J	.	8c'J	.	.	.	.
=267	=267	=267	=267	=267	=267	=267	=267	=267
4FF#	.	8AL	.	8cL	.	8ddL	.	V65
.	.	8A	.	8c	.	8a	.	.
4r	.	8A	.	8c	.	8dd'	.	.
.	.	8AJ	.	8cJ	.	8dd'J	.	.
4GG	.	8GL	.	8BL	.	2r	.	I
.	.	8D	.	8G	.	.	.	.
4r	.	8G'	.	8B'	.	.	.	.
.	.	8G'J	.	8B'J	.	.	.	.
=268	=268	=268	=268	=268	=268	=268	=268	=268
4GG	.	4r	.	4r	.	8eeL	.	vi
.	.	.	.	.	.	8b	.	.
4r	.	4G	.	4B	.	8ee'	.	.
.	.	.	.	.	.	8ee'J	.	.
4GG	.	4r	.	4r	.	8ffXL	.	V7/IV
.	.	.	.	.	.	8b	.	.
4r	.	4B	.	4d	.	8ff'	.	.
.	.	.	.	.	.	8ff'J	.	.
=269	=269	=269	=269	=269	=269	=269	=269	=269
4FF#	.	4r	.	4r	.	8ff#L	.	iii64
.	.	.	.	.	.	8b	.	.
4r	.	4B	.	4d	.	8ff#'	.	.
.	.	.	.	.	.	8ff#'J	.	.
4FFX	.	4r	.	4r	.	8ggL	.	V2/IV
.	.	.	.	.	.	8b	.	.
4r	.	4B	.	4d	.	8gg'	.	.
.	.	.	.	.	.	8gg'J	.	.
=270	=270	=270	=270	=270	=270	=270	=270	=270
4EE	.	4r	.	4r	.	8ggL	.	IV6
.	.	.	.	.	.	8cc	.	.
4r	.	4E	.	4G 4c	.	8gg'	.	.
.	.	.	.	.	.	8gg'J	.	.
4EE-X	.	4r	.	4r	.	8ggL	.	iv6
.	.	.	.	.	.	8cc	.	.
4r	.	4E-X	.	4G 4c#X	.	8gg'	.	.It6
.	.	.	.	.	.	8gg'J	.	.
=271	=271	=271	=271	=271	=271	=271	=271	=271
4DD	.	4r	.	4r	.	8ff#L	.	V7
.	.	.	.	.	.	8cc	.	.
4r	.	4D	.	4F# 4d	.	8ff#'	.	.
.	.	.	.	.	.	8ff#'J	.	.
4DD	.	4r	.	4r	.	8aaL	.	.
.	.	.	.	.	.	8ff#	.	.
4r	.	4D	.	4F# 4A	.	8aa'	.	.
.	.	.	.	.	.	8aa'J	.	.
=272	=272	=272	=272	=272	=272	=272	=272	=272
!	!	!	!LO:DY:a	!	!	!	!	!
4DD	sf	4D 4A	sf sf	4F# 4c	.	8aaL	sf	.
.	.	.	.	.	.	8bb	.	.
4r	.	4r	.	4r	.	8ccc	.	.
.	.	.	.	.	.	8ff#J	.	.
!	!	!	!	!	!	!LO:TX:b:i:t=dim.	!	!
2r	.	2r	.	2r	.	8ggL	.	.
.	.	.	.	.	.	8aa	.	.
.	.	.	.	.	.	8cc	.	.
.	.	.	.	.	.	8ddJ	.	.
=273	=273	=273	=273	=273	=273	=273	=273	=273
1r	.	1r	.	1r	.	8eeL	.	.
.	.	.	.	.	.	8a	.	.
.	.	.	.	.	.	8b	.	.
.	.	.	.	.	.	8ccJ	.	.
.	.	.	.	.	.	8f#L	.	.
.	.	.	.	.	.	8g	.	.
.	.	.	.	.	.	8a	.	.
.	.	.	.	.	.	8cJ	.	.
=274	=274	=274	=274	=274	=274	=274	=274	=274
1r	.	1r	.	1r	.	8dL	.	.
.	.	.	.	.	.	8e	.	.
.	.	.	.	.	.	8A	.	.
.	.	.	.	.	.	8BJ	.	.
.	.	.	.	.	.	8cL	.	.
.	.	.	.	.	.	8F#	.	.
.	.	.	.	.	.	8G	.	.
.	.	.	.	.	.	8AJ	.	.
=275	=275	=275	=275	=275	=275	=275	=275	=275
1r	.	1r	.	1r	.	8DL	.	.
.	.	.	.	.	.	8E	.	.
.	.	.	.	.	.	8F#	.	.
.	.	.	.	.	.	8GJ	.	.
.	.	.	.	.	.	8AL	.	.
.	.	.	.	.	.	8F#	.	.
.	.	.	.	.	.	8G	.	.
.	.	.	.	.	.	8AJ	.	.
=276	=276	=276	=276	=276	=276	=276	=276	=276
1r	.	1r	.	1r	.	8BL	.	.
.	.	.	.	.	.	8c	.	.
.	.	.	.	.	.	8d	.	.
.	.	.	.	.	.	8eJ	.	.
.	.	.	.	.	.	8f#L	.	.
.	.	.	.	.	.	8e	.	.
.	.	.	.	.	.	8f#	.	.
.	.	.	.	.	.	8gJ	.	.
=277	=277	=277	=277	=277	=277	=277	=277	=277
!	!	!	!LO:DY:a	!	!	!	!	!
1r	.	2r	p	[1D	.	8aL	p	V
.	.	.	.	.	.	8b	.	.
.	.	.	.	.	.	8cc	.	.
.	.	.	.	.	.	8cc#XJ	.	.
.	.	8EL	p	.	.	4dd	.	.
.	.	8D	.	.	.	.	.	.
.	.	8C	.	.	.	4dd	.	V2
.	.	8AAJ	.	.	.	.	.	.
=278	=278	=278	=278	=278	=278	=278	=278	=278
2r	.	1r	.	1D_	.	8aaL	.	V
.	.	.	.	.	.	8bb	.	.
.	.	.	.	.	.	8ccc	.	.
.	.	.	.	.	.	8ccc#XJ	.	.
8EEL	p	.	.	.	.	4ddd	.	.
8DD	.	.	.	.	.	.	.	.
8CC	.	.	.	.	.	4ddd	.	V43
8AAAJ	.	.	.	.	.	.	.	.
=279	=279	=279	=279	=279	=279	=279	=279	=279
8DDL	.	1r	.	1D_	.	2r	.	V
8EE	.	.	.	.	.	.	.	.
8FFX	.	.	.	.	.	.	.	.
8FF#J	.	.	.	.	.	.	.	.
4GG	.	.	.	.	.	8dddL	.	I
.	.	.	.	.	.	8ccc	.	.
4GG	.	.	.	.	.	8bb	.	.
.	.	.	.	.	.	8ggJ	.	.
=280	=280	=280	=280	=280	=280	=280	=280	=280
1r	.	8DL	.	1D]	.	2r	.	V
.	.	8E	.	.	.	.	.	.
.	.	8FX	.	.	.	.	.	.
.	.	8F#J	.	.	.	.	.	.
.	.	4G	.	.	.	8ddL	.	I
.	.	.	.	.	.	8cc	.	.
.	.	4G	.	.	.	8b	.	.
.	.	.	.	.	.	8gJ	.	.
=281	=281	=281	=281	=281	=281	=281	=281	=281
1r	.	2r	.	[1D [1d	.	8aL	.	V
.	.	.	.	.	.	8b	.	.
.	.	.	.	.	.	8cc	.	.
.	.	.	.	.	.	8cc#XJ	.	.
.	.	8EL	.	.	.	4dd	.	.
.	.	8D	.	.	.	.	.	.
.	.	8C	.	.	.	4dd	.	V43
.	.	8AAJ	.	.	.	.	.	.
=282	=282	=282	=282	=282	=282	=282	=282	=282
2r	.	1r	.	1D_ 1d_	.	8aaL	.	V
.	.	.	.	.	.	8bb	.	.
.	.	.	.	.	.	8ccc	.	.
.	.	.	.	.	.	8ccc#XJ	.	.
8EEL	.	.	.	.	.	4ddd	.	.
8DD	.	.	.	.	.	.	.	.
8CC	.	.	.	.	.	4ddd	.	V43
8AAAJ	.	.	.	.	.	.	.	.
=283	=283	=283	=283	=283	=283	=283	=283	=283
8DDL	.	1r	.	1D_ 1d_	.	2r	.	V
8EE	.	.	.	.	.	.	.	.
8FFX	.	.	.	.	.	.	.	.
8FF#J	.	.	.	.	.	.	.	.
4GG	.	.	.	.	.	8dddL	.	I
.	.	.	.	.	.	8ccc	.	.
4GG	.	.	.	.	.	8bb	.	.
.	.	.	.	.	.	8ggJ	.	.
=284	=284	=284	=284	=284	=284	=284	=284	=284
1r	.	8DL	.	1D] 1d]	.	2r	.	V
.	.	8E	.	.	.	.	.	.
.	.	8FX	.	.	.	.	.	.
.	.	8F#J	.	.	.	.	.	.
.	.	4G	.	.	.	8ddL	.	I
.	.	.	.	.	.	8cc	.	.
.	.	4G	.	.	.	8b	.	.
.	.	.	.	.	.	8gJ	.	.
=285	=285	=285	=285	=285	=285	=285	=285	=285
2.C	.	8EL	.	2.e	.	[2ee	.	ii6
.	.	8F#	.	.	.	.	.	.
.	.	8G	.	.	.	.	.	.
.	.	8G#XJ	.	.	.	.	.	.
.	.	4A	.	.	.	8eeL]	.	.
.	.	.	.	.	.	8ff#	.	.
[4c	.	4e	.	[4a	.	8gg	.	.
.	.	.	.	.	.	8aaJ	.	.
=286	=286	=286	=286	=286	=286	=286	=286	=286
4c]	.	4f#	.	4a]	.	8ggL	.	V2
.	.	.	.	.	.	8ff#	.	.
4c	.	4f#	.	4a	.	8ee	.	.
.	.	.	.	.	.	8ddJ	.	.
4B	.	4d	.	4g	.	8ggL	.	I6
.	.	.	.	.	.	8dd	.	.
4B	.	4G	.	4g	.	8b	.	I
.	.	.	.	.	.	8gJ	.	.
=287	=287	=287	=287	=287	=287	=287	=287	=287
!LO:TX:b:i:t=cresc.	!	!LO:TX:b:i:t=cresc.	!	!LO:TX:b:i:t=cresc.	!	!LO:TX:a:i:t=cresc.	!	!
4c	.	8EL	.	8eL	.	[2ee	.	ii6
.	.	8F#	.	8f#	.	.	.	.
[2.C	.	8G	.	8g	.	.	.	.
.	.	8G#XJ	.	8g#XJ	.	.	.	.
.	.	[2A	.	[2a	.	8eeL]	.	.
.	.	.	.	.	.	8ff#	.	.
.	.	.	.	.	.	8gg	.	.
.	.	.	.	.	.	8aaJ	.	.
=288	=288	=288	=288	=288	=288	=288	=288	=288
4C]	.	8AL]	.	8aL]	.	[4.ff#	.	viio64
.	.	8F#	.	8f#	.	.	.	.
[2.D	.	8G	.	8g	.	.	.	.
.	.	8AJ	.	8aJ	.	8ff#_	.	V
.	.	[2B	.	[2b	.	8ff#L]	.	iii6
.	.	.	.	.	.	8gg	.	.
.	.	.	.	.	.	8aa	.	.
.	.	.	.	.	.	8bbJ	.	.
=289	=289	=289	=289	=289	=289	=289	=289	=289
4D]	.	8BL]	.	8bL]	.	[4.gg	.	I64
.	.	8G	.	8g	.	.	.	.
[2.E	.	8A	.	8a	.	.	.	.
.	.	8BJ	.	8bJ	.	8gg_	.	vi
.	.	[2c	.	[2cc	.	8ggL]	.	IV6
.	.	.	.	.	.	8aa	.	.
.	.	.	.	.	.	8bb	.	.
.	.	.	.	.	.	8cccJ	.	.
=290	=290	=290	=290	=290	=290	=290	=290	=290
4E]	.	8cL]	.	8ccL]	.	[4.aa	.	ii64
.	.	8A	.	8a	.	.	.	.
2.F#	.	8B	.	8b	.	.	.	.
.	.	8cJ	.	8ccJ	.	8aa_	.	viio
.	.	4d	.	2dd	.	8aaL]	.	V65
.	.	.	.	.	.	8bb	.	.
.	.	4c	.	.	.	8ccc	.	.
.	.	.	.	.	.	8dddJ	.	.
=291	=291	=291	=291	=291	=291	=291	=291	=291
4G	f	4B	f	4g 4dd	f	8dddL	f	I[I6
.	.	.	.	.	.	8ccc	.	.
4r	.	4r	.	4r	.	8bb	.	.
.	.	.	.	.	.	8ggJ	.	.
4G	.	4c	.	4g 4ee	.	8eeeL	.	IV
.	.	.	.	.	.	8ddd	.	.
4r	.	4r	.	4r	.	8ccc	.	.
.	.	.	.	.	.	8aaJ	.	.
=292	=292	=292	=292	=292	=292	=292	=292	=292
4G	.	4B	.	4g 4dd	.	8dddL	.	I6
.	.	.	.	.	.	8ccc	.	.
4r	.	4r	.	4r	.	8bb	.	.
.	.	.	.	.	.	8ggJ	.	.
4G	.	4A 4c	.	4f#	.	8ff#L	.	V43
.	.	.	.	.	.	8dd	.	.
4r	.	4r	.	4r	.	8ddd	.	.
.	.	.	.	.	.	8dddJ	.	.
=293	=293	=293	=293	=293	=293	=293	=293	=293
4G	.	4B	.	4d 4g	.	8ddL	.	I6
.	.	.	.	.	.	8cc	.	.
4r	.	4r	.	4r	.	8b	.	.
.	.	.	.	.	.	8gJ	.	.
4GG	.	4G 4c	.	4e 4g	.	8eeL	.	IV64
.	.	.	.	.	.	8dd	.	.
4r	.	4r	.	4r	.	8cc	.	.
.	.	.	.	.	.	8aJ	.	.
=294	=294	=294	=294	=294	=294	=294	=294	=294
4GG	p	4G 4B	p	4d 4g	p	8ddL	p	I]
.	.	.	.	.	.	8gg	.	.
4r	.	4r	.	4r	.	8g	.	.
.	.	.	.	.	.	8gJ	.	.
2r	.	2r	.	8dL	.	[2g	.	.
.	.	.	.	8g	.	.	.	.
.	.	.	.	8G	.	.	.	.
.	.	.	.	8GJ	.	.	.	.
=295	=295	=295	=295	=295	=295	=295	=295	=295
8FXL	.	8DL	.	8BL	.	4g_	.	IV.V2
8F	.	8D	.	8B	.	.	.	.
8E	.	8E	.	8c	.	4g]	.	I6
8EJ	.	8EJ	.	8cJ	.	.	.	.
8BBL	.	8dL	.	8fXL	.	[4g	.	V65
8BB	.	8d	.	8f	.	.	.	.
8C	.	8c	.	8e	.	4g_	.	I
8CJ	.	8cJ	.	8eJ	.	.	.	.
=296	=296	=296	=296	=296	=296	=296	=296	=296
8FXL	.	8DL	.	8BL	.	4g_	.	V2
8F	.	8D	.	8B	.	.	.	.
8E	.	8E	.	8c	.	4g]	.	I6
8EJ	.	8EJ	.	8cJ	.	.	.	.
8BBL	.	8dL	.	8fXL	.	[4g	.	V65
8BB	.	8d	.	8f	.	.	.	.
8C	.	8c	.	8e	.	4g_	.	I
8CJ	.	8cJ	.	8eJ	.	.	.	.
=297	=297	=297	=297	=297	=297	=297	=297	=297
!LO:TX:b:i:t=cresc.	!	!LO:TX:b:i:t=cresc.	!	!LO:TX:b:i:t=cresc.	!	!LO:TX:b:i:t=cresc.	!	!
8DL	.	8BL	.	8fXL	.	4g]	.	V43
8D	.	8D	.	8FX	.	.	.	.
!	!	!	!LO:DY:a	!	!	!	!	!
8BB	sf	8D	sf sf	8F	.	4a-X	sf	viio7
8BBJ	.	8DJ	.	8FJ	.	.	.	.
8GGL	.	8DL	.	8FL	.	4g	.	V7
8GG	.	8D	.	8F	.	.	.	.
8BB	.	8D	.	8F	.	4g	.	V65
8BBJ	.	8DJ	.	8FJ	.	.	.	.
=298	=298	=298	=298	=298	=298	=298	=298	=298
!	!	!	!LO:DY:a	!	!	!	!	!
4GG	p	4D	p p	4FX	.	8ddL	p	V7
.	.	.	.	.	.	8gg	.	.
4r	.	4r	.	4r	.	8g	.	.
.	.	.	.	.	.	8gJ	.	.
2r	.	2r	.	8dL	.	2g	.	.
.	.	.	.	8g	.	.	.	.
.	.	.	.	8G	.	.	.	.
.	.	.	.	8GJ	.	.	.	.
=299	=299	=299	=299	=299	=299	=299	=299	=299
8FFXL	.	8DL	.	8BL	.	[4g	.	V2
8FF	.	8D	.	8B	.	.	.	.
8EE	.	8C	.	8c	.	4g]	.	I6
8EEJ	.	8CJ	.	8cJ	.	.	.	.
8BBBL	.	8DL	.	8fXL	.	[4g	.	V65
8BBB	.	8D	.	8f	.	.	.	.
8CC	.	8C	.	8e	.	4g_	.	I
8CCJ	.	8CJ	.	8eJ	.	.	.	.
=300	=300	=300	=300	=300	=300	=300	=300	=300
8FFXL	.	8DL	.	8BL	.	4g_	.	V2
8FF	.	8D	.	8B	.	.	.	.
8EE	.	8C	.	8c	.	4g]	.	I6
8EEJ	.	8CJ	.	8cJ	.	.	.	.
8BBBL	.	8DL	.	8fXL	.	[4g	.	V65
8BBB	.	8D	.	8f	.	.	.	.
8CC	.	8C	.	8e	.	4g_	.	I
8CCJ	.	8CJ	.	8eJ	.	.	.	.
=301	=301	=301	=301	=301	=301	=301	=301	=301
!LO:TX:b:i:t=cresc.	!	!LO:TX:b:i:t=cresc.	!	!LO:TX:b:i:t=cresc.	!	!LO:TX:b:i:t=cresc.	!	!
8BBBL	.	8DL	.	8fXL	.	4g]	.	V43
8BBB	.	8D	.	8f	.	.	.	.
8BBB	.	8D	.	8f	.	4a-X	.	viio7
8BBBJ	.	8DJ	.	8fJ	.	.	.	.
8BBBL	.	8DL	.	8fL	.	4a-'	.	.
8BBB	.	8D	.	8f	.	.	.	.
8BBB	.	8D	.	8f	.	4a-'	.	.
8BBBJ	.	8DJ	.	8fJ	.	.	.	.
=302	=302	=302	=302	=302	=302	=302	=302	=302
8BBB-XL	.	8DL	.	8fXL	.	4a-X	.	.bVI.V7
8BBB-	.	8D	.	8f	.	.	.	.
8BBB-	.	8D	.	8f	.	4dd	.	.
8BBB-J	.	8DJ	.	8fJ	.	.	.	.
8BBB-L	.	8DL	.	8fL	.	4ffX	.	.
8BBB-	.	8D	.	8f	.	.	.	.
8BBB-	.	8D	.	8f	.	4aa-X	.	.
8BBB-J	.	8DJ	.	8fJ	.	.	.	.
=303	=303	=303	=303	=303	=303	=303	=303	=303
8BBB-XL	.	8E-XL	.	8gL	.	4gg	.	V(64)
8BBB-	.	8E-	.	8g	.	.	.	.
8BB-X	.	8E-	.	8g	.	4bb-X	.	.
8BB-J	.	8E-J	.	8gJ	.	.	.	.
8GGL	.	8E-L	.	8gL	.	4bb-'	.	.
8GG	.	8E-	.	8g	.	.	.	.
8EE-X	.	8E-	.	8g	.	4bb-'	.	.
8EE-J	.	8E-J	.	8gJ	.	.	.	.
=304	=304	=304	=304	=304	=304	=304	=304	=304
4BBB-X	ff	4D	ff	4fX	ff	2bb-X'	ff	V
4r	.	4r	.	4r	.	.	.	.
2r	.	2r	.	2r	.	2b-X'	.	.
=305	=305	=305	=305	=305	=305	=305	=305	=305
!	!	!	!	!	!LO:DY:a	!	!	!
1r	.	2r	.	2r	fp	[1B-X	.	V6
.	.	8r	.	8r	.	.	.	.
.	.	8EL	p	8b-XL	p	.	.	.
.	.	8D	.	8cc	.	.	.	.
.	.	8EJ	.	8b-J	.	.	.	.
=306	=306	=306	=306	=306	=306	=306	=306	=306
1r	.	8FXL	.	8a-XL	.	1B-_	.	V65
.	.	8GJ	.	8gJ	.	.	.	.
.	.	4A-X	.	4fX	.	.	.	.
.	.	8r	.	8r	.	.	.	.
.	.	8DL	.	8a-L	.	.	.	.
.	.	8C	.	8b-X	.	.	.	.
.	.	8DJ	.	8a-J	.	.	.	.
=307	=307	=307	=307	=307	=307	=307	=307	=307
2r	.	8E-XL	.	8gL	.	1B-_	.	V
.	.	8FXJ	.	8fXJ	.	.	.	.
.	.	4G	.	4e-X	.	.	.	.
8r	.	8r	.	8r	.	.	.	.
8B-XL	p	8gL	.	8eL	.	.	.	.
8c	.	8fX	.	8d	.	.	.	.
8B-J	.	8gJ	.	8eJ	.	.	.	.
=308	=308	=308	=308	=308	=308	=308	=308	=308
8A-XL	.	8a-XL	.	8fXL	.	1B-_	.	V2
8GJ	.	8b-XJ	.	8gJ	.	.	.	.
4FX	.	4cc	.	4a-X	.	.	.	.
8r	.	8r	.	8r	.	.	.	.
8A-L	.	8fXL	.	8dL	.	.	.	.
8B-X	.	8e-X	.	8c	.	.	.	.
8A-J	.	8fJ	.	8dJ	.	.	.	.
=309	=309	=309	=309	=309	=309	=309	=309	=309
8GL	.	8gL	.	8e-XL	.	2B-_	.	I6
8FXJ	.	8a-XJ	.	8fXJ	.	.	.	.
4E-X	.	4b-X	.	4g	.	.	.	.
2r	.	2r	.	2r	.	8B-L]	.	I
.	.	.	.	.	.	8b-X	.	.
.	.	.	.	.	.	8cc	.	.
.	.	.	.	.	.	8b-J	.	.
=310	=310	=310	=310	=310	=310	=310	=310	=310
2r	.	2r	.	2r	.	8a-XL	.	V43
.	.	.	.	.	.	8g	.	.
.	.	.	.	.	.	8fX	.	.
.	.	.	.	.	.	8a-J	.	.
4BB-X	.	4FX	.	4A-X	.	8ddL	.	V7
.	.	.	.	.	.	8cc	.	.
4r	.	4r	.	4r	.	8b-X	.	.
.	.	.	.	.	.	8ddJ	.	.
=311	=311	=311	=311	=311	=311	=311	=311	=311
4EE-X	.	4E-X	.	4G	.	8ee-XL	.	I
.	.	.	.	.	.	8ffX	.	.
4r	.	4r	.	4r	.	8gg	.	.
.	.	.	.	.	.	8ee-J	.	.
2r	.	8r	.	2r	.	2r	.	.
.	.	8GL	.	.	.	.	.	.
.	.	8A-X	.	.	.	.	.	.
.	.	8GJ	.	.	.	.	.	.
=312	=312	=312	=312	=312	=312	=312	=312	=312
2r	.	8FXL	.	2r	.	2r	.	i.viio6/iv
.	.	8E-X	.	.	.	.	.	.
.	.	8D	.	.	.	.	.	.
.	.	8FJ	.	.	.	.	.	.
4GG	.	8BL	.	4G 4d	.	4fX	.	V7/iv
.	.	8A	.	.	.	.	.	.
4r	.	8G	.	4r	.	4r	.	.
.	.	8BJ	.	.	.	.	.	.
=313	=313	=313	=313	=313	=313	=313	=313	=313
4CC	.	8cL	.	4G 4c	.	4e-X	.	iv
.	.	8d	.	.	.	.	.	.
2r	.	8e-X	.	4r	.	4r	.	.
.	.	8cJ	.	.	.	.	.	.
.	.	4r	.	8r	.	4r	.	.
.	.	.	.	8gL	.	.	.	.
!	!LO:DY:a	!	!	!	!LO:DY:a	!	!	!
4EE-X	f f	4C#X	.	8a	f f	4G	.	.It6
.	.	.	.	8gJ	.	.	.	.
=314	=314	=314	=314	=314	=314	=314	=314	=314
4DD	.	4D	.	8f#L	.	4F#	.	V7
.	.	.	.	8g	.	.	.	.
4r	.	4r	.	8a	.	4r	.	.
.	.	.	.	8cJ	.	.	.	.
4GG	.	4G	.	8B-XL	.	4D 4B-X	.	i
.	.	.	.	8c	.	.	.	.
4r	.	4r	.	8d	.	4r	.	.
.	.	.	.	8GJ	.	.	.	.
=315	=315	=315	=315	=315	=315	=315	=315	=315
4DD	.	4D	.	8F#L	.	4D 4A	.	V\\
.	.	.	.	8G	.	.	.	.
4r	.	4r	.	8A	.	4r	.	.
.	.	.	.	8DJ	.	.	.	.
2r	.	2r	.	2r	.	8F#L	.	V6
.	.	.	.	.	.	8G	.	.
.	.	.	.	.	.	8A	.	.
.	.	.	.	.	.	8F#J	.	.
=316	=316	=316	=316	=316	=316	=316	=316	=316
4DD	.	2r	.	2r	.	8B-XL	.	i64
.	.	.	.	.	.	8A	.	.
4r	.	.	.	.	.	8G	.	.
.	.	.	.	.	.	8B-J	.	.
2r	.	2E	.	2g	.	8c#XL	.	#viio6/V
.	.	.	.	.	.	8B-	.	.
.	.	.	.	.	.	8A	.	.
.	.	.	.	.	.	8c#J	.	.
=317	=317	=317	=317	=317	=317	=317	=317	=317
4DD	.	4F#	.	4f#	.	8dL	.	V
.	.	.	.	.	.	8e	.	.
4r	.	4r	.	4r	.	8f#	.	.
.	.	.	.	.	.	8dJ	.	.
2r	.	2r	.	2r	.	8AL	.	.
.	.	.	.	.	.	8G	.	.
.	.	.	.	.	.	8F#	.	.
.	.	.	.	.	.	8AJ	.	.
=318	=318	=318	=318	=318	=318	=318	=318	=318
4DD	.	2r	.	2r	.	8B-XL	.	i64
.	.	.	.	.	.	8A	.	.
4r	.	.	.	.	.	8G	.	.
.	.	.	.	.	.	8B-J	.	.
2r	.	2E	.	2g	.	8c#XL	.	#viio6/V
.	.	.	.	.	.	8B-	.	.
.	.	.	.	.	.	8A	.	.
.	.	.	.	.	.	8c#J	.	.
=319	=319	=319	=319	=319	=319	=319	=319	=319
!LO:TX:b:i:t=piu	!	!LO:TX:b:i:t=piu	!	!LO:TX:b:i:t=piu	!	!LO:TX:b:i:t=piu	!	!
8DDL	f	8F#L	f	8f#L	f	8dL	f	V7
8DD	.	8F#	.	8A	.	8f#	.	.
8DD	.	8F#	.	8A	.	8a	.	.
8DDJ	.	8F#J	.	8AJ	.	8f#J	.	.
8DDL	.	8F#L	.	8AL	.	8dL	.	.
8DD	.	8F#	.	8A	.	8f#	.	.
8DD	.	8F#	.	8A	.	8d	.	.
8DDJ	.	8F#J	.	8AJ	.	8AJ	.	.
=320	=320	=320	=320	=320	=320	=320	=320	=320
8DDL	.	8F#L	.	8AL	.	8DL	.	.
8DD	.	8F#	.	8A 8c	.	8a	.	.
8DD	.	8F#	.	8A 8c	.	8cc	.	.
8DDJ	.	8F#J	.	8AJ 8c	.	8aJ	.	.
8DDL	.	8F#L	.	8AL 8c	.	8f#L	.	.
8DD	.	8F#	.	8A 8c	.	8a	.	.
8DD	.	8F#	.	8A 8c	.	8f#	.	.
8DDJ	.	8F#J	.	8AJ 8c	.	8cJ	.	.
=321	=321	=321	=321	=321	=321	=321	=321	=321
8DDL	.	8F#L	.	8AL 8c	.	8DL	.	.
8DD	.	8A	.	8c 8f#	.	8cc	.	.
8DD	.	8A	.	8c 8f#	.	8ff#	.	.
8DDJ	.	8AJ	.	8cJ 8f#	.	8ccJ	.	.
8DDL	.	8AL	.	8cL 8f#	.	8aL	.	.
8DD	.	8A	.	8c 8f#	.	8cc	.	.
8EE-X	.	8A	.	8c 8f#	.	8ff#	.	viio2
8EE-J	.	8AJ	.	8cJ 8f#	.	8ccJ	.	.
=322	=322	=322	=322	=322	=322	=322	=322	=322
8DDL	.	8AL	.	8cL 8f#	.	8ccL	.	V7
8DD	.	8A 8f#	.	8c 8a	.	8ff#	.	.
8EE-X	.	8A 8f#	.	8c 8a	.	8aa	.	viio2
8EE-J	.	8AJ 8f#	.	8cJ 8a	.	8ff#J	.	.
8DDL	.	8AL 8f#	.	8cL 8a	.	8ff#L	.	V7
8DD	.	8A 8f#	.	8c 8a	.	8aa	.	.
8EE-	.	8A 8f#	.	8c 8a	.	8ccc	.	viio2
8EE-J	.	8AJ 8f#	.	8cJ 8a	.	8aaJ	.	.
=323	=323	=323	=323	=323	=323	=323	=323	=323
4DD	.	4A 4f#	.	4c 4a	.	[1ccc	f	V7\\
4r	.	4r	.	4r	.	.	.	.
2r	.	2r	.	2r	.	.	.	.
=324	=324	=324	=324	=324	=324	=324	=324	=324
1r	.	1r	.	1r	.	1ccc]	.	.
=325	=325	=325	=325	=325	=325	=325	=325	=325
4EE	.	4G	.	4B-X	.	[1ccc#X	.	#viio65/V
4r	.	4r	.	4r	.	.	.	.
2r	.	2r	.	2r	.	.	.	.
=326	=326	=326	=326	=326	=326	=326	=326	=326
1r	.	1r	.	1r	.	1ccc#]	.	.
=327	=327	=327	=327	=327	=327	=327	=327	=327
!	!	!	!LO:DY:a	!	!	!	!	!
4FF#	p	4F#	p p	4D 4A	.	[1ddd	p	V65
4r	.	4r	.	4r	.	.	.	.
2r	.	2r	.	2r	.	.	.	.
=328	=328	=328	=328	=328	=328	=328	=328	=328
1r	.	1r	.	1r	.	1ddd_	.	.
=329	=329	=329	=329	=329	=329	=329	=329	=329
1r	.	2G'	p	2r	.	1ddd_	.	#viio/ii
.	.	2G#X'	.	4r	.	.	.	.
.	.	.	.	8eeL	p	.	.	.
.	.	.	.	8ddJ	.	.	.	.
=330	=330	=330	=330	=330	=330	=330	=330	=330
1r	.	2A'	.	8ccL	.	1ddd_	.	V7
.	.	.	.	8bJ	.	.	.	.
.	.	.	.	4a	.	.	.	.
.	.	2D'	.	4r	.	.	.	.
.	.	.	.	8ddL	.	.	.	.
.	.	.	.	8ccJ	.	.	.	.
=331	=331	=331	=331	=331	=331	=331	=331	=331
1r	.	2G'	.	8bL	.	1ddd_	.	#viio/ii
.	.	.	.	8aJ	.	.	.	.
.	.	.	.	4g	.	.	.	.
.	.	2G#X'	.	4r	.	.	.	.
.	.	.	.	8eeL	.	.	.	.
.	.	.	.	8ddJ	.	.	.	.
=332	=332	=332	=332	=332	=332	=332	=332	=332
1r	.	2A'	.	8ccL	.	1ddd_	.	V7
.	.	.	.	8bJ	.	.	.	.
.	.	.	.	4a	.	.	.	.
.	.	2D'	.	4r	.	.	.	.
.	.	.	.	8ddL	.	.	.	.
.	.	.	.	8ccJ	.	.	.	.
=333	=333	=333	=333	=333	=333	=333	=333	=333
2G'	p	2B'	.	8bL	.	2.ddd]	.	#viio/ii
.	.	.	.	8aJ	.	.	.	.
.	.	.	.	4g	.	.	.	.
2G#X'	.	2B'	.	[2dd	.	.	.	.
.	.	.	.	.	.	8eeeL	.	.
.	.	.	.	.	.	8dddJ	.	.
=334	=334	=334	=334	=334	=334	=334	=334	=334
2A'	.	2c'	.	1dd_	.	8cccL	.	V43
.	.	.	.	.	.	8bbJ	.	.
.	.	.	.	.	.	4aa	.	.
2D'	.	2A'	.	.	.	4r	.	V7
.	.	.	.	.	.	8dddL	.	.
.	.	.	.	.	.	8cccJ	.	.
=335	=335	=335	=335	=335	=335	=335	=335	=335
2G'	.	2B'	.	1dd_	.	8aaL	.	V7/IV
.	.	.	.	.	.	8ggJ	.	.
.	.	.	.	.	.	4ffX	.	.
2G#X'	.	2B'	.	.	.	4r	.	#viio/ii
.	.	.	.	.	.	8dddL	.	.
.	.	.	.	.	.	8cccJ	.	.
=336	=336	=336	=336	=336	=336	=336	=336	=336
2A'	.	2c'	.	1dd]	.	8cccL	.	ii
.	.	.	.	.	.	8bbJ	.	.
.	.	.	.	.	.	4aa	.	.
2D'	.	2d'	.	.	.	8r	.	V7
.	.	.	.	.	.	8dddL	.	.
.	.	.	.	.	.	8ccc	.	.
.	.	.	.	.	.	8aaJ	.	.
=337	=337	=337	=337	=337	=337	=337	=337	=337
!LO:TX:a:i:t=cresc.	!	!LO:TX:b:i:t=cresc.	!	!LO:TX:a:i:t=cresc.	!	!LO:TX:b:i:t=cresc.	!	!
4G	.	[1d	.	2b'	.	2gg'	.	I
4r	.	.	.	.	.	.	.	.
4r	.	.	.	2b'	.	2gg#X'	.	V7/ii
8EL	.	.	.	.	.	.	.	.
8DJ	.	.	.	.	.	.	.	.
=338	=338	=338	=338	=338	=338	=338	=338	=338
8CL	.	1d_	.	2cc'	.	2aa'	.	ii6
8BBJ	.	.	.	.	.	.	.	.
4AA	.	.	.	.	.	.	.	.
4r	.	.	.	2a'	.	2ff#'	.	V7
8DL	.	.	.	.	.	.	.	.
8CJ	.	.	.	.	.	.	.	.
=339	=339	=339	=339	=339	=339	=339	=339	=339
8BBL	.	1d_	.	2b'	.	2gg'	.	I6
8AAJ	.	.	.	.	.	.	.	.
4GG	.	.	.	.	.	.	.	.
4r	.	.	.	2b'	.	2gg#X'	.	V7/ii
8EL	.	.	.	.	.	.	.	.
8DJ	.	.	.	.	.	.	.	.
=340	=340	=340	=340	=340	=340	=340	=340	=340
8CL	.	1d]	.	2cc'	.	2aa'	.	ii6
8BBJ	.	.	.	.	.	.	.	.
4AA	.	.	.	.	.	.	.	.
4r	.	.	.	2ff#'	.	2aa'	.	V7
8DL	.	.	.	.	.	.	.	.
8CJ	.	.	.	.	.	.	.	.
=341	=341	=341	=341	=341	=341	=341	=341	=341
8BBL	.	[1D	.	2gg'	.	2bb'	.	I6
8AAJ	.	.	.	.	.	.	.	.
4GG	.	.	.	.	.	.	.	.
4r	.	.	.	2gg#X'	.	2bb'	.	V7/ii
8EEL	.	.	.	.	.	.	.	.
8DDJ	.	.	.	.	.	.	.	.
=342	=342	=342	=342	=342	=342	=342	=342	=342
8CCL	.	1D_	.	2aa'	.	2ccc'	.	ii6
8BBBJ	.	.	.	.	.	.	.	.
4AAA	.	.	.	.	.	.	.	.
4r	.	.	.	2ff#'	.	2aa'	.	V7
8DDL	.	.	.	.	.	.	.	.
8CCJ	.	.	.	.	.	.	.	.
=343	=343	=343	=343	=343	=343	=343	=343	=343
8BBBL	.	1D_	.	2gg'	.	2bb'	.	I6
8AAAJ	.	.	.	.	.	.	.	.
4GGG	.	.	.	.	.	.	.	.
4r	.	.	.	2gg#X'	.	2bb'	.	V7/ii
8EEL	.	.	.	.	.	.	.	.
8DDJ	.	.	.	.	.	.	.	.
=344	=344	=344	=344	=344	=344	=344	=344	=344
8CCL	.	1D]	.	2aa'	.	2ccc'	.	ii6
8BBBJ	.	.	.	.	.	.	.	.
4AAA	.	.	.	.	.	.	.	.
4r	.	.	.	2ff#'	.	2aa'	.	V7
8DDL	.	.	.	.	.	.	.	.
8CCJ	.	.	.	.	.	.	.	.
=345	=345	=345	=345	=345	=345	=345	=345	=345
!	!LO:DY:a	!	!	!	!	!	!	!
4BBB	f f	4GG	.	4gg	f	8dddL	f	I6
.	.	.	.	.	.	8ddd	.	.
4r	.	4r	.	4r	.	8eee	.	.
.	.	.	.	.	.	8dddJ	.	.
2r	.	[2d	.	[2dd	.	8cccL	.	V7
.	.	.	.	.	.	8ccc	.	.
.	.	.	.	.	.	8ddd	.	.
.	.	.	.	.	.	8cccJ	.	.
=346	=346	=346	=346	=346	=346	=346	=346	=346
4GG	.	2d]	.	2dd]	.	8bbL	.	I
.	.	.	.	.	.	8bb	.	.
4r	.	.	.	.	.	8ccc	.	.
.	.	.	.	.	.	8bbJ	.	.
2r	.	[2G	.	[2g	.	8aaL	.	.
.	.	.	.	.	.	8aa	.	.
.	.	.	.	.	.	8bb	.	.
.	.	.	.	.	.	8aaJ	.	.
=347	=347	=347	=347	=347	=347	=347	=347	=347
4BBB	.	2G]	.	2g]	.	8ggL	.	I6
.	.	.	.	.	.	8gg	.	.
4r	.	.	.	.	.	8aa	.	.
.	.	.	.	.	.	8ggJ	.	.
2r	.	[2D	.	[2d	.	8ff#L	.	V
.	.	.	.	.	.	8ff#	.	.
.	.	.	.	.	.	8gg	.	.
.	.	.	.	.	.	8ff#J	.	.
=348	=348	=348	=348	=348	=348	=348	=348	=348
4BBB	.	2D]	.	2d]	.	8eeL	.	iii
.	.	.	.	.	.	8ee	.	.
4r	.	.	.	.	.	8ff#	.	.
.	.	.	.	.	.	8eeJ	.	.
2r	.	[2GG	.	[2G	.	8dd#XL	.	I+
.	.	.	.	.	.	8dd#	.	.
.	.	.	.	.	.	8ee	.	.
.	.	.	.	.	.	8dd#J	.	.
=349	=349	=349	=349	=349	=349	=349	=349	=349
4CC	.	2GG]	.	2G]	.	8eeL	.	IV
.	.	.	.	.	.	8ee	.	.
4r	.	.	.	.	.	8ff#	.	.
.	.	.	.	.	.	8eeJ	.	.
2r	.	[2E	sf	[2e	sf	8dd#XL	sf	IV(#2)
.	.	.	.	.	.	8dd#	.	.
.	.	.	.	.	.	8ee	.	.
.	.	.	.	.	.	8dd#J	.	.
=350	=350	=350	=350	=350	=350	=350	=350	=350
4CC	.	2E]	.	2e]	.	8eeL	.	IV
.	.	.	.	.	.	8ee	.	.
4r	.	.	.	.	.	8ff#	.	.
.	.	.	.	.	.	8eeJ	.	.
!	!	!	!LO:DY:a	!	!	!	!	!
2r	.	[2G	sf sf	[2A	.	8aL	.	ii65
.	.	.	.	.	.	8a	sf	.
.	.	.	.	.	.	8b	.	.
.	.	.	.	.	.	8aJ	.	.
=351	=351	=351	=351	=351	=351	=351	=351	=351
4DD	.	2G]	.	2A]	.	8ddL	.	V(4)
.	.	.	.	.	.	8dd	.	.
4r	.	.	.	.	.	8ee	.	.
.	.	.	.	.	.	8ddJ	.	.
!	!	!	!LO:DY:a	!	!LO:DY:a	!	!	!
2r	.	[2G	sf sf	2B	sf	8gL	.	I
.	.	.	.	.	.	8g	.	.
.	.	.	.	.	.	8a	.	.
.	.	.	.	.	.	8gJ	.	.
=352	=352	=352	=352	=352	=352	=352	=352	=352
4DD	.	2G]	.	1c	.	8aL	.	V7(4)
.	.	.	.	.	.	8a	.	.
4r	.	.	.	.	.	8b	.	.
.	.	.	.	.	.	8aJ	.	.
2r	.	2F#	.	.	.	8dL	.	V7
.	.	.	.	.	.	8d	.	.
.	.	.	.	.	.	8e	.	.
.	.	.	.	.	.	8dJ	.	.
=353	=353	=353	=353	=353	=353	=353	=353	=353
4BBB	p	8dL	p	1r	.	8ddL	p	I6
.	.	8d	.	.	.	8dd	.	.
4r	.	8e	.	.	.	8ee	.	.
.	.	8dJ	.	.	.	8ddJ	.	.
2r	.	8cL	.	.	.	8ccL	.	.
.	.	8c	.	.	.	8cc	.	.
.	.	8d	.	.	.	8dd	.	.
.	.	8cJ	.	.	.	8ccJ	.	.
=354	=354	=354	=354	=354	=354	=354	=354	=354
4GGG	.	8BL	.	2dd	p	8bL	.	I
.	.	8B	.	.	.	8b	.	.
4r	.	8c	.	.	.	8cc	.	.
.	.	8BJ	.	.	.	8bJ	.	.
2r	.	8AL	.	2cc	.	8aL	.	viio6
.	.	8A	.	.	.	8a	.	.
.	.	8B	.	.	.	8b	.	.
.	.	8AJ	.	.	.	8aJ	.	.
=355	=355	=355	=355	=355	=355	=355	=355	=355
4GGG	.	8GL	.	2b	.	8gL	.	I
.	.	8G	.	.	.	8g	.	.
4r	.	8A	.	.	.	8a	.	.
.	.	8GJ	.	.	.	8gJ	.	.
2r	.	8F#L	.	2a	.	8f#L	.	viio
.	.	8F#	.	.	.	8f#	.	.
.	.	8G	.	.	.	8g	.	.
.	.	8F#J	.	.	.	8f#J	.	.
=356	=356	=356	=356	=356	=356	=356	=356	=356
4BBB	.	8EL	.	2g	.	8eL	.	vi64
.	.	8E	.	.	.	8e	.	.
4r	.	8F#	.	.	.	8f#	.	.
.	.	8EJ	.	.	.	8eJ	.	.
2r	.	8D#XL	.	2f#	.	8d#XL	.	V/vi
.	.	8D#	.	.	.	8d#	.	.
.	.	8E	.	.	.	8e	.	.
.	.	8D#J	.	.	.	8d#J	.	.
=357	=357	=357	=357	=357	=357	=357	=357	=357
4CC	.	8EL	.	2e	.	8eL	.	IV
.	.	8E	.	.	.	8e	.	.
4r	.	8F#	.	.	.	8f#	.	.
.	.	8EJ	.	.	.	8eJ	.	.
2r	.	8D#XL	sfp	[2a	sfp	8d#XL	sfp	.
.	.	8D#	.	.	.	8d#	.	.
.	.	8E	.	.	.	8e	.	.
.	.	8D#J	.	.	.	8d#J	.	.
=358	=358	=358	=358	=358	=358	=358	=358	=358
4CC	.	8EL	.	2a]	.	8eL	.	ii6
.	.	8E	.	.	.	8e	.	.
4r	.	8F#	.	.	.	8f#	.	.
.	.	8EJ	.	.	.	8eJ	.	.
!	!LO:DY:a	!	!	!	!LO:DY:a	!	!	!
2r	sfp	8AAL	.	2cc	sfp sfp	8AL	.	.
.	.	8AA	.	.	.	8A	.	.
.	.	8BB	.	.	.	8B	.	.
.	.	8AAJ	.	.	.	8AJ	.	.
=359	=359	=359	=359	=359	=359	=359	=359	=359
4DD	.	8DL	.	2b	.	8dL	.	V(64)
.	.	8D	.	.	.	8d	.	.
4r	.	8E	.	.	.	8e	.	.
.	.	8DJ	.	.	.	8dJ	sfp	.
!	!LO:DY:a	!	!	!	!	!	!	!
2r	sfp	8GGL	.	2dd	sfp	8GL	.	.
.	.	8GG	.	.	.	8G	.	.
.	.	8AA	.	.	.	8A	.	.
.	.	8GGJ	.	.	.	8GJ	.	.
=360	=360	=360	=360	=360	=360	=360	=360	=360
4DD	.	8AAL	.	2cc	.	8AL	.	V
.	.	8AA	.	.	.	8A	.	.
4r	.	8BB	.	.	.	8B	.	.
.	.	8AAJ	.	.	.	8AJ	.	.
2r	.	8CL	.	2a	.	8DL	.	V2
.	.	8C	.	.	.	8D	.	.
.	.	8C	.	.	.	8E	.	.
.	.	8CJ	.	.	.	8DJ	.	.
=361	=361	=361	=361	=361	=361	=361	=361	=361
4GG	.	4BB	.	4b	.	8GL	.	I[I6
.	.	.	.	.	.	8G	.	.
4r	.	4r	.	4r	.	8A	.	.
.	.	.	.	.	.	8GJ	.	.
2r	.	2r	.	2b^	.	8FXL	.	V2/IV
.	.	.	.	.	.	8F	.	.
.	.	.	.	.	.	8G	.	.
.	.	.	.	.	.	8FJ	.	.
=362	=362	=362	=362	=362	=362	=362	=362	=362
4GG	.	2r	.	4cc	.	8EL	.	IV6
.	.	.	.	.	.	8E	.	.
4r	.	.	.	4r	.	8D	.	.
.	.	.	.	.	.	8EJ	.	.
2r	.	2A	.	2cc^	.	8F#L	.	viio
.	.	.	.	.	.	8F#	.	.
.	.	.	.	.	.	8E	.	.
.	.	.	.	.	.	8F#J	.	.
=363	=363	=363	=363	=363	=363	=363	=363	=363
4GG	.	4D	.	4b	.	8GL	.	I64
.	.	.	.	.	.	8G	.	.
4r	.	4r	.	4r	.	8A	.	.
.	.	.	.	.	.	8GJ	.	.
2r	.	2r	.	2b^	.	8FXL	.	V2/IV
.	.	.	.	.	.	8F	.	.
.	.	.	.	.	.	8G	.	.
.	.	.	.	.	.	8FJ	.	.
=364	=364	=364	=364	=364	=364	=364	=364	=364
4GG	.	2r	.	4cc	.	8EL	.	IV6
.	.	.	.	.	.	8E	.	.
4r	.	.	.	4r	.	8D	.	.
.	.	.	.	.	.	8EJ	.	.
2r	.	2A	.	2cc^	.	8F#L	.	viio
.	.	.	.	.	.	8F#	.	.
.	.	.	.	.	.	8E	.	.
.	.	.	.	.	.	8F#J	.	.
=365	=365	=365	=365	=365	=365	=365	=365	=365
4GG	.	4D	.	4b	.	8GL	.	I]
.	.	.	.	.	.	8G	.	.
4r	.	4r	.	4r	.	8A	.	.
.	.	.	.	.	.	8GJ	.	.
2r	.	2r	.	[2dd	sfp	8FXL	.	V2/IV
.	.	.	.	.	.	8F	.	.
.	.	.	.	.	.	8G	.	.
.	.	.	.	.	.	8FJ	.	.
=366	=366	=366	=366	=366	=366	=366	=366	=366
4EE	.	2r	.	2dd]	.	8EL	.	V7/ii
.	.	.	.	.	.	8E	.	.
4r	.	.	.	.	.	8FX	.	.
.	.	.	.	.	.	8EJ	.	.
2r	.	[2e	.	2b	.	8G#XL	.	V6/ii
.	.	.	.	.	.	8G#	.	.
.	.	.	.	.	.	8A	.	.
.	.	.	.	.	.	8G#J	.	.
=367	=367	=367	=367	=367	=367	=367	=367	=367
4AA	.	4e]	.	4cc	.	8AL	.	ii
.	.	.	.	.	.	8A	.	.
4r	.	4r	.	4r	.	8B	.	.
.	.	.	.	.	.	8AJ	.	.
2r	.	2r	.	[2cc	sfp	8E-XL	.	iv6
.	.	.	.	.	.	8E-	.	.
.	.	.	.	.	.	8FX	.	.
.	.	.	.	.	.	8E-J	.	.
=368	=368	=368	=368	=368	=368	=368	=368	=368
4DD	.	2r	.	2cc]	.	8DL	.	V7
.	.	.	.	.	.	8D	.	.
4r	.	.	.	.	.	8E-X	.	.
.	.	.	.	.	.	8DJ	.	.
2r	.	[2d	.	2a	.	8F#L	.	.
.	.	.	.	.	.	8F#	.	.
.	.	.	.	.	.	8G	.	.
.	.	.	.	.	.	8F#J	.	.
=369	=369	=369	=369	=369	=369	=369	=369	=369
4GG	.	4d]	.	4b	.	8GL	.	I\\
.	.	.	.	.	.	8G	.	.
4r	.	4r	.	4r	.	8A	.	.
.	.	.	.	.	.	8GJ	.	.
2r	.	[2B	sfp	[2dd	sfp	8FXL	.	iiio64
.	.	.	.	.	.	8F	.	.
.	.	.	.	.	.	8G	.	.
.	.	.	.	.	.	8FJ	.	.
=370	=370	=370	=370	=370	=370	=370	=370	=370
4EE	.	2B]	.	2dd]	.	8EL	.	V7/ii
.	.	.	.	.	.	8E	.	.
4r	.	.	.	.	.	8FX	.	.
.	.	.	.	.	.	8EJ	.	.
2r	.	[2E	.	2b	.	8G#XL	.	.
.	.	.	.	.	.	8G#	.	.
.	.	.	.	.	.	8A	.	.
.	.	.	.	.	.	8G#J	.	.
=371	=371	=371	=371	=371	=371	=371	=371	=371
4AA	.	4E]	.	4cc	.	8AL	.	ii
.	.	.	.	.	.	8A	.	.
4r	.	4r	.	4r	.	8B	.	.
.	.	.	.	.	.	8AJ	.	.
2r	.	[2A	sfp	[2cc	sfp	8E-XL	.	iio64
.	.	.	.	.	.	8E-	.	.
.	.	.	.	.	.	8FX	.	.
.	.	.	.	.	.	8E-J	.	.
=372	=372	=372	=372	=372	=372	=372	=372	=372
4DD	.	2A]	.	2cc]	.	8DL	.	V7
.	.	.	.	.	.	8D	.	.
4r	.	.	.	.	.	8E-X	.	.
.	.	.	.	.	.	8DJ	.	.
2r	.	[2D	.	2a	.	8F#L	.	.
.	.	.	.	.	.	8F#	.	.
.	.	.	.	.	.	8G	.	.
.	.	.	.	.	.	8F#J	.	.
=373	=373	=373	=373	=373	=373	=373	=373	=373
!	!	!	!	!LO:TX:b:i:t=cresc.	!	!LO:TX:b:i:t=cresc.	!	!
4GG	.	4D]	.	[1b	.	8GL	.	I\\
.	.	.	.	.	.	8G	.	.
4r	.	4r	.	.	.	8F#	.	.
.	.	.	.	.	.	8GJ	.	.
2r	.	2r	.	.	.	8AL	.	.
.	.	.	.	.	.	8A	.	.
.	.	.	.	.	.	8G	.	.
.	.	.	.	.	.	8AJ	.	.
=374	=374	=374	=374	=374	=374	=374	=374	=374
1r	.	1r	.	1b]	.	8BL	.	.
.	.	.	.	.	.	8B	.	.
.	.	.	.	.	.	8A	.	.
.	.	.	.	.	.	8BJ	.	.
.	.	.	.	.	.	8cL	.	.
.	.	.	.	.	.	8c	.	.
.	.	.	.	.	.	8B	.	.
.	.	.	.	.	.	8cJ	.	.
=375	=375	=375	=375	=375	=375	=375	=375	=375
!LO:TX:a:i:t=cresc.	!	!LO:TX:a:i:t=cresc.	!	!	!	!	!	!
[1D	.	[1D [1c	.	[1a	.	8dL	.	V7
.	.	.	.	.	.	8d	.	.
.	.	.	.	.	.	8c	.	.
.	.	.	.	.	.	8dJ	.	.
.	.	.	.	.	.	8eL	.	.
.	.	.	.	.	.	8e	.	.
.	.	.	.	.	.	8d	.	.
.	.	.	.	.	.	8eJ	.	.
=376	=376	=376	=376	=376	=376	=376	=376	=376
1D]	.	1D] 1c]	.	1a]	.	8fXL	.	.
.	.	.	.	.	.	8f	.	.
.	.	.	.	.	.	8e	.	.
.	.	.	.	.	.	8fJ	.	.
.	.	.	.	.	.	8f#L	.	.
.	.	.	.	.	.	8f#	.	.
.	.	.	.	.	.	8e	.	.
.	.	.	.	.	.	8f#J	.	.
=377	=377	=377	=377	=377	=377	=377	=377	=377
4G	.	4D 4B	.	1g	.	8gL	.	I
.	.	.	.	.	.	8g	.	.
4r	.	4r	.	.	.	8f#	.	.
.	.	.	.	.	.	8gJ	.	.
2r	.	2r	.	.	.	8aL	.	.
.	.	.	.	.	.	8a	.	.
.	.	.	.	.	.	8g	.	.
.	.	.	.	.	.	8aJ	.	.
=378	=378	=378	=378	=378	=378	=378	=378	=378
1r	.	1r	.	1d	.	8bL	.	.
.	.	.	.	.	.	8b	.	.
.	.	.	.	.	.	8a	.	.
.	.	.	.	.	.	8bJ	.	.
.	.	.	.	.	.	8ccL	.	.
.	.	.	.	.	.	8cc	.	.
.	.	.	.	.	.	8b	.	.
.	.	.	.	.	.	8ccJ	.	.
=379	=379	=379	=379	=379	=379	=379	=379	=379
[1DD	.	[1AA	.	[1D [1c	.	8ddL	.	V7
.	.	.	.	.	.	8dd	.	.
.	.	.	.	.	.	8cc	.	.
.	.	.	.	.	.	8ddJ	.	.
.	.	.	.	.	.	8eeL	.	.
.	.	.	.	.	.	8ee	.	.
.	.	.	.	.	.	8dd	.	.
.	.	.	.	.	.	8eeJ	.	.
=380	=380	=380	=380	=380	=380	=380	=380	=380
1DD]	.	1AA]	.	1D] 1c]	.	8ffXL	.	.
.	.	.	.	.	.	8ff	.	.
.	.	.	.	.	.	8ee	.	.
.	.	.	.	.	.	8ffJ	.	.
.	.	.	.	.	.	8ff#L	.	.
.	.	.	.	.	.	8ff#	.	.
.	.	.	.	.	.	8ee	.	.
.	.	.	.	.	.	8ff#J	.	.
=381	=381	=381	=381	=381	=381	=381	=381	=381
!	!LO:DY:a	!	!LO:DY:a	!	!	!	!	!
4GG	ff ff	4GG	ff	8DL 8B	.	8ggL	ff	I
.	.	.	.	8g	.	8gg	.	.
4r	.	4r	.	8f#	.	8ff#	.	.
.	.	.	.	8gJ	.	8ggJ	.	.
8GGL	.	8GL	.	8gL	.	8ggL	.	.
8GG	.	8G	.	8g	.	8gg	.	.
8AA	.	8A	.	8f#	.	8ff#	.	.
8GGJ	.	8GJ	.	8gJ	.	8ggJ	.	.
=382	=382	=382	=382	=382	=382	=382	=382	=382
8FF#L	.	8F#L	.	8aL	.	8aaL	.	V6
8FF#	.	8F#	.	8a	.	8aa	.	.
8GG	.	8G	.	8g	.	8gg	.	.
8FF#J	.	8F#J	.	8aJ	.	8aaJ	.	.
8EEL	.	8EL	.	8bL	.	8bbL	.	vi
8EE	.	8E	.	8b	.	8bb	.	.
8FF#	.	8F#	.	8a	.	8aa	.	.
8EEJ	.	8EJ	.	8bJ	.	8bbJ	.	.
=383	=383	=383	=383	=383	=383	=383	=383	=383
8DDL	.	8DL	.	8ccL	.	8cccL	.	V7
8DD	.	8D	.	8cc	.	8ccc	.	.
8EE	.	8E	.	8b	.	8bb	.	.
8DDJ	.	8DJ	.	8ccJ	.	8cccJ	.	.
8CCL	.	8CL	.	8ddL	.	8dddL	.	V2
8CC	.	8C	.	8dd	.	8ddd	.	.
8DD	.	8D	.	8cc	.	8ccc	.	.
8CCJ	.	8CJ	.	8ddJ	.	8dddJ	.	.
=384	=384	=384	=384	=384	=384	=384	=384	=384
8BBBL	.	8BBL	.	8eeL	.	8eeeL	.	I6(6)
8BBB	.	8BB	.	8ee	.	8eee	.	.
8CC	.	8C	.	8dd	.	8ddd	.	I6
8BBBJ	.	8BBJ	.	8eeJ	.	8eeeJ	.	.
8AAAL	.	8AAL	.	8ff#L	.	8fff#L	.	V64
8AAA	.	8AA	.	8ff#	.	8fff#	.	.
8BBB	.	8BB	.	8ee	.	8eee	.	.
8AAAJ	.	8AAJ	.	8ff#J	.	8fff#J	.	.
=385	=385	=385	=385	=385	=385	=385	=385	=385
4GGG	.	4GG	.	4gg	.	4ggg	.	I
4r	.	4r	.	4r	.	4r	.	.
2r	.	2r	.	2r	.	2r	.	.
=386	=386	=386	=386	=386	=386	=386	=386	=386
!	!	!	!LO:DY:a	!	!LO:DY:a	!	!	!
4FFX	ff	4FX	ff ff	4FX	ff	4FX	.	@none
4r	.	4r	.	4r	.	4r	.	.
2r	.	2r	.	2r	.	2r	.	.
=387	=387	=387	=387	=387	=387	=387	=387	=387
2.EE;	.	2.E;	.	2.E;	.	2.E;	.	V/ii
8EEL	ff	8EL	ff	8eL	ff	8eeL	ff	.
8DDJ	.	8DJ	.	8dJ	.	8ddJ	.	.
=388	=388	=388	=388	=388	=388	=388	=388	=388
8CCL	.	8CL	.	8cL	.	8ccL	.	ii
8BBBJ	.	8BBJ	.	8BJ	.	8bJ	.	.
4AAA'	.	4AA'	.	4A'	.	4a'	.	.
2r;	.	2r;	.	2r;	.	2r;	.	.
=389	=389	=389	=389	=389	=389	=389	=389	=389
1r	.	1r	.	1r	.	1c	p	@none
=390	=390	=390	=390	=390	=390	=390	=390	=390
1r	.	1r	.	1r	.	1c#X	.	.
=391	=391	=391	=391	=391	=391	=391	=391	=391
1r	.	1r	.	1d	p	8dL	.	V
.	.	.	.	.	.	8d	.	.
.	.	.	.	.	.	8e	.	.
.	.	.	.	.	.	8dJ	.	.
.	.	.	.	.	.	8cL	.	V2
.	.	.	.	.	.	8c	.	.
.	.	.	.	.	.	8d	.	.
.	.	.	.	.	.	8cJ	.	.
=392	=392	=392	=392	=392	=392	=392	=392	=392
1r	.	1r	.	1f#	.	8BL	.	iii
.	.	.	.	.	.	8B	.	.
.	.	.	.	.	.	8c	.	.
.	.	.	.	.	.	8BJ	.	.
.	.	.	.	.	.	8AL	.	V64
.	.	.	.	.	.	8A	.	.
.	.	.	.	.	.	8B	.	.
.	.	.	.	.	.	8AJ	.	.
=393	=393	=393	=393	=393	=393	=393	=393	=393
1r	.	1r	.	1a	.	8GL	.	ii2
.	.	.	.	.	.	8G	.	.
.	.	.	.	.	.	8A	.	.
.	.	.	.	.	.	8GJ	.	.
.	.	.	.	.	.	8F#L	.	V6
.	.	.	.	.	.	8F#	.	.
.	.	.	.	.	.	8G	.	.
.	.	.	.	.	.	8F#J	.	.
=394	=394	=394	=394	=394	=394	=394	=394	=394
2r	.	2r	.	1a#X	.	8EL	.	@none
.	.	.	.	.	.	8E	.	.
.	.	.	.	.	.	8F#	.	.
.	.	.	.	.	.	8EJ	.	.
2DD	p	4F#	p	.	.	8DL	.	V
.	.	.	.	.	.	8D	.	.
.	.	[4d	.	.	.	8E	.	.
.	.	.	.	.	.	8DJ	.	.
=395	=395	=395	=395	=395	=395	=395	=395	=395
4GGG	.	4d]	.	4b	.	8GL	.	I
.	.	.	.	.	.	8G	.	.
4r	.	4r	.	4r	.	8A	.	.
.	.	.	.	.	.	8GJ	.	.
2r	.	8dL	.	2b	.	8FXL	.	viio6/IV
.	.	8d	.	.	.	8F	.	.
.	.	8e	.	.	.	8G	.	.
.	.	8dJ	.	.	.	8FJ	.	.
=396	=396	=396	=396	=396	=396	=396	=396	=396
4GG	.	4c	.	4cc	.	8EL	.	IV64
.	.	.	.	.	.	8E	.	.
4r	.	4r	.	4r	.	8D	.	.
.	.	.	.	.	.	8EJ	.	.
2r	.	8AL	.	2cc	.	8F#L	.	viio
.	.	8A	.	.	.	8F#	.	.
.	.	8G	.	.	.	8E	.	.
.	.	8AJ	.	.	.	8F#J	.	.
=397	=397	=397	=397	=397	=397	=397	=397	=397
4GG	.	4B	.	4b	.	8GL	.	I
.	.	.	.	.	.	8G	.	.
4r	.	4r	.	4r	.	8A	.	.
.	.	.	.	.	.	8GJ	.	.
2r	.	8dL	.	2g 2b	.	8FXL	.	V2/IV
.	.	8d	.	.	.	8F	.	.
.	.	8e	.	.	.	8G	.	.
.	.	8dJ	.	.	.	8FJ	.	.
=398	=398	=398	=398	=398	=398	=398	=398	=398
4GG	.	4c	.	4g 4cc	.	8EL	.	IV64
.	.	.	.	.	.	8E	.	.
4r	.	4r	.	4r	.	8D	.	.
.	.	.	.	.	.	8EJ	.	.
2r	.	8AL	.	2a 2cc	.	8F#L	.	viio
.	.	8A	.	.	.	8F#	.	.
.	.	8G	.	.	.	8E	.	.
.	.	8AJ	.	.	.	8F#J	.	.
=399	=399	=399	=399	=399	=399	=399	=399	=399
4GG	.	4D	.	4b	.	8GL	.	I
.	.	.	.	.	.	8G	.	.
4r	.	4r	.	4r	.	8A	.	.
.	.	.	.	.	.	8GJ	.	.
2r	.	8AL	.	[2dd	sfp	8FXL	.	v6
.	.	8A	.	.	.	8F	.	.
.	.	8B	.	.	.	8G	.	.
.	.	8AJ	.	.	.	8FJ	.	.
=400	=400	=400	=400	=400	=400	=400	=400	=400
4EE	.	4G#X	.	2dd]	.	8EL	.	V7/ii
.	.	.	.	.	.	8E	.	.
4r	.	4r	.	.	.	8FX	.	.
.	.	.	.	.	.	8EJ	.	.
2r	.	[2e	.	2b	.	8G#XL	.	V65/ii
.	.	.	.	.	.	8G#	.	.
.	.	.	.	.	.	8A	.	.
.	.	.	.	.	.	8G#J	.	.
=401	=401	=401	=401	=401	=401	=401	=401	=401
4AA	.	4e]	.	4cc	.	8AL	.	ii
.	.	.	.	.	.	8A	.	.
4r	.	4r	.	4r	.	8B	.	.
.	.	.	.	.	.	8AJ	.	.
2r	.	8GL	.	[2cc	sfp	8E-XL	.	iv6
.	.	8G	.	.	.	8E-	.	.
.	.	8A	.	.	.	8FX	.	.
.	.	8GJ	.	.	.	8E-J	.	.
=402	=402	=402	=402	=402	=402	=402	=402	=402
4DD	.	4F#	.	2cc]	.	8DL	.	V7
.	.	.	.	.	.	8D	.	.
4r	.	4r	.	.	.	8E-X	.	.
.	.	.	.	.	.	8DJ	.	.
!	!	!LO:TX:b:i:t=cresc.	!	!	!	!	!	!
2r	.	[2d	.	2a	.	8F#L	.	.
.	.	.	.	.	.	8F#	.	.
.	.	.	.	.	.	8G	.	.
.	.	.	.	.	.	8F#J	.	.
=403	=403	=403	=403	=403	=403	=403	=403	=403
!LO:TX:a:i:t=cresc.	!	!	!	!LO:TX:a:i:t=cresc.	!	!LO:TX:b:i:t=cresc.	!	!
4GG	.	4d]	.	4b	.	8GL	.	I\\
.	.	.	.	.	.	8G	.	.
4GG	.	4r	.	2dd	.	8A	.	.
.	.	.	.	.	.	8GJ	.	.
4r	.	8AL	.	.	.	8FXL	.	.
.	.	8A	.	.	.	8F	.	.
4GG	.	8B	.	[4dd	.	8G	.	V7/IV
.	.	8AJ	.	.	.	8FJ	.	.
=404	=404	=404	=404	=404	=404	=404	=404	=404
4EE	.	4G#X	.	4dd]	.	8EL	.	V7/ii
.	.	.	.	.	.	8E	.	.
4EE	.	4r	.	4b	.	8FX	.	.
.	.	.	.	.	.	8EJ	.	.
4r	.	8eL	.	4.b	.	8G#XL	.	.
.	.	8e	.	.	.	8G#	.	.
4EE	.	8e	.	.	.	8A	.	.
.	.	8eJ	.	16aLL	.	8G#J	.	.
.	.	.	.	16bJJ	.	.	.	.
=405	=405	=405	=405	=405	=405	=405	=405	=405
4AA	.	4e	.	4cc	.	8AL	.	ii
.	.	.	.	.	.	8A	.	.
4AA	.	4r	.	2cc	.	8B	.	.
.	.	.	.	.	.	8AJ	.	.
4r	.	8GL	.	.	.	8E-XL	.	ii%7
.	.	8G	.	.	.	8E-	.	.
4AA	.	8A	.	[4cc	.	8FX	.	.
.	.	8GJ	.	.	.	8E-J	.	.
=406	=406	=406	=406	=406	=406	=406	=406	=406
4DD	.	4F#	.	4cc]	.	8DL	.	V7
.	.	.	.	.	.	8D	.	.
4DD	.	4r	.	4a	.	8E-X	.	.
.	.	.	.	.	.	8DJ	.	.
4r	.	8dL	.	2a	.	8F#L	.	.
.	.	8d	.	.	.	8F#	.	.
4DD	.	8d	.	.	.	8G	.	.
.	.	8dJ	.	.	.	8F#J	.	.
.	.	.	.	16qqg/LL	.	.	.	.
.	.	.	.	16qqa/JJ	.	.	.	.
=407	=407	=407	=407	=407	=407	=407	=407	=407
8GGL	.	8BL	.	8b'L	.	8GL	.	I\\
8GG	.	8B	.	8dd	.	8G	.	.
8AA	.	8c	.	8cc#X	.	8A	.	.
8GGJ	.	8BJ	.	8ddJ	.	8GJ	.	.
8FFXL	.	8AL	.	8eeL	.	8FXL	.	v6
8FF	.	8A	.	8dd	.	8F	.	.
8GG	.	8B	.	8cc#	.	8G	.	.
8FFJ	.	8AJ	.	8ddJ	.	8FJ	.	.
=408	=408	=408	=408	=408	=408	=408	=408	=408
8EEL	.	8G#XL	.	8r	.	8EL	.	V7/ii
8EE	.	8G#	.	8bL	.	8E	.	.
8FFX	.	8A	.	8a	.	8FX	.	.
8EEJ	.	8G#J	.	8bJ	.	8EJ	.	.
8GG#XL	.	8BL	.	8ccL	.	8G#XL	.	V65/ii
8GG#	.	8B	.	8b	.	8G#	.	.
8AA	.	8c	.	8a	.	8A	.	.
8GG#J	.	8BJ	.	8bJ	.	8G#J	.	.
=409	=409	=409	=409	=409	=409	=409	=409	=409
8AAL	.	8cL	.	8r	.	8AL	.	ii
8AA	.	8c	.	8ccL	.	8A	.	.
8BB	.	8d	.	8b	.	8B	.	.
8AAJ	.	8cJ	.	8ccJ	.	8AJ	.	.
8EE-XL	.	8GL	.	8ddL	.	8E-XL	.	iv6
8EE-	.	8G	.	8cc	.	8E-	.	.
8FFX	.	8A	.	8b	.	8E-J	.	.
8EE-J	.	8GJ	.	8ccJ	.	8r	.	.
=410	=410	=410	=410	=410	=410	=410	=410	=410
8DDL	.	8F#L	.	8r	.	8DL	.	V7
8DD	.	8F#	.	8aL	.	8D	.	.
8EE-X	.	8G	.	8g	.	8E-X	.	.
8DDJ	.	8F#J	.	8aJ	.	8DJ	.	.
8DDL	.	8cL	.	8bL	.	8F#L	.	.
8DD	.	8c	.	8a	.	8F#	.	.
8DD	.	8B	.	8g	.	8G	.	.
8DDJ	.	8cJ	.	8aJ	.	8F#J	.	.
=411	=411	=411	=411	=411	=411	=411	=411	=411
!	!LO:DY:a	!	!LO:DY:a	!	!LO:DY:a	!	!	!
8DDL	f f	8BL	f	8gL	f	8GL	.	V(64)
8DD	.	8G	.	8b	.	8G	.	.
8DD	.	8G	.	8b	.	8F#	.	.
8DDJ	.	8GJ	.	8bJ	.	8GJ	.	.
8DDL	.	8GL	.	8bL	.	8AL	.	.
8DD	.	8G	.	8b	.	8A	.	.
8DD	.	8G	.	8b	.	8G	.	.
8DDJ	.	8GJ	.	8bJ	.	8AJ	.	.
=412	=412	=412	=412	=412	=412	=412	=412	=412
8DDL	.	8GL	.	8bL	.	8BL	.	.
8DD	.	8G	.	8b	.	8B	.	.
8DD	.	8G	.	8b	.	8A	.	.
8DDJ	.	8GJ	.	8bJ	.	8BJ	.	.
8DDL	.	8GL	.	8bL	.	8cL	.	.
8DD	.	8G	.	8b	.	8c	.	.
8DD	.	8G	.	8b	.	8B	.	.
8DDJ	.	8GJ	.	8bJ	.	8cJ	.	.
=413	=413	=413	=413	=413	=413	=413	=413	=413
8DDL	.	8AL	.	8ccL	.	8dL	.	V7
8DD	.	8A	.	8cc	.	8d	.	.
8DD	.	8A	.	8cc	.	8c	.	.
8DDJ	.	8AJ	.	8ccJ	.	8dJ	.	.
8DDL	.	8AL	.	8ccL	.	8eL	.	.
8DD	.	8A	.	8cc	.	8e	.	.
8DD	.	8A	.	8cc	.	8d	.	.
8DDJ	.	8AJ	.	8ccJ	.	8eJ	.	.
=414	=414	=414	=414	=414	=414	=414	=414	=414
8DDL	.	8AL	.	8ccL	.	8fXL	.	.
8DD	.	8A	.	8cc	.	8f	.	.
8DD	.	8A	.	8cc	.	8e	.	.
8DDJ	.	8AJ	.	8ccJ	.	8fJ	.	.
8DDL	.	8AL	.	8ccL	.	8f#L	.	.
8DD	.	8A	.	8cc	.	8f#	.	.
8DD	.	8A	.	8cc	.	8e	.	.
8DDJ	.	8AJ	.	8ccJ	.	8f#J	.	.
=415	=415	=415	=415	=415	=415	=415	=415	=415
!LO:TX:b:i:t=piu	!	!LO:TX:b:i:t=piu	!	!LO:TX:b:i:t=piu	!LO:DY:a	!LO:TX:b:i:t=piu	!	!
8DDL	f	8GL	f	8bL	f f	8gL	.	V(64)
8DD	.	8GG	.	8B	.	8g	.	.
8DD	.	8GG	.	8B	.	8f#	.	.
8DDJ	.	8GGJ	.	8BJ	.	8gJ	.	.
8DDL	.	8GGL	.	8BL	.	8aL	.	.
8DD	.	8GG	.	8B	.	8a	.	.
8DD	.	8GG	.	8B	.	8g	.	.
8DDJ	.	8GGJ	.	8BJ	.	8aJ	.	.
=416	=416	=416	=416	=416	=416	=416	=416	=416
8DDL	.	8GGL	.	8BL	.	8bL	.	.
8DD	.	8GG	.	8B	.	8b	.	.
8DD	.	8GG	.	8B	.	8a	.	.
8DDJ	.	8GGJ	.	8BJ	.	8bJ	.	.
8DDL	.	8GGL	.	8BL	.	8ccL	.	.
8DD	.	8GG	.	8B	.	8cc	.	.
8DD	.	8GG	.	8B	.	8b	.	.
8DDJ	.	8GGJ	.	8BJ	.	8ccJ	.	.
=417	=417	=417	=417	=417	=417	=417	=417	=417
8DDL	.	8AAL	.	8cL	.	8ddL	.	V7
8DD	.	8AA	.	8c	.	8dd	.	.
8DD	.	8AA	.	8c	.	8cc	.	.
8DDJ	.	8AAJ	.	8cJ	.	8ddJ	.	.
8DDL	.	8AAL	.	8cL	.	8eeL	.	.
8DD	.	8AA	.	8c	.	8ee	.	.
8DD	.	8AA	.	8c	.	8dd	.	.
8DDJ	.	8AAJ	.	8cJ	.	8eeJ	.	.
=418	=418	=418	=418	=418	=418	=418	=418	=418
8DDL	.	8AAL	.	8cL	.	8ffXL	.	.
8DD	.	8AA	.	8c	.	8ff	.	.
8DD	.	8AA	.	8c	.	8ee	.	.
8DDJ	.	8AAJ	.	8cJ	.	8ffJ	.	.
8DDL	.	8AAL	.	8cL	.	8ff#L	.	.
8DD	.	8AA	.	8c	.	8ff#	.	.
8DD	.	8AA	.	8c	.	8ee	.	.
8DDJ	.	8AAJ	.	8cJ	.	8ff#J	.	.
=419	=419	=419	=419	=419	=419	=419	=419	=419
8GGL	.	8GGL	.	8BL	.	8ggL	.	I
8GG	.	8B	.	8b	.	8gg	.	.
8AA	.	8A	.	8a	.	8ff#	.	.
8GGJ	.	8BJ	.	8bJ	.	8ggJ	.	.
8GGL	.	8BL	.	8bL	.	8ggL	.	.
8GG	.	8B	.	8b	.	8gg	.	.
8AA	.	8A	.	8a	.	8ff#	.	.
8GGJ	.	8BJ	.	8bJ	.	8ggJ	.	.
=420	=420	=420	=420	=420	=420	=420	=420	=420
8FF#L	.	8cL	.	8ccL	.	8aaL	.	viio6
8FF#	.	8c	.	8cc	.	8aa	.	.
8GG	.	8B	.	8b	.	8gg	.	.
8FF#J	.	8cJ	.	8ccJ	.	8aaJ	.	.
8EEL	.	8dL	.	8ddL	.	8bbL	.	vi7
8EE	.	8d	.	8dd	.	8bb	.	.
8FF#	.	8c	.	8cc	.	8aa	.	.
8EEJ	.	8dJ	.	8ddJ	.	8bbJ	.	.
=421	=421	=421	=421	=421	=421	=421	=421	=421
8DDL	.	8eL	.	8eeL	.	8cccL	.	V9
8DD	.	8e	.	8ee	.	8ccc	.	.
8EE	.	8d	.	8dd	.	8bb	.	.
8DDJ	.	8eJ	.	8eeJ	.	8cccJ	.	.
8CCL	.	8f#L	.	8ff#L	.	8dddL	.	V2
8CC	.	8f#	.	8ff#	.	8ddd	.	.
8DD	.	8e	.	8ee	.	8ccc	.	.
8CCJ	.	8f#J	.	8ff#J	.	8dddJ	.	.
=422	=422	=422	=422	=422	=422	=422	=422	=422
8BBBL	.	8gL	.	8ggL	.	8eeeL	.	I6
8BBB	.	8g	.	8gg	.	8eee	.	.
8CC	.	8f#	.	8ff#	.	8ddd	.	.
8BBBJ	.	8gJ	.	8ggJ	.	8eeeJ	.	.
8AAAL	.	8aL	.	8aaL	.	8fff#L	.	viio6
8AAA	.	8a	.	8aa	.	8fff#	.	.
8BBB	.	8g	.	8gg	.	8eee	.	.
8AAAJ	.	8aJ	.	8aaJ	.	8fff#J	.	.
=423	=423	=423	=423	=423	=423	=423	=423	=423
4GGG 4AA	ff	4b	ff	4bb	ff	8gggL	ff	I
.	.	.	.	.	.	8ggg	.	.
8DL	.	8dL	.	8ddL	.	8ddd	.	.
8DJ	.	8dJ	.	8ddJ	.	8dddJ	.	.
8BBL	.	8BL	.	8bL	.	8bbL	.	.
8BBJ	.	8BJ	.	8bJ	.	8bb	.	.
8DL	.	8dL	.	8ddL	.	8ddd	.	.
8DJ	.	8dJ	.	8ddJ	.	8dddJ	.	.
=424	=424	=424	=424	=424	=424	=424	=424	=424
8GL	.	8GL	.	8gL	.	8ggL	.	.
8GJ	.	8GJ	.	8gJ	.	8ggJ	.	.
8BL	.	8BL	.	8bL	.	8bbL	.	.
8BJ	.	8BJ	.	8bJ	.	8bbJ	.	.
8DL	.	8DL	.	8dL	.	8ddL	.	I64
8DJ	.	8DJ	.	8dJ	.	8ddJ	.	.
8GL	.	8GL	.	8gL	.	8ggL	.	.
8GJ	.	8GJ	.	8gJ	.	8ggJ	.	.
=425	=425	=425	=425	=425	=425	=425	=425	=425
8BBL	.	8BBL	.	8BL	.	8bL	.	I6
8BBJ	.	8BBJ	.	8BJ	.	8bJ	.	.
8DL	.	8DL	.	8dL	.	8ddL	.	.
8DJ	.	8DJ	.	8dJ	.	8ddJ	.	.
8GGL	.	8GGL	.	8GL	.	8gL	.	I
8GGJ	.	8GGJ	.	8GJ	.	8gJ	.	.
8BBL	.	8BBL	.	8BL	.	8bL	.	.
8BBJ	.	8BBJ	.	8BJ	.	8bJ	.	.
=426	=426	=426	=426	=426	=426	=426	=426	=426
8DDL	.	8DL	.	8DL	.	8dL	.	I64
8DDJ	.	8DJ	.	8DJ	.	8dJ	.	.
8GGL	.	8GL	.	8GL	.	8gL	.	.
8GGJ	.	8GJ	.	8GJ	.	8gJ	.	.
8BBBL	.	8BBL	.	8BL	.	8BL	.	I6
8BBBJ	.	8BBJ	.	8BJ	.	8BJ	.	.
8GGGL	.	8BL	.	8gL	.	8ddL	.	.
8GGGJ	.	8BJ	.	8gJ	.	8ddJ	.	.
=427	=427	=427	=427	=427	=427	=427	=427	=427
4CC	.	4c	.	4e	.	4ee	.	IV
4r	.	4r	.	4r	.	4r	.	.
2r	.	2r	.	2r	.	2r	.	.
=428	=428	=428	=428	=428	=428	=428	=428	=428
4DD	.	4D 4c	.	4D 4A 4f#	.	4D 4d 4a 4ff#	.	V7
4r	.	4r	.	4r	.	4r	.	.
2r	.	2r	.	2r	.	2r	.	.
=429	=429	=429	=429	=429	=429	=429	=429	=429
4GGG	.	4GG 4D 4B	.	4D 4B 4g	.	4G 4d 4b 4gg	.	I\\
4r	.	4r	.	4r	.	4r	.	.
2r	.	2r	.	2r	.	2r	.	.
==	==	==	==	==	==	==	==	==
*-	*-	*-	*-	*-	*-	*-	*-	*-
!!!system-decoration: [(s1,s2,s3,s4)]
